; generated by Slic3r 1.3.1-dev (Build (Unknown revision)) on 2022-06-22 at 13:00:03

; external perimeters extrusion width = 1.32mm (12.75mm^3/s)
; perimeters extrusion width = 1.26mm (12.03mm^3/s)
; infill extrusion width = 2.00mm (20.91mm^3/s)
; solid infill extrusion width = 2.00mm (41.82mm^3/s)
; top infill extrusion width = 1.26mm (18.04mm^3/s)

M107 ; disable fan
G92 E0 ; reset extrusion distance
M104 S200 ; set temperature
G28 ; home all axes
G1 Z5 F5000 ; lift nozzle

; Filament gcode

M109 S200 ; set temperature and wait for it to be reached
G21 ; set units to millimeters
G90 ; use absolute coordinates
M82 ; use absolute distances for extrusion
G92 E0 ; reset extrusion distance
G1 Z2.650 F1800.000 ; move to next layer (0)
G1 E-2.00000 F2400.00000 ; retract extruder 0
G92 E0 ; reset extrusion distance
G1 X169.059 Y189.527 F1800.000 ; move to first external perimeter point
G1 E2.00000 F2400.00000 ; unretract extruder 0
G1 F600.000
G1 X169.911 Y188.826 E2.00420 ; external perimeter
G1 X170.792 Y188.163 E2.00841 ; external perimeter
G1 X171.703 Y187.542 E2.01261 ; external perimeter
G1 X172.641 Y186.962 E2.01682 ; external perimeter
G1 X173.605 Y186.425 E2.02102 ; external perimeter
G1 X174.591 Y185.932 E2.02523 ; external perimeter
G1 X175.599 Y185.484 E2.02943 ; external perimeter
G1 X176.626 Y185.082 E2.03364 ; external perimeter
G1 X177.670 Y184.727 E2.03784 ; external perimeter
G1 X178.729 Y184.420 E2.04205 ; external perimeter
G1 X179.801 Y184.161 E2.04625 ; external perimeter
G1 X180.884 Y183.950 E2.05045 ; external perimeter
G1 X181.975 Y183.789 E2.05466 ; external perimeter
G1 X183.072 Y183.677 E2.05886 ; external perimeter
G1 X184.173 Y183.614 E2.06307 ; external perimeter
G1 X185.276 Y183.602 E2.06727 ; external perimeter
G1 X186.378 Y183.639 E2.07148 ; external perimeter
G1 X187.477 Y183.726 E2.07568 ; external perimeter
G1 X188.572 Y183.863 E2.07989 ; external perimeter
G1 X189.659 Y184.049 E2.08409 ; external perimeter
G1 X190.736 Y184.284 E2.08829 ; external perimeter
G1 X191.802 Y184.568 E2.09250 ; external perimeter
G1 X192.854 Y184.899 E2.09670 ; external perimeter
G1 X193.890 Y185.277 E2.10091 ; external perimeter
G1 X194.907 Y185.702 E2.10511 ; external perimeter
G1 X195.905 Y186.173 E2.10932 ; external perimeter
G1 X196.880 Y186.688 E2.11352 ; external perimeter
G1 X197.831 Y187.246 E2.11773 ; external perimeter
G1 X198.756 Y187.847 E2.12193 ; external perimeter
G1 X199.652 Y188.490 E2.12614 ; external perimeter
G1 X200.519 Y189.172 E2.13034 ; external perimeter
G1 X201.354 Y189.892 E2.13454 ; external perimeter
G1 X202.155 Y190.650 E2.13875 ; external perimeter
G1 X202.922 Y191.442 E2.14295 ; external perimeter
G1 X203.652 Y192.269 E2.14716 ; external perimeter
G1 X204.344 Y193.128 E2.15136 ; external perimeter
G1 X204.996 Y194.017 E2.15557 ; external perimeter
G1 X205.607 Y194.935 E2.15977 ; external perimeter
G1 X206.177 Y195.880 E2.16398 ; external perimeter
G1 X206.703 Y196.849 E2.16818 ; external perimeter
G1 X207.184 Y197.841 E2.17238 ; external perimeter
G1 X207.621 Y198.854 E2.17659 ; external perimeter
G1 X208.011 Y199.886 E2.18079 ; external perimeter
G1 X208.354 Y200.934 E2.18500 ; external perimeter
G1 X208.650 Y201.996 E2.18920 ; external perimeter
G1 X208.897 Y203.071 E2.19341 ; external perimeter
G1 X209.095 Y204.156 E2.19761 ; external perimeter
G1 X209.244 Y205.249 E2.20182 ; external perimeter
G1 X209.344 Y206.347 E2.20602 ; external perimeter
G1 X209.394 Y207.449 E2.21023 ; external perimeter
G1 X209.394 Y208.551 E2.21443 ; external perimeter
G1 X209.344 Y209.653 E2.21863 ; external perimeter
G1 X209.244 Y210.751 E2.22284 ; external perimeter
G1 X209.095 Y211.844 E2.22704 ; external perimeter
G1 X208.897 Y212.929 E2.23125 ; external perimeter
G1 X208.650 Y214.004 E2.23545 ; external perimeter
G1 X208.354 Y215.066 E2.23966 ; external perimeter
G1 X208.011 Y216.114 E2.24386 ; external perimeter
G1 X207.621 Y217.146 E2.24807 ; external perimeter
G1 X207.184 Y218.159 E2.25227 ; external perimeter
G1 X206.703 Y219.151 E2.25647 ; external perimeter
G1 X206.177 Y220.120 E2.26068 ; external perimeter
G1 X205.607 Y221.065 E2.26488 ; external perimeter
G1 X204.996 Y221.983 E2.26909 ; external perimeter
G1 X204.344 Y222.872 E2.27329 ; external perimeter
G1 X203.652 Y223.731 E2.27750 ; external perimeter
G1 X202.922 Y224.558 E2.28170 ; external perimeter
G1 X202.155 Y225.350 E2.28591 ; external perimeter
G1 X201.354 Y226.108 E2.29011 ; external perimeter
G1 X200.519 Y226.828 E2.29432 ; external perimeter
G1 X199.652 Y227.510 E2.29852 ; external perimeter
G1 X198.756 Y228.153 E2.30272 ; external perimeter
G1 X197.831 Y228.754 E2.30693 ; external perimeter
G1 X196.880 Y229.312 E2.31113 ; external perimeter
G1 X195.905 Y229.827 E2.31534 ; external perimeter
G1 X194.907 Y230.298 E2.31954 ; external perimeter
G1 X193.890 Y230.723 E2.32375 ; external perimeter
G1 X192.854 Y231.101 E2.32795 ; external perimeter
G1 X191.802 Y231.432 E2.33216 ; external perimeter
G1 X190.736 Y231.716 E2.33636 ; external perimeter
G1 X189.659 Y231.951 E2.34056 ; external perimeter
G1 X188.572 Y232.137 E2.34477 ; external perimeter
G1 X187.477 Y232.274 E2.34897 ; external perimeter
G1 X186.378 Y232.361 E2.35318 ; external perimeter
G1 X185.276 Y232.398 E2.35738 ; external perimeter
G1 X184.173 Y232.386 E2.36159 ; external perimeter
G1 X183.072 Y232.323 E2.36579 ; external perimeter
G1 X181.975 Y232.211 E2.37000 ; external perimeter
G1 X180.884 Y232.050 E2.37420 ; external perimeter
G1 X179.801 Y231.839 E2.37841 ; external perimeter
G1 X178.729 Y231.580 E2.38261 ; external perimeter
G1 X177.670 Y231.273 E2.38681 ; external perimeter
G1 X176.626 Y230.918 E2.39102 ; external perimeter
G1 X175.599 Y230.516 E2.39522 ; external perimeter
G1 X174.591 Y230.068 E2.39943 ; external perimeter
G1 X173.605 Y229.575 E2.40363 ; external perimeter
G1 X172.641 Y229.038 E2.40784 ; external perimeter
G1 X171.703 Y228.458 E2.41204 ; external perimeter
G1 X170.792 Y227.837 E2.41625 ; external perimeter
G1 X169.911 Y227.174 E2.42045 ; external perimeter
G1 X169.059 Y226.473 E2.42465 ; external perimeter
G1 X168.241 Y225.734 E2.42886 ; external perimeter
G1 X167.457 Y224.958 E2.43306 ; external perimeter
G1 X166.708 Y224.148 E2.43727 ; external perimeter
G1 X165.997 Y223.305 E2.44147 ; external perimeter
G1 X165.325 Y222.431 E2.44568 ; external perimeter
G1 X164.693 Y221.527 E2.44988 ; external perimeter
G1 X164.103 Y220.596 E2.45409 ; external perimeter
G1 X163.555 Y219.639 E2.45829 ; external perimeter
G1 X163.051 Y218.658 E2.46250 ; external perimeter
G1 X162.592 Y217.655 E2.46670 ; external perimeter
G1 X162.178 Y216.632 E2.47090 ; external perimeter
G1 X161.812 Y215.592 E2.47511 ; external perimeter
G1 X161.492 Y214.537 E2.47931 ; external perimeter
G1 X161.221 Y213.468 E2.48352 ; external perimeter
G1 X160.998 Y212.388 E2.48772 ; external perimeter
G1 X160.824 Y211.299 E2.49193 ; external perimeter
G1 X160.700 Y210.203 E2.49613 ; external perimeter
G1 X160.625 Y209.103 E2.50034 ; external perimeter
G1 X160.600 Y208.000 E2.50454 ; external perimeter
G1 X160.625 Y206.897 E2.50875 ; external perimeter
G1 X160.700 Y205.797 E2.51295 ; external perimeter
G1 X160.824 Y204.701 E2.51715 ; external perimeter
G1 X160.998 Y203.612 E2.52136 ; external perimeter
G1 X161.221 Y202.532 E2.52556 ; external perimeter
G1 X161.492 Y201.463 E2.52977 ; external perimeter
G1 X161.812 Y200.408 E2.53397 ; external perimeter
G1 X162.178 Y199.368 E2.53818 ; external perimeter
G1 X162.592 Y198.345 E2.54238 ; external perimeter
G1 X163.051 Y197.342 E2.54659 ; external perimeter
G1 X163.555 Y196.361 E2.55079 ; external perimeter
G1 X164.103 Y195.404 E2.55499 ; external perimeter
G1 X164.693 Y194.473 E2.55920 ; external perimeter
G1 X165.325 Y193.569 E2.56340 ; external perimeter
G1 X165.997 Y192.695 E2.56761 ; external perimeter
G1 X166.708 Y191.852 E2.57181 ; external perimeter
G1 X167.457 Y191.042 E2.57602 ; external perimeter
G1 X168.241 Y190.266 E2.58022 ; external perimeter
G1 X168.926 Y189.648 E2.58374 ; external perimeter
G1 E0.58374 F2400.00000 ; retract extruder 0
G92 E0 ; reset extrusion distance
G1 X168.107 Y193.114 F1800.000 ; move to first infill point
G1 E2.00000 F2400.00000 ; unretract extruder 0
G1 F600.000
G1 X168.090 Y193.131 E2.00009 ; infill
G1 X170.312 Y190.917 E2.01223 ; infill
G1 X171.066 Y190.236 E2.01616 ; infill
G1 X171.850 Y189.590 E2.02009 ; infill
G1 X172.662 Y188.980 E2.02403 ; infill
G1 X173.501 Y188.407 E2.02796 ; infill
G1 X174.365 Y187.873 E2.03189 ; infill
G1 X175.252 Y187.379 E2.03582 ; infill
G1 X176.161 Y186.925 E2.03975 ; infill
G1 X177.089 Y186.512 E2.04368 ; infill
G1 X177.719 Y186.266 E2.04630 ; infill
G1 X163.260 Y200.725 E2.12544 ; infill
G1 X162.893 Y201.755 E2.12967 ; infill
G1 X162.599 Y202.728 E2.13360 ; infill
G1 X162.349 Y203.712 E2.13754 ; infill
G1 X162.170 Y204.578 E2.14096 ; infill
G1 X181.575 Y185.174 E2.24717 ; infill
G1 X181.957 Y185.099 E2.24868 ; infill
G1 X182.962 Y184.950 E2.25261 ; infill
G1 X183.973 Y184.847 E2.25654 ; infill
G1 X184.706 Y184.806 E2.25938 ; infill
G1 X161.802 Y207.710 E2.38475 ; infill
G1 X161.777 Y208.749 E2.38877 ; infill
G1 X161.800 Y209.764 E2.39270 ; infill
G1 X161.845 Y210.430 E2.39529 ; infill
G1 X187.430 Y184.846 E2.53532 ; infill
G1 X188.030 Y184.893 E2.53766 ; infill
G1 X189.038 Y185.019 E2.54159 ; infill
G1 X189.876 Y185.163 E2.54488 ; infill
G1 X162.161 Y212.878 E2.69658 ; infill
G1 X162.349 Y213.785 E2.70016 ; infill
G1 X162.699 Y215.103 E2.70544 ; infill
G1 X192.106 Y185.697 E2.86640 ; infill
G1 X192.983 Y185.973 E2.86995 ; infill
G1 X194.154 Y186.412 E2.87479 ; infill
G1 X163.414 Y217.152 E3.04305 ; infill
G1 X163.611 Y217.642 E3.04509 ; infill
G1 X164.034 Y218.565 E3.04902 ; infill
G1 X164.282 Y219.048 E3.05112 ; infill
G1 X196.048 Y187.281 E3.22499 ; infill
G1 X196.691 Y187.621 E3.22781 ; infill
G1 X197.804 Y188.289 E3.23283 ; infill
G1 X165.290 Y220.803 E3.41080 ; infill
G1 X165.547 Y221.208 E3.41265 ; infill
G1 X166.129 Y222.041 E3.41658 ; infill
G1 X166.428 Y222.429 E3.41848 ; infill
G1 X199.430 Y189.426 E3.59912 ; infill
G1 X200.043 Y189.909 E3.60214 ; infill
G1 X200.933 Y190.687 E3.60671 ; infill
G1 X167.689 Y223.932 E3.78868 ; infill
G1 X168.093 Y224.369 E3.79098 ; infill
G1 X169.070 Y225.314 E3.79624 ; infill
G1 X202.316 Y192.068 E3.97821 ; infill
G1 X202.929 Y192.762 E3.98180 ; infill
G1 X203.578 Y193.569 E3.98581 ; infill
G1 X170.572 Y226.575 E4.16646 ; infill
G1 X171.165 Y227.020 E4.16933 ; infill
G1 X172.198 Y227.713 E4.17415 ; infill
G1 X204.715 Y195.196 E4.35213 ; infill
G1 X205.254 Y196.088 E4.35616 ; infill
G1 X205.723 Y196.951 E4.35996 ; infill
G1 X173.954 Y228.721 E4.53385 ; infill
G1 X174.664 Y229.075 E4.53692 ; infill
G1 X175.850 Y229.589 E4.54192 ; infill
G1 X206.592 Y198.846 E4.71019 ; infill
G1 X206.944 Y199.777 E4.71404 ; infill
G1 X207.303 Y200.898 E4.71860 ; infill
G1 X177.900 Y230.301 E4.87953 ; infill
G1 X178.475 Y230.468 E4.88185 ; infill
G1 X179.463 Y230.707 E4.88578 ; infill
G1 X180.129 Y230.836 E4.88841 ; infill
G1 X207.836 Y203.129 E5.04006 ; infill
G1 X207.942 Y203.711 E5.04235 ; infill
G1 X208.080 Y204.717 E5.04628 ; infill
G1 X208.157 Y205.572 E5.04961 ; infill
G1 X182.571 Y231.158 E5.18965 ; infill
G1 X183.490 Y231.210 E5.19321 ; infill
G1 X184.505 Y231.222 E5.19715 ; infill
G1 X185.298 Y231.195 E5.20021 ; infill
G1 X208.193 Y208.299 E5.32553 ; infill
G1 X208.171 Y208.774 E5.32737 ; infill
G1 X208.080 Y209.786 E5.33130 ; infill
G1 X207.942 Y210.792 E5.33523 ; infill
G1 X207.826 Y211.430 E5.33774 ; infill
G1 X188.426 Y230.829 E5.44392 ; infill
G1 X189.535 Y230.593 E5.44831 ; infill
G1 X190.517 Y230.332 E5.45224 ; infill
G1 X191.486 Y230.027 E5.45617 ; infill
G1 X192.284 Y229.735 E5.45947 ; infill
G1 X206.731 Y215.289 E5.53854 ; infill
G1 X206.584 Y215.676 E5.54014 ; infill
G1 X206.182 Y216.609 E5.54407 ; infill
G1 X205.739 Y217.522 E5.54800 ; infill
G1 X205.254 Y218.415 E5.55193 ; infill
G1 X204.730 Y219.285 E5.55587 ; infill
G1 X204.167 Y220.131 E5.55980 ; infill
G1 X203.566 Y220.950 E5.56373 ; infill
G1 X202.929 Y221.741 E5.56766 ; infill
G1 X202.256 Y222.502 E5.57159 ; infill
G1 X200.051 Y224.732 E5.58373 ; infill
G1 Z3.850 F1800.000 ; move to next layer (1)
G1 X168.843 Y189.265 F1800.000 ; move to first external perimeter point
G1 F600.000
G1 X169.700 Y188.558 E5.59174 ; external perimeter
G1 X170.594 Y187.887 E5.59981 ; external perimeter
G1 X171.518 Y187.257 E5.60788 ; external perimeter
G1 X172.469 Y186.668 E5.61595 ; external perimeter
G1 X173.446 Y186.124 E5.62402 ; external perimeter
G1 X174.446 Y185.624 E5.63208 ; external perimeter
G1 X175.468 Y185.170 E5.64015 ; external perimeter
G1 X176.509 Y184.763 E5.64822 ; external perimeter
G1 X177.568 Y184.403 E5.65629 ; external perimeter
G1 X178.642 Y184.091 E5.66435 ; external perimeter
G1 X179.729 Y183.828 E5.67242 ; external perimeter
G1 X180.826 Y183.615 E5.68049 ; external perimeter
G1 X181.933 Y183.451 E5.68856 ; external perimeter
G1 X183.045 Y183.338 E5.69663 ; external perimeter
G1 X184.161 Y183.274 E5.70469 ; external perimeter
G1 X185.280 Y183.262 E5.71276 ; external perimeter
G1 X186.397 Y183.300 E5.72083 ; external perimeter
G1 X187.512 Y183.388 E5.72890 ; external perimeter
G1 X188.621 Y183.527 E5.73696 ; external perimeter
G1 X189.724 Y183.715 E5.74503 ; external perimeter
G1 X190.816 Y183.954 E5.75310 ; external perimeter
G1 X191.897 Y184.241 E5.76117 ; external perimeter
G1 X192.963 Y184.577 E5.76924 ; external perimeter
G1 X194.014 Y184.961 E5.77730 ; external perimeter
G1 X195.046 Y185.391 E5.78537 ; external perimeter
G1 X196.057 Y185.868 E5.79344 ; external perimeter
G1 X197.046 Y186.391 E5.80151 ; external perimeter
G1 X198.010 Y186.957 E5.80957 ; external perimeter
G1 X198.947 Y187.566 E5.81764 ; external perimeter
G1 X199.857 Y188.218 E5.82571 ; external perimeter
G1 X200.735 Y188.909 E5.83378 ; external perimeter
G1 X201.582 Y189.640 E5.84185 ; external perimeter
G1 X202.395 Y190.408 E5.84991 ; external perimeter
G1 X203.172 Y191.212 E5.85798 ; external perimeter
G1 X203.912 Y192.050 E5.86605 ; external perimeter
G1 X204.613 Y192.921 E5.87412 ; external perimeter
G1 X205.275 Y193.823 E5.88218 ; external perimeter
G1 X205.895 Y194.753 E5.89025 ; external perimeter
G1 X206.472 Y195.711 E5.89832 ; external perimeter
G1 X207.005 Y196.694 E5.90639 ; external perimeter
G1 X207.494 Y197.700 E5.91446 ; external perimeter
G1 X207.936 Y198.727 E5.92252 ; external perimeter
G1 X208.332 Y199.772 E5.93059 ; external perimeter
G1 X208.680 Y200.835 E5.93866 ; external perimeter
G1 X208.979 Y201.912 E5.94673 ; external perimeter
G1 X209.230 Y203.002 E5.95479 ; external perimeter
G1 X209.431 Y204.102 E5.96286 ; external perimeter
G1 X209.582 Y205.210 E5.97093 ; external perimeter
G1 X209.683 Y206.324 E5.97900 ; external perimeter
G1 X209.734 Y207.441 E5.98707 ; external perimeter
G1 X209.734 Y208.559 E5.99513 ; external perimeter
G1 X209.683 Y209.676 E6.00320 ; external perimeter
G1 X209.582 Y210.790 E6.01127 ; external perimeter
G1 X209.431 Y211.898 E6.01934 ; external perimeter
G1 X209.230 Y212.998 E6.02740 ; external perimeter
G1 X208.979 Y214.088 E6.03547 ; external perimeter
G1 X208.680 Y215.165 E6.04354 ; external perimeter
G1 X208.332 Y216.228 E6.05161 ; external perimeter
G1 X207.936 Y217.273 E6.05968 ; external perimeter
G1 X207.494 Y218.300 E6.06774 ; external perimeter
G1 X207.005 Y219.306 E6.07581 ; external perimeter
G1 X206.472 Y220.289 E6.08388 ; external perimeter
G1 X205.895 Y221.247 E6.09195 ; external perimeter
G1 X205.275 Y222.177 E6.10001 ; external perimeter
G1 X204.613 Y223.079 E6.10808 ; external perimeter
G1 X203.912 Y223.950 E6.11615 ; external perimeter
G1 X203.172 Y224.788 E6.12422 ; external perimeter
G1 X202.395 Y225.592 E6.13229 ; external perimeter
G1 X201.582 Y226.360 E6.14035 ; external perimeter
G1 X200.735 Y227.091 E6.14842 ; external perimeter
G1 X199.857 Y227.782 E6.15649 ; external perimeter
G1 X198.947 Y228.434 E6.16456 ; external perimeter
G1 X198.010 Y229.043 E6.17262 ; external perimeter
