; generated by Slic3r 1.3.1-dev (Build (Unknown revision)) on 2022-12-16 at 11:54:16

; external perimeters extrusion width = 1.32mm (12.75mm^3/s)
; perimeters extrusion width = 1.26mm (12.03mm^3/s)
; infill extrusion width = 2.00mm (20.91mm^3/s)
; solid infill extrusion width = 2.00mm (41.82mm^3/s)
; top infill extrusion width = 1.26mm (18.04mm^3/s)

M107 ; disable fan
G92 E0 ; reset extrusion distance
M104 S200 ; set temperature
G28 ; home all axes
G1 Z5 F5000 ; lift nozzle

; Filament gcode

M109 S200 ; set temperature and wait for it to be reached
G21 ; set units to millimeters
G90 ; use absolute coordinates
M82 ; use absolute distances for extrusion
G92 E0 ; reset extrusion distance
G1 Z11.190 F1800.000 ; move to next layer (0)
G1 E-2.00000 F2400.00000 ; retract extruder 0
G92 E0 ; reset extrusion distance
G1 X183.586 Y224.356 F1800.000 ; move to first external small perimeter point
G1 E2.00000 F2400.00000 ; unretract extruder 0
G1 F600.000
G1 X182.681 Y223.612 E2.00179 ; external small perimeter
G1 X182.243 Y223.196 E2.00271 ; external small perimeter
G1 X181.752 Y222.670 E2.00381 ; external small perimeter
G1 X181.228 Y222.041 E2.00505 ; external small perimeter
G1 X180.695 Y221.327 E2.00641 ; external small perimeter
G1 X180.183 Y220.562 E2.00782 ; external small perimeter
G1 X179.721 Y219.784 E2.00920 ; external small perimeter
G1 X179.336 Y219.040 E2.01047 ; external small perimeter
G1 X179.063 Y218.424 E2.01150 ; external small perimeter
G1 X178.834 Y217.796 E2.01252 ; external small perimeter
G1 X178.676 Y217.230 E2.01342 ; external small perimeter
G1 X178.579 Y216.718 E2.01421 ; external small perimeter
G1 X178.537 Y216.263 E2.01491 ; external small perimeter
G1 X178.541 Y215.865 E2.01551 ; external small perimeter
G1 X178.584 Y215.523 E2.01604 ; external small perimeter
G1 X178.657 Y215.230 E2.01650 ; external small perimeter
G1 X178.755 Y214.980 E2.01691 ; external small perimeter
G1 X178.873 Y214.770 E2.01728 ; external small perimeter
G1 X179.018 Y214.579 E2.01764 ; external small perimeter
G1 X179.195 Y214.400 E2.01803 ; external small perimeter
G1 X179.417 Y214.223 E2.01846 ; external small perimeter
G1 X179.694 Y214.049 E2.01896 ; external small perimeter
G1 X180.032 Y213.881 E2.01953 ; external small perimeter
G1 X180.436 Y213.724 E2.02020 ; external small perimeter
G1 X180.910 Y213.583 E2.02095 ; external small perimeter
G1 X181.454 Y213.464 E2.02180 ; external small perimeter
G1 X182.107 Y213.367 E2.02281 ; external small perimeter
G1 X182.788 Y213.309 E2.02385 ; external small perimeter
G1 X183.524 Y213.290 E2.02497 ; external small perimeter
G1 X184.295 Y213.313 E2.02615 ; external small perimeter
G1 X184.830 Y213.356 E2.02697 ; external small perimeter
G1 X185.208 Y213.414 E2.02755 ; external small perimeter
G1 X185.492 Y213.486 E2.02800 ; external small perimeter
G1 X185.704 Y213.566 E2.02834 ; external small perimeter
G1 X185.884 Y213.664 E2.02865 ; external small perimeter
G1 X186.043 Y213.786 E2.02896 ; external small perimeter
G1 X186.194 Y213.939 E2.02929 ; external small perimeter
G1 X186.349 Y214.141 E2.02967 ; external small perimeter
G1 X186.582 Y214.563 E2.03041 ; external small perimeter
G1 X186.701 Y214.883 E2.03093 ; external small perimeter
G1 X186.781 Y215.200 E2.03143 ; external small perimeter
G1 X186.821 Y215.507 E2.03190 ; external small perimeter
G1 X186.823 Y215.803 E2.03235 ; external small perimeter
G1 X186.791 Y216.096 E2.03280 ; external small perimeter
G1 X186.722 Y216.408 E2.03329 ; external small perimeter
G1 X186.610 Y216.751 E2.03384 ; external small perimeter
G1 X186.445 Y217.138 E2.03448 ; external small perimeter
G1 X186.215 Y217.585 E2.03525 ; external small perimeter
G1 X184.841 Y219.890 E2.03934 ; external small perimeter
G1 X184.511 Y220.532 E2.04044 ; external small perimeter
G1 X184.248 Y221.141 E2.04145 ; external small perimeter
G1 X184.043 Y221.733 E2.04241 ; external small perimeter
G1 X183.890 Y222.332 E2.04335 ; external small perimeter
G1 X183.613 Y224.178 E2.04620 ; external small perimeter
G1 E0.04620 F2400.00000 ; retract extruder 0
G92 E0 ; reset extrusion distance
G1 X182.730 Y222.307 F1800.000 ; move to first infill point
G1 E2.00000 F2400.00000 ; unretract extruder 0
G1 F600.000
G1 X182.947 Y221.705 E2.00010 ; infill
G1 X182.077 Y220.349 F1800.000 ; move to first infill point
G1 F600.000
G1 X183.574 Y218.852 E2.00372 ; infill
G1 E0.00372 F2400.00000 ; retract extruder 0
G92 E0 ; reset extrusion distance
G1 X180.356 Y219.017 F1800.000 ; move to first infill point
G1 E2.00000 F2400.00000 ; unretract extruder 0
G1 F600.000
G1 X184.888 Y214.485 E2.01096 ; infill
G1 X184.270 Y214.467 E2.01202 ; infill
G1 X183.642 Y214.484 E2.01309 ; infill
G1 X183.077 Y214.531 E2.01406 ; infill
G1 X182.551 Y214.609 E2.01497 ; infill
G1 X182.140 Y214.699 E2.01569 ; infill
G1 X181.560 Y214.895 E2.01674 ; infill
G1 X181.241 Y215.079 E2.01737 ; infill
G1 X179.743 Y216.577 E2.02099 ; infill
G1 Z12.390 F1800.000 ; move to next layer (1)
G1 X183.814 Y224.708 F1800.000 ; move to first external small perimeter point
G1 F600.000
G1 X183.434 Y224.559 E2.02217 ; external small perimeter
G1 X183.175 Y224.416 E2.02302 ; external small perimeter
G1 X182.851 Y224.192 E2.02416 ; external small perimeter
G1 X182.456 Y223.867 E2.02564 ; external small perimeter
G1 X182.001 Y223.435 E2.02744 ; external small perimeter
G1 X181.497 Y222.895 E2.02958 ; external small perimeter
G1 X180.961 Y222.252 E2.03199 ; external small perimeter
G1 X180.417 Y221.524 E2.03462 ; external small perimeter
G1 X179.895 Y220.743 E2.03733 ; external small perimeter
G1 X179.424 Y219.949 E2.03999 ; external small perimeter
G1 X179.029 Y219.187 E2.04247 ; external small perimeter
G1 X178.747 Y218.551 E2.04448 ; external small perimeter
G1 X178.510 Y217.900 E2.04648 ; external small perimeter
G1 X178.345 Y217.307 E2.04825 ; external small perimeter
G1 X178.242 Y216.765 E2.04984 ; external small perimeter
G1 X178.197 Y216.277 E2.05126 ; external small perimeter
G1 X178.201 Y215.843 E2.05251 ; external small perimeter
G1 X178.249 Y215.460 E2.05362 ; external small perimeter
G1 X178.332 Y215.126 E2.05462 ; external small perimeter
G1 X178.448 Y214.834 E2.05552 ; external small perimeter
G1 X178.588 Y214.584 E2.05635 ; external small perimeter
G1 X178.760 Y214.356 E2.05718 ; external small perimeter
G1 X178.967 Y214.147 E2.05803 ; external small perimeter
G1 X179.221 Y213.946 E2.05896 ; external small perimeter
G1 X179.528 Y213.752 E2.06001 ; external small perimeter
G1 X179.894 Y213.570 E2.06119 ; external small perimeter
G1 X180.326 Y213.402 E2.06252 ; external small perimeter
G1 X180.825 Y213.254 E2.06403 ; external small perimeter
G1 X181.393 Y213.129 E2.06571 ; external small perimeter
G1 X182.067 Y213.029 E2.06767 ; external small perimeter
G1 X182.769 Y212.970 E2.06971 ; external small perimeter
G1 X183.524 Y212.950 E2.07189 ; external small perimeter
G1 X184.313 Y212.973 E2.07416 ; external small perimeter
G1 X184.870 Y213.018 E2.07578 ; external small perimeter
G1 X185.276 Y213.081 E2.07696 ; external small perimeter
G1 X185.595 Y213.161 E2.07791 ; external small perimeter
G1 X185.846 Y213.257 E2.07869 ; external small perimeter
G1 X186.069 Y213.378 E2.07942 ; external small perimeter
G1 X186.268 Y213.530 E2.08014 ; external small perimeter
G1 X186.451 Y213.715 E2.08089 ; external small perimeter
G1 X186.631 Y213.949 E2.08174 ; external small perimeter
G1 X186.895 Y214.430 E2.08333 ; external small perimeter
G1 X187.026 Y214.781 E2.08441 ; external small perimeter
G1 X187.115 Y215.137 E2.08547 ; external small perimeter
G1 X187.161 Y215.484 E2.08648 ; external small perimeter
G1 X187.163 Y215.820 E2.08745 ; external small perimeter
G1 X187.127 Y216.151 E2.08841 ; external small perimeter
G1 X187.050 Y216.498 E2.08943 ; external small perimeter
G1 X186.928 Y216.871 E2.09057 ; external small perimeter
G1 X186.753 Y217.282 E2.09186 ; external small perimeter
G1 X186.513 Y217.750 E2.09337 ; external small perimeter
G1 X185.138 Y220.055 E2.10112 ; external small perimeter
G1 X184.818 Y220.677 E2.10314 ; external small perimeter
G1 X184.565 Y221.264 E2.10498 ; external small perimeter
G1 X184.369 Y221.831 E2.10671 ; external small perimeter
G1 X184.224 Y222.399 E2.10841 ; external small perimeter
G1 X183.936 Y224.319 E2.11401 ; external small perimeter
G1 X183.868 Y224.536 E2.11467 ; external small perimeter
G1 X183.368 Y222.828 F1800.000 ; move to first infill point
G1 F1175.513
G1 X182.005 Y221.443 E2.12422 ; infill
G1 X181.517 Y220.858 E2.12796 ; infill
G1 X181.016 Y220.188 E2.13207 ; infill
G1 X180.535 Y219.469 E2.13632 ; infill
G1 X180.104 Y218.742 E2.14048 ; infill
G1 X179.747 Y218.052 E2.14429 ; infill
G1 X179.501 Y217.498 E2.14727 ; infill
G1 X179.298 Y216.942 E2.15018 ; infill
G1 X179.163 Y216.458 E2.15265 ; infill
G1 X179.079 Y215.980 E2.15504 ; infill
G1 X183.982 Y220.883 E2.18912 ; infill
G1 X184.097 Y220.618 E2.19054 ; infill
G1 X184.458 Y219.916 E2.19442 ; infill
G1 X184.874 Y219.217 E2.19842 ; infill
G1 X179.952 Y214.295 E2.23263 ; infill
G1 X180.242 Y214.182 E2.23416 ; infill
G1 X180.638 Y214.064 E2.23619 ; infill
G1 X181.110 Y213.961 E2.23856 ; infill
G1 X181.694 Y213.874 E2.24146 ; infill
G1 X182.059 Y213.843 E2.24327 ; infill
G1 X185.830 Y217.614 E2.26948 ; infill
G1 X185.893 Y215.118 F1800.000 ; move to first infill point
G1 F1175.513
G1 X184.815 Y214.040 E2.27697 ; infill
G1 X184.826 Y214.051 E2.27705 ; infill
G1 Z13.590 F1800.000 ; move to next layer (2)
G1 X183.814 Y224.708 F1800.000 ; move to first external small perimeter point
G1 F600.000
G1 X183.434 Y224.559 E2.27823 ; external small perimeter
G1 X183.175 Y224.416 E2.27908 ; external small perimeter
G1 X182.851 Y224.192 E2.28022 ; external small perimeter
G1 X182.456 Y223.867 E2.28169 ; external small perimeter
G1 X182.001 Y223.435 E2.28350 ; external small perimeter
G1 X181.497 Y222.895 E2.28564 ; external small perimeter
G1 X180.961 Y222.252 E2.28805 ; external small perimeter
G1 X180.417 Y221.524 E2.29068 ; external small perimeter
G1 X179.895 Y220.743 E2.29339 ; external small perimeter
G1 X179.424 Y219.949 E2.29605 ; external small perimeter
G1 X179.029 Y219.187 E2.29853 ; external small perimeter
G1 X178.747 Y218.551 E2.30053 ; external small perimeter
G1 X178.510 Y217.900 E2.30253 ; external small perimeter
G1 X178.345 Y217.307 E2.30431 ; external small perimeter
G1 X178.242 Y216.765 E2.30590 ; external small perimeter
G1 X178.197 Y216.277 E2.30732 ; external small perimeter
G1 X178.201 Y215.843 E2.30857 ; external small perimeter
G1 X178.249 Y215.460 E2.30968 ; external small perimeter
G1 X178.332 Y215.126 E2.31068 ; external small perimeter
G1 X178.448 Y214.834 E2.31158 ; external small perimeter
G1 X178.588 Y214.584 E2.31241 ; external small perimeter
G1 X178.760 Y214.356 E2.31324 ; external small perimeter
G1 X178.967 Y214.147 E2.31408 ; external small perimeter
G1 X179.221 Y213.946 E2.31502 ; external small perimeter
G1 X179.528 Y213.752 E2.31607 ; external small perimeter
G1 X179.894 Y213.570 E2.31725 ; external small perimeter
G1 X180.326 Y213.402 E2.31858 ; external small perimeter
G1 X180.825 Y213.254 E2.32009 ; external small perimeter
G1 X181.393 Y213.129 E2.32176 ; external small perimeter
G1 X182.067 Y213.029 E2.32373 ; external small perimeter
G1 X182.769 Y212.970 E2.32576 ; external small perimeter
G1 X183.524 Y212.950 E2.32794 ; external small perimeter
G1 X184.313 Y212.973 E2.33022 ; external small perimeter
G1 X184.870 Y213.018 E2.33183 ; external small perimeter
G1 X185.276 Y213.081 E2.33302 ; external small perimeter
G1 X185.595 Y213.161 E2.33397 ; external small perimeter
G1 X185.846 Y213.257 E2.33475 ; external small perimeter
G1 X186.069 Y213.378 E2.33548 ; external small perimeter
G1 X186.268 Y213.530 E2.33620 ; external small perimeter
G1 X186.451 Y213.715 E2.33695 ; external small perimeter
G1 X186.631 Y213.949 E2.33780 ; external small perimeter
G1 X186.895 Y214.430 E2.33939 ; external small perimeter
G1 X187.026 Y214.781 E2.34047 ; external small perimeter
G1 X187.115 Y215.137 E2.34153 ; external small perimeter
G1 X187.161 Y215.484 E2.34254 ; external small perimeter
G1 X187.163 Y215.820 E2.34351 ; external small perimeter
G1 X187.127 Y216.151 E2.34447 ; external small perimeter
G1 X187.050 Y216.498 E2.34549 ; external small perimeter
G1 X186.928 Y216.871 E2.34662 ; external small perimeter
G1 X186.753 Y217.282 E2.34792 ; external small perimeter
G1 X186.513 Y217.750 E2.34943 ; external small perimeter
G1 X185.138 Y220.055 E2.35718 ; external small perimeter
G1 X184.818 Y220.677 E2.35920 ; external small perimeter
G1 X184.565 Y221.264 E2.36104 ; external small perimeter
G1 X184.369 Y221.831 E2.36277 ; external small perimeter
G1 X184.224 Y222.399 E2.36447 ; external small perimeter
G1 X183.936 Y224.319 E2.37007 ; external small perimeter
G1 X183.868 Y224.536 E2.37072 ; external small perimeter
G1 X182.302 Y222.830 F1800.000 ; move to first infill point
G1 F1200.000
G1 X183.370 Y221.762 E2.37802 ; infill
G1 X183.396 Y221.590 E2.37886 ; infill
G1 X183.573 Y220.898 E2.38230 ; infill
G1 X183.804 Y220.227 E2.38573 ; infill
G1 X184.097 Y219.551 E2.38929 ; infill
G1 X184.458 Y218.848 E2.39311 ; infill
G1 X185.473 Y217.145 E2.40268 ; infill
G1 X181.165 Y221.454 E2.43210 ; infill
G1 X180.535 Y220.537 E2.43747 ; infill
G1 X180.175 Y219.930 E2.44088 ; infill
G1 X185.968 Y214.136 E2.48044 ; infill
G1 X185.846 Y214.012 E2.48128 ; infill
G1 X185.711 Y213.953 E2.48199 ; infill
G1 X185.242 Y213.863 E2.48430 ; infill
G1 X184.770 Y213.825 E2.48658 ; infill
G1 X183.779 Y213.811 E2.49137 ; infill
G1 X179.374 Y218.217 E2.52145 ; infill
G1 X179.163 Y217.525 E2.52494 ; infill
G1 X179.084 Y217.105 E2.52701 ; infill
G1 X179.051 Y216.753 E2.52871 ; infill
G1 X179.054 Y216.469 E2.53009 ; infill
G1 X179.122 Y216.085 E2.53197 ; infill
G1 X179.170 Y215.964 E2.53260 ; infill
G1 X179.278 Y215.800 E2.53354 ; infill
G1 X180.430 Y214.647 E2.54141 ; infill
M106 S255 ; enable fan
G1 Z14.790 F1800.000 ; move to next layer (3)
G1 X183.814 Y224.708 F1800.000 ; move to first external small perimeter point
G1 F600.000
G1 X183.434 Y224.559 E2.54259 ; external small perimeter
G1 X183.175 Y224.416 E2.54344 ; external small perimeter
G1 X182.851 Y224.192 E2.54458 ; external small perimeter
G1 X182.456 Y223.867 E2.54606 ; external small perimeter
G1 X182.001 Y223.435 E2.54787 ; external small perimeter
G1 X181.497 Y222.895 E2.55000 ; external small perimeter
G1 X180.961 Y222.252 E2.55242 ; external small perimeter
G1 X180.417 Y221.524 E2.55504 ; external small perimeter
G1 X179.895 Y220.743 E2.55775 ; external small perimeter
G1 X179.424 Y219.949 E2.56042 ; external small perimeter
G1 X179.029 Y219.187 E2.56289 ; external small perimeter
G1 X178.747 Y218.551 E2.56490 ; external small perimeter
G1 X178.510 Y217.900 E2.56690 ; external small perimeter
G1 X178.345 Y217.307 E2.56868 ; external small perimeter
G1 X178.242 Y216.765 E2.57027 ; external small perimeter
G1 X178.197 Y216.277 E2.57168 ; external small perimeter
G1 X178.201 Y215.843 E2.57294 ; external small perimeter
G1 X178.249 Y215.460 E2.57405 ; external small perimeter
G1 X178.332 Y215.126 E2.57504 ; external small perimeter
G1 X178.448 Y214.834 E2.57595 ; external small perimeter
G1 X178.588 Y214.584 E2.57678 ; external small perimeter
G1 X178.760 Y214.356 E2.57760 ; external small perimeter
G1 X178.967 Y214.147 E2.57845 ; external small perimeter
G1 X179.221 Y213.946 E2.57938 ; external small perimeter
G1 X179.528 Y213.752 E2.58043 ; external small perimeter
G1 X179.894 Y213.570 E2.58161 ; external small perimeter
G1 X180.326 Y213.402 E2.58295 ; external small perimeter
G1 X180.825 Y213.254 E2.58445 ; external small perimeter
G1 X181.393 Y213.129 E2.58613 ; external small perimeter
G1 X182.067 Y213.029 E2.58810 ; external small perimeter
G1 X182.769 Y212.970 E2.59013 ; external small perimeter
G1 X183.524 Y212.950 E2.59231 ; external small perimeter
G1 X184.313 Y212.973 E2.59459 ; external small perimeter
