; generated by Slic3r 1.3.1-dev (Build (Unknown revision)) on 2022-12-16 at 11:54:17

; external perimeters extrusion width = 1.32mm (12.75mm^3/s)
; perimeters extrusion width = 1.26mm (12.03mm^3/s)
; infill extrusion width = 2.00mm (20.91mm^3/s)
; solid infill extrusion width = 2.00mm (41.82mm^3/s)
; top infill extrusion width = 1.26mm (18.04mm^3/s)

M107 ; disable fan
G92 E0 ; reset extrusion distance
M104 S200 ; set temperature
G28 ; home all axes
G1 Z5 F5000 ; lift nozzle

; Filament gcode

M109 S200 ; set temperature and wait for it to be reached
G21 ; set units to millimeters
G90 ; use absolute coordinates
M82 ; use absolute distances for extrusion
G92 E0 ; reset extrusion distance
G1 Z9.730 F1800.000 ; move to next layer (0)
G1 E-2.00000 F2400.00000 ; retract extruder 0
G92 E0 ; reset extrusion distance
G1 X196.969 Y229.542 F1800.000 ; move to first external small perimeter point
G1 E2.00000 F2400.00000 ; unretract extruder 0
G1 F600.000
G1 X198.596 Y230.205 E2.00419 ; external small perimeter
G1 X197.704 Y230.846 E2.00680 ; external small perimeter
G1 X197.052 Y231.228 E2.00860 ; external small perimeter
G1 X196.427 Y230.170 E2.01153 ; external small perimeter
G1 X196.851 Y229.678 E2.01308 ; external small perimeter
G1 X196.868 Y228.421 F1800.000 ; move to first perimeter point
G1 F600.000
G1 X196.331 Y228.460 E2.01471 ; perimeter
G1 F600.000
G1 X195.258 Y228.537 E2.01810 ; perimeter
G1 F600.000
G1 X194.722 Y228.576 E2.01984 ; perimeter
G1 X194.684 Y228.550 E2.01998 ; perimeter
G1 F600.000
G1 X194.487 Y228.406 E2.02079 ; perimeter
G1 F600.000
G1 X194.347 Y228.304 E2.02138 ; perimeter
G1 F600.000
G1 X194.163 Y228.150 E2.02221 ; perimeter
G1 F600.000
G1 X193.983 Y227.991 E2.02308 ; perimeter
G1 F600.000
G1 X193.785 Y227.773 E2.02416 ; perimeter
G1 X193.733 Y227.638 E2.02469 ; perimeter
G1 F600.000
G1 X193.709 Y227.534 E2.02507 ; perimeter
G1 F600.000
G1 X193.682 Y227.391 E2.02558 ; perimeter
G1 F600.000
G1 X193.666 Y227.273 E2.02598 ; perimeter
G1 F600.000
G1 X193.653 Y227.156 E2.02636 ; perimeter
G1 F600.000
G1 X193.642 Y227.040 E2.02673 ; perimeter
G1 F600.000
G1 X193.633 Y226.931 E2.02707 ; perimeter
G1 F600.000
G1 X193.505 Y224.640 E2.03387 ; perimeter
G1 Z10.930 F1800.000 ; move to next layer (1)
G1 E0.03387 F2400.00000 ; retract extruder 0
G92 E0 ; reset extrusion distance
G1 X196.874 Y231.538 F1800.000 ; move to first external small perimeter point
G1 E2.00000 F2400.00000 ; unretract extruder 0
G1 F600.000
G1 X196.729 Y231.350 E2.00107 ; external small perimeter
G1 X196.344 Y230.699 E2.00448 ; external small perimeter
G1 X196.101 Y230.354 E2.00638 ; external small perimeter
G1 X195.849 Y230.086 E2.00804 ; external small perimeter
G1 X195.572 Y229.854 E2.00967 ; external small perimeter
G1 X195.253 Y229.634 E2.01142 ; external small perimeter
G1 X194.811 Y229.378 E2.01372 ; external small perimeter
G1 X193.636 Y228.754 E2.01972 ; external small perimeter
G1 X193.404 Y228.597 E2.02099 ; external small perimeter
G1 X193.227 Y228.449 E2.02203 ; external small perimeter
G1 X193.025 Y228.205 E2.02345 ; external small perimeter
G1 X192.921 Y227.948 E2.02470 ; external small perimeter
G1 X192.895 Y227.791 E2.02542 ; external small perimeter
G1 X192.893 Y227.600 E2.02628 ; external small perimeter
G1 X192.920 Y227.342 E2.02745 ; external small perimeter
G1 X192.981 Y227.045 E2.02882 ; external small perimeter
G1 X193.084 Y226.695 E2.03046 ; external small perimeter
G1 X193.228 Y226.312 E2.03231 ; external small perimeter
G1 X193.676 Y225.344 E2.03712 ; external small perimeter
G1 X193.976 Y226.216 E2.04127 ; external small perimeter
G1 X194.170 Y226.682 E2.04355 ; external small perimeter
G1 X194.370 Y227.076 E2.04555 ; external small perimeter
G1 X194.605 Y227.445 E2.04752 ; external small perimeter
G1 X194.880 Y227.787 E2.04950 ; external small perimeter
G1 X195.187 Y228.092 E2.05145 ; external small perimeter
G1 X195.534 Y228.372 E2.05346 ; external small perimeter
G1 X195.933 Y228.638 E2.05562 ; external small perimeter
G1 X196.404 Y228.902 E2.05806 ; external small perimeter
G1 X197.006 Y229.190 E2.06107 ; external small perimeter
G1 X198.466 Y229.785 E2.06817 ; external small perimeter
G1 X198.937 Y230.016 E2.07054 ; external small perimeter
G1 X198.738 Y230.347 E2.07228 ; external small perimeter
G1 X198.601 Y230.523 E2.07329 ; external small perimeter
G1 X198.410 Y230.722 E2.07453 ; external small perimeter
G1 X198.168 Y230.931 E2.07597 ; external small perimeter
G1 X197.890 Y231.131 E2.07752 ; external small perimeter
G1 X197.596 Y231.303 E2.07905 ; external small perimeter
G1 X197.338 Y231.421 E2.08034 ; external small perimeter
G1 X197.051 Y231.504 E2.08168 ; external small perimeter
G1 X197.655 Y230.664 F1800.000 ; move to first infill point
G1 F600.000
G1 X195.906 Y229.215 E2.08679 ; infill
G1 X196.113 Y229.472 F1800.000 ; move to first infill point
G1 F600.000
G1 X196.317 Y229.604 E2.08681 ; infill
G1 F600.000
G1 X196.495 Y229.735 E2.08689 ; infill
G1 F600.000
G1 X196.674 Y229.865 E2.08706 ; infill
G1 F600.000
G1 X197.663 Y230.658 E2.08827 ; infill
G1 X195.108 Y228.830 F1800.000 ; move to first infill point
G1 F600.000
G1 X194.747 Y228.595 E2.08835 ; infill
G1 F600.000
G1 X194.605 Y228.492 E2.08842 ; infill
G1 F600.000
G1 X194.347 Y228.304 E2.08869 ; infill
G1 F600.000
G1 X194.231 Y228.207 E2.08885 ; infill
G1 F600.000
G1 X194.063 Y228.065 E2.08916 ; infill
G1 F600.000
G1 X193.935 Y227.946 E2.08944 ; infill
G1 F600.000
G1 X193.767 Y227.744 E2.08992 ; infill
G1 X193.537 Y226.983 E2.09139 ; infill
G1 Z12.130 F1800.000 ; move to next layer (2)
G1 X196.874 Y231.538 F1800.000 ; move to first external small perimeter point
G1 F600.000
G1 X196.729 Y231.350 E2.09246 ; external small perimeter
G1 X196.344 Y230.699 E2.09587 ; external small perimeter
G1 X196.101 Y230.354 E2.09777 ; external small perimeter
G1 X195.849 Y230.086 E2.09943 ; external small perimeter
G1 X195.572 Y229.854 E2.10106 ; external small perimeter
G1 X195.253 Y229.634 E2.10281 ; external small perimeter
G1 X194.811 Y229.378 E2.10511 ; external small perimeter
G1 X193.636 Y228.754 E2.11111 ; external small perimeter
G1 X193.404 Y228.597 E2.11237 ; external small perimeter
G1 X193.227 Y228.449 E2.11341 ; external small perimeter
G1 X193.025 Y228.205 E2.11484 ; external small perimeter
G1 X192.921 Y227.948 E2.11609 ; external small perimeter
G1 X192.895 Y227.791 E2.11681 ; external small perimeter
G1 X192.893 Y227.600 E2.11767 ; external small perimeter
G1 X192.920 Y227.342 E2.11884 ; external small perimeter
G1 X192.981 Y227.045 E2.12021 ; external small perimeter
G1 X193.084 Y226.695 E2.12185 ; external small perimeter
G1 X193.228 Y226.312 E2.12370 ; external small perimeter
G1 X193.676 Y225.344 E2.12851 ; external small perimeter
G1 X193.976 Y226.216 E2.13266 ; external small perimeter
G1 X194.170 Y226.682 E2.13494 ; external small perimeter
G1 X194.370 Y227.076 E2.13693 ; external small perimeter
G1 X194.605 Y227.445 E2.13890 ; external small perimeter
G1 X194.880 Y227.787 E2.14088 ; external small perimeter
G1 X195.187 Y228.092 E2.14284 ; external small perimeter
G1 X195.534 Y228.372 E2.14485 ; external small perimeter
G1 X195.933 Y228.639 E2.14701 ; external small perimeter
G1 X196.404 Y228.902 E2.14944 ; external small perimeter
G1 X197.006 Y229.190 E2.15245 ; external small perimeter
G1 X198.466 Y229.785 E2.15956 ; external small perimeter
G1 X198.937 Y230.016 E2.16193 ; external small perimeter
G1 X198.738 Y230.347 E2.16367 ; external small perimeter
G1 X198.601 Y230.523 E2.16467 ; external small perimeter
G1 X198.410 Y230.722 E2.16592 ; external small perimeter
G1 X198.168 Y230.931 E2.16736 ; external small perimeter
G1 X197.890 Y231.131 E2.16891 ; external small perimeter
G1 X197.596 Y231.303 E2.17044 ; external small perimeter
G1 X197.338 Y231.421 E2.17172 ; external small perimeter
G1 X197.051 Y231.504 E2.17307 ; external small perimeter
G1 X197.655 Y230.664 F1800.000 ; move to first infill point
G1 F600.000
G1 X195.907 Y229.215 E2.17817 ; infill
G1 X196.113 Y229.472 F1800.000 ; move to first infill point
G1 F600.000
G1 X196.317 Y229.604 E2.17819 ; infill
G1 F600.000
G1 X196.495 Y229.735 E2.17828 ; infill
G1 F600.000
G1 X196.674 Y229.865 E2.17844 ; infill
G1 F600.000
G1 X197.663 Y230.658 E2.17966 ; infill
G1 X195.108 Y228.830 F1800.000 ; move to first infill point
G1 F600.000
G1 X194.747 Y228.595 E2.17974 ; infill
G1 F600.000
G1 X194.605 Y228.492 E2.17981 ; infill
G1 F600.000
G1 X194.347 Y228.304 E2.18007 ; infill
G1 F600.000
G1 X194.231 Y228.207 E2.18023 ; infill
G1 F600.000
G1 X194.063 Y228.065 E2.18054 ; infill
G1 F600.000
G1 X193.935 Y227.946 E2.18083 ; infill
G1 F600.000
G1 X193.767 Y227.744 E2.18131 ; infill
G1 X193.537 Y226.983 E2.18277 ; infill
M106 S255 ; enable fan
G1 Z13.330 F1800.000 ; move to next layer (3)
G1 X196.874 Y231.538 F1800.000 ; move to first external small perimeter point
G1 F600.000
G1 X196.729 Y231.350 E2.18384 ; external small perimeter
G1 X196.344 Y230.699 E2.18725 ; external small perimeter
G1 X196.101 Y230.354 E2.18916 ; external small perimeter
G1 X195.849 Y230.086 E2.19081 ; external small perimeter
G1 X195.572 Y229.854 E2.19244 ; external small perimeter
G1 X195.253 Y229.634 E2.19419 ; external small perimeter
G1 X194.811 Y229.378 E2.19649 ; external small perimeter
G1 X193.636 Y228.754 E2.20249 ; external small perimeter
G1 X193.404 Y228.597 E2.20376 ; external small perimeter
G1 X193.227 Y228.449 E2.20480 ; external small perimeter
G1 X193.025 Y228.205 E2.20623 ; external small perimeter
G1 X192.921 Y227.948 E2.20747 ; external small perimeter
G1 X192.895 Y227.791 E2.20820 ; external small perimeter
G1 X192.893 Y227.600 E2.20906 ; external small perimeter
G1 X192.920 Y227.342 E2.21023 ; external small perimeter
G1 X192.981 Y227.045 E2.21159 ; external small perimeter
G1 X193.084 Y226.695 E2.21324 ; external small perimeter
G1 X193.228 Y226.312 E2.21508 ; external small perimeter
G1 X193.676 Y225.344 E2.21989 ; external small perimeter
G1 X193.976 Y226.216 E2.22405 ; external small perimeter
G1 X194.170 Y226.682 E2.22632 ; external small perimeter
G1 X194.370 Y227.076 E2.22832 ; external small perimeter
G1 X194.605 Y227.445 E2.23029 ; external small perimeter
G1 X194.880 Y227.787 E2.23227 ; external small perimeter
G1 X195.187 Y228.092 E2.23422 ; external small perimeter
G1 X195.534 Y228.372 E2.23623 ; external small perimeter
G1 X195.933 Y228.639 E2.23840 ; external small perimeter
G1 X196.404 Y228.902 E2.24083 ; external small perimeter
G1 X197.006 Y229.190 E2.24384 ; external small perimeter
G1 X198.466 Y229.785 E2.25095 ; external small perimeter
G1 X198.937 Y230.016 E2.25331 ; external small perimeter
G1 X198.738 Y230.347 E2.25505 ; external small perimeter
G1 X198.601 Y230.523 E2.25606 ; external small perimeter
G1 X198.410 Y230.722 E2.25730 ; external small perimeter
G1 X198.168 Y230.931 E2.25874 ; external small perimeter
G1 X197.890 Y231.131 E2.26029 ; external small perimeter
G1 X197.596 Y231.303 E2.26183 ; external small perimeter
G1 X197.338 Y231.421 E2.26311 ; external small perimeter
G1 X197.051 Y231.504 E2.26445 ; external small perimeter
G1 X197.655 Y230.664 F1800.000 ; move to first infill point
G1 F600.000
G1 X195.907 Y229.215 E2.26956 ; infill
G1 X196.113 Y229.472 F1800.000 ; move to first infill point
G1 F600.000
G1 X196.317 Y229.604 E2.26958 ; infill
G1 F600.000
G1 X196.495 Y229.735 E2.26967 ; infill
G1 F600.000
G1 X196.674 Y229.865 E2.26983 ; infill
G1 F600.000
G1 X197.663 Y230.658 E2.27104 ; infill
G1 X195.108 Y228.830 F1800.000 ; move to first infill point
G1 F600.000
G1 X194.747 Y228.595 E2.27112 ; infill
G1 F600.000
G1 X194.605 Y228.492 E2.27119 ; infill
G1 F600.000
G1 X194.347 Y228.304 E2.27146 ; infill
G1 F600.000
G1 X194.231 Y228.207 E2.27162 ; infill
G1 F600.000
G1 X194.063 Y228.065 E2.27193 ; infill
G1 F600.000
G1 X193.935 Y227.946 E2.27221 ; infill
G1 F600.000
G1 X193.767 Y227.744 E2.27269 ; infill
G1 X193.537 Y226.983 E2.27416 ; infill
G1 Z14.530 F1800.000 ; move to next layer (4)
G1 X196.874 Y231.538 F1800.000 ; move to first external small perimeter point
G1 F600.000
G1 X196.729 Y231.350 E2.27523 ; external small perimeter
G1 X196.344 Y230.699 E2.27864 ; external small perimeter
G1 X196.101 Y230.354 E2.28054 ; external small perimeter
G1 X195.849 Y230.086 E2.28220 ; external small perimeter
G1 X195.572 Y229.854 E2.28383 ; external small perimeter
G1 X195.253 Y229.634 E2.28558 ; external small perimeter
G1 X194.811 Y229.378 E2.28788 ; external small perimeter
G1 X193.636 Y228.754 E2.29388 ; external small perimeter
G1 X193.404 Y228.597 E2.29514 ; external small perimeter
G1 X193.227 Y228.449 E2.29618 ; external small perimeter
G1 X193.025 Y228.205 E2.29761 ; external small perimeter
G1 X192.921 Y227.948 E2.29886 ; external small perimeter
G1 X192.895 Y227.791 E2.29958 ; external small perimeter
G1 X192.893 Y227.600 E2.30044 ; external small perimeter
G1 X192.920 Y227.342 E2.30161 ; external small perimeter
G1 X192.981 Y227.045 E2.30298 ; external small perimeter
G1 X193.084 Y226.695 E2.30462 ; external small perimeter
G1 X193.228 Y226.312 E2.30647 ; external small perimeter
G1 X193.676 Y225.344 E2.31128 ; external small perimeter
G1 X193.976 Y226.216 E2.31543 ; external small perimeter
G1 X194.170 Y226.682 E2.31771 ; external small perimeter
G1 X194.370 Y227.076 E2.31970 ; external small perimeter
G1 X194.605 Y227.445 E2.32167 ; external small perimeter
G1 X194.880 Y227.787 E2.32365 ; external small perimeter
G1 X195.187 Y228.092 E2.32561 ; external small perimeter
G1 X195.534 Y228.372 E2.32762 ; external small perimeter
G1 X195.933 Y228.639 E2.32978 ; external small perimeter
G1 X196.404 Y228.902 E2.33221 ; external small perimeter
G1 X197.006 Y229.190 E2.33522 ; external small perimeter
G1 X198.466 Y229.785 E2.34233 ; external small perimeter
G1 X198.937 Y230.016 E2.34470 ; external small perimeter
G1 X198.738 Y230.347 E2.34644 ; external small perimeter
G1 X198.601 Y230.523 E2.34745 ; external small perimeter
G1 X198.410 Y230.722 E2.34869 ; external small perimeter
G1 X198.168 Y230.931 E2.35013 ; external small perimeter
G1 X197.890 Y231.131 E2.35168 ; external small perimeter
G1 X197.596 Y231.303 E2.35321 ; external small perimeter
G1 X197.338 Y231.421 E2.35449 ; external small perimeter
G1 X197.051 Y231.504 E2.35584 ; external small perimeter
G1 X197.655 Y230.664 F1800.000 ; move to first infill point
G1 F600.000
G1 X195.906 Y229.215 E2.36095 ; infill
G1 X196.113 Y229.472 F1800.000 ; move to first infill point
G1 F600.000
G1 X196.317 Y229.604 E2.36096 ; infill
G1 F600.000
G1 X196.495 Y229.735 E2.36105 ; infill
G1 F600.000
G1 X196.674 Y229.865 E2.36121 ; infill
G1 F600.000
G1 X197.663 Y230.658 E2.36243 ; infill
G1 X195.108 Y228.830 F1800.000 ; move to first infill point
G1 F600.000
G1 X194.747 Y228.595 E2.36251 ; infill
G1 F600.000
G1 X194.605 Y228.492 E2.36258 ; infill
G1 F600.000
G1 X194.347 Y228.304 E2.36284 ; infill
G1 F600.000
G1 X194.231 Y228.207 E2.36300 ; infill
G1 F600.000
G1 X194.063 Y228.065 E2.36331 ; infill
G1 F600.000
G1 X193.935 Y227.946 E2.36360 ; infill
G1 F600.000
G1 X193.767 Y227.744 E2.36408 ; infill
G1 X193.537 Y226.983 E2.36554 ; infill
G1 Z15.730 F1800.000 ; move to next layer (5)
G1 X196.874 Y231.538 F1800.000 ; move to first external small perimeter point
G1 F600.000
G1 X196.729 Y231.350 E2.36661 ; external small perimeter
G1 X196.344 Y230.699 E2.37002 ; external small perimeter
G1 X196.101 Y230.354 E2.37193 ; external small perimeter
G1 X195.849 Y230.086 E2.37358 ; external small perimeter
G1 X195.572 Y229.854 E2.37521 ; external small perimeter
G1 X195.253 Y229.634 E2.37696 ; external small perimeter
G1 X194.811 Y229.378 E2.37927 ; external small perimeter
G1 X193.636 Y228.754 E2.38527 ; external small perimeter
G1 X193.404 Y228.597 E2.38653 ; external small perimeter
G1 X193.227 Y228.449 E2.38757 ; external small perimeter
G1 X193.025 Y228.205 E2.38900 ; external small perimeter
G1 X192.921 Y227.948 E2.39025 ; external small perimeter
G1 X192.895 Y227.791 E2.39097 ; external small perimeter
