; generated by Slic3r 1.3.1-dev (Build (Unknown revision)) on 2022-12-16 at 12:27:59

; external perimeters extrusion width = 1.32mm (12.75mm^3/s)
; perimeters extrusion width = 1.26mm (12.03mm^3/s)
; infill extrusion width = 2.00mm (20.91mm^3/s)
; solid infill extrusion width = 2.00mm (41.82mm^3/s)
; top infill extrusion width = 1.26mm (18.04mm^3/s)

M107 ; disable fan
G92 E0 ; reset extrusion distance
M104 S200 ; set temperature
G28 ; home all axes
G1 Z5 F5000 ; lift nozzle

; Filament gcode

M109 S200 ; set temperature and wait for it to be reached
G21 ; set units to millimeters
G90 ; use absolute coordinates
M82 ; use absolute distances for extrusion
G92 E0 ; reset extrusion distance
G1 Z12.900 F1800.000 ; move to next layer (0)
G1 E-2.00000 F2400.00000 ; retract extruder 0
G92 E0 ; reset extrusion distance
G1 X181.606 Y212.776 F1800.000 ; move to first external small perimeter point
G1 E2.00000 F2400.00000 ; unretract extruder 0
G1 F600.000
G1 X181.896 Y212.818 E2.00070 ; external small perimeter
G1 X182.268 Y212.909 E2.00161 ; external small perimeter
G1 X182.779 Y213.074 E2.00289 ; external small perimeter
G1 X183.500 Y213.348 E2.00473 ; external small perimeter
G1 X184.172 Y213.648 E2.00648 ; external small perimeter
G1 X184.779 Y213.962 E2.00811 ; external small perimeter
G1 X185.345 Y214.301 E2.00968 ; external small perimeter
G1 X185.802 Y214.620 E2.01101 ; external small perimeter
G1 X186.186 Y214.932 E2.01219 ; external small perimeter
G1 X186.499 Y215.232 E2.01322 ; external small perimeter
G1 X186.746 Y215.517 E2.01412 ; external small perimeter
G1 X186.935 Y215.784 E2.01490 ; external small perimeter
G1 X187.073 Y216.032 E2.01558 ; external small perimeter
G1 X187.168 Y216.265 E2.01618 ; external small perimeter
G1 X187.229 Y216.497 E2.01675 ; external small perimeter
G1 X187.257 Y216.736 E2.01732 ; external small perimeter
G1 X187.252 Y217.005 E2.01796 ; external small perimeter
G1 X187.208 Y217.303 E2.01868 ; external small perimeter
G1 X187.116 Y217.636 E2.01950 ; external small perimeter
G1 X186.967 Y218.005 E2.02045 ; external small perimeter
G1 X186.754 Y218.409 E2.02154 ; external small perimeter
G1 X186.469 Y218.844 E2.02278 ; external small perimeter
G1 X186.106 Y219.307 E2.02418 ; external small perimeter
G1 X185.654 Y219.799 E2.02577 ; external small perimeter
G1 X185.166 Y220.264 E2.02738 ; external small perimeter
G1 X184.525 Y220.804 E2.02937 ; external small perimeter
G1 X183.800 Y221.345 E2.03153 ; external small perimeter
G1 X183.034 Y221.856 E2.03372 ; external small perimeter
G1 X182.268 Y222.311 E2.03585 ; external small perimeter
G1 X181.543 Y222.691 E2.03780 ; external small perimeter
G1 X180.888 Y222.989 E2.03951 ; external small perimeter
G1 X180.324 Y223.206 E2.04095 ; external small perimeter
G1 X179.203 Y223.547 E2.04375 ; external small perimeter
G1 X179.577 Y222.100 E2.04731 ; external small perimeter
G1 X179.700 Y221.548 E2.04865 ; external small perimeter
G1 X179.786 Y220.949 E2.05010 ; external small perimeter
G1 X179.824 Y220.323 E2.05159 ; external small perimeter
G1 X179.814 Y219.660 E2.05317 ; external small perimeter
G1 X179.755 Y218.940 E2.05489 ; external small perimeter
G1 X179.368 Y216.285 E2.06128 ; external small perimeter
G1 X179.328 Y215.784 E2.06248 ; external small perimeter
G1 X179.324 Y215.363 E2.06348 ; external small perimeter
G1 X179.351 Y215.004 E2.06434 ; external small perimeter
G1 X179.407 Y214.689 E2.06511 ; external small perimeter
G1 X179.490 Y214.406 E2.06581 ; external small perimeter
G1 X179.605 Y214.134 E2.06651 ; external small perimeter
G1 X179.759 Y213.865 E2.06725 ; external small perimeter
G1 X179.955 Y213.602 E2.06803 ; external small perimeter
G1 X180.187 Y213.353 E2.06884 ; external small perimeter
G1 X180.564 Y213.052 E2.06999 ; external small perimeter
G1 X180.785 Y212.925 E2.07060 ; external small perimeter
G1 X180.983 Y212.841 E2.07111 ; external small perimeter
G1 X181.177 Y212.790 E2.07159 ; external small perimeter
G1 X181.426 Y212.770 E2.07219 ; external small perimeter
G1 X182.309 Y213.969 F1800.000 ; move to first infill point
G1 F600.000
G1 X180.669 Y215.610 E2.07874 ; infill
G1 X180.557 Y215.802 E2.07936 ; infill
G1 X180.514 Y215.994 E2.07992 ; infill
G1 X180.501 Y216.176 E2.08043 ; infill
G1 X180.533 Y216.817 E2.08225 ; infill
G1 X180.807 Y218.697 E2.08761 ; infill
G1 X184.601 Y214.902 E2.10276 ; infill
G1 X185.047 Y215.169 E2.10423 ; infill
G1 X185.391 Y215.410 E2.10541 ; infill
G1 X185.659 Y215.628 E2.10639 ; infill
G1 X185.853 Y215.813 E2.10714 ; infill
G1 X186.077 Y216.106 E2.10819 ; infill
G1 X186.038 Y216.269 E2.10866 ; infill
G1 X185.968 Y216.445 E2.10920 ; infill
G1 X185.843 Y216.681 E2.10995 ; infill
G1 X185.652 Y216.973 E2.11093 ; infill
G1 X185.386 Y217.312 E2.11215 ; infill
G1 X185.030 Y217.699 E2.11364 ; infill
G1 X183.529 Y219.201 E2.11963 ; infill
G1 E0.11963 F2400.00000 ; retract extruder 0
G92 E0 ; reset extrusion distance
G1 X180.809 Y221.342 F1800.000 ; move to first infill point
G1 E2.00000 F2400.00000 ; unretract extruder 0
G1 F600.000
G1 X180.781 Y221.981 E2.00019 ; infill
G1 Z14.100 F1800.000 ; move to next layer (1)
G1 X181.636 Y212.436 F1800.000 ; move to first external small perimeter point
G1 F600.000
G1 X181.961 Y212.484 E2.00168 ; external small perimeter
G1 X182.360 Y212.582 E2.00353 ; external small perimeter
G1 X182.892 Y212.753 E2.00605 ; external small perimeter
G1 X183.630 Y213.034 E2.00961 ; external small perimeter
G1 X184.320 Y213.342 E2.01301 ; external small perimeter
G1 X184.945 Y213.665 E2.01619 ; external small perimeter
G1 X185.530 Y214.016 E2.01926 ; external small perimeter
G1 X186.007 Y214.349 E2.02189 ; external small perimeter
G1 X186.411 Y214.677 E2.02423 ; external small perimeter
G1 X186.745 Y214.997 E2.02632 ; external small perimeter
G1 X187.014 Y215.306 E2.02817 ; external small perimeter
G1 X187.224 Y215.602 E2.02980 ; external small perimeter
G1 X187.381 Y215.885 E2.03126 ; external small perimeter
G1 X187.492 Y216.158 E2.03259 ; external small perimeter
G1 X187.564 Y216.434 E2.03388 ; external small perimeter
G1 X187.597 Y216.719 E2.03517 ; external small perimeter
G1 X187.592 Y217.033 E2.03659 ; external small perimeter
G1 X187.541 Y217.374 E2.03814 ; external small perimeter
G1 X187.438 Y217.745 E2.03988 ; external small perimeter
G1 X187.276 Y218.148 E2.04184 ; external small perimeter
G1 X187.047 Y218.582 E2.04405 ; external small perimeter
G1 X186.745 Y219.043 E2.04653 ; external small perimeter
G1 X186.365 Y219.527 E2.04931 ; external small perimeter
G1 X185.897 Y220.038 E2.05243 ; external small perimeter
G1 X185.393 Y220.517 E2.05557 ; external small perimeter
G1 X184.736 Y221.070 E2.05944 ; external small perimeter
G1 X183.997 Y221.623 E2.06361 ; external small perimeter
G1 X183.216 Y222.144 E2.06784 ; external small perimeter
G1 X182.434 Y222.608 E2.07194 ; external small perimeter
G1 X181.692 Y222.997 E2.07571 ; external small perimeter
G1 X181.020 Y223.303 E2.07905 ; external small perimeter
G1 X180.435 Y223.527 E2.08187 ; external small perimeter
G1 X179.945 Y223.676 E2.08418 ; external small perimeter
G1 X179.560 Y223.759 E2.08596 ; external small perimeter
G1 X179.266 Y223.792 E2.08729 ; external small perimeter
G1 X178.858 Y223.784 E2.08913 ; external small perimeter
G1 X178.895 Y223.379 E2.09097 ; external small perimeter
G1 X179.366 Y221.485 E2.09976 ; external small perimeter
G1 X179.448 Y220.913 E2.10237 ; external small perimeter
G1 X179.484 Y220.315 E2.10507 ; external small perimeter
G1 X179.474 Y219.676 E2.10795 ; external small perimeter
G1 X179.417 Y218.979 E2.11111 ; external small perimeter
G1 X179.030 Y216.323 E2.12321 ; external small perimeter
G1 X178.988 Y215.800 E2.12558 ; external small perimeter
G1 X178.983 Y215.352 E2.12760 ; external small perimeter
G1 X179.013 Y214.961 E2.12937 ; external small perimeter
G1 X179.075 Y214.611 E2.13097 ; external small perimeter
G1 X179.169 Y214.292 E2.13247 ; external small perimeter
G1 X179.300 Y213.982 E2.13399 ; external small perimeter
G1 X179.475 Y213.679 E2.13556 ; external small perimeter
G1 X179.693 Y213.384 E2.13722 ; external small perimeter
G1 X179.949 Y213.110 E2.13891 ; external small perimeter
G1 X180.377 Y212.768 E2.14138 ; external small perimeter
G1 X180.633 Y212.620 E2.14271 ; external small perimeter
G1 X180.873 Y212.519 E2.14389 ; external small perimeter
G1 X181.115 Y212.455 E2.14502 ; external small perimeter
G1 X181.456 Y212.431 E2.14656 ; external small perimeter
G1 X185.207 Y215.423 F1800.000 ; move to first infill point
G1 F1118.026
G1 X186.274 Y216.490 E2.15905 ; infill
G1 X185.994 Y218.967 F1800.000 ; move to first infill point
G1 F1118.026
G1 X180.501 Y213.474 E2.22334 ; infill
G1 X180.213 Y213.759 E2.22668 ; infill
G1 X180.103 Y213.908 E2.22822 ; infill
G1 X179.944 Y214.225 E2.23115 ; infill
G1 X179.858 Y214.602 E2.23435 ; infill
G1 X179.838 Y214.864 E2.23653 ; infill
G1 X179.841 Y215.203 E2.23934 ; infill
G1 X179.874 Y215.605 E2.24267 ; infill
G1 X184.612 Y220.344 E2.29814 ; infill
G1 X183.730 Y221.023 E2.30736 ; infill
G1 X183.013 Y221.501 E2.31449 ; infill
G1 X180.304 Y218.793 E2.34619 ; infill
G1 X180.327 Y219.076 E2.34854 ; infill
G1 X180.338 Y219.813 E2.35464 ; infill
G1 X180.295 Y220.520 E2.36050 ; infill
G1 X180.196 Y221.218 E2.36634 ; infill
G1 X180.151 Y221.397 E2.36787 ; infill
G1 X181.218 Y222.465 E2.38036 ; infill
G1 Z15.300 F1800.000 ; move to next layer (2)
G1 X181.636 Y212.436 F1800.000 ; move to first external small perimeter point
G1 F600.000
G1 X181.961 Y212.484 E2.38184 ; external small perimeter
G1 X182.361 Y212.582 E2.38370 ; external small perimeter
G1 X182.892 Y212.753 E2.38622 ; external small perimeter
G1 X183.630 Y213.034 E2.38978 ; external small perimeter
G1 X184.320 Y213.342 E2.39318 ; external small perimeter
G1 X184.945 Y213.665 E2.39636 ; external small perimeter
G1 X185.530 Y214.016 E2.39943 ; external small perimeter
G1 X186.007 Y214.349 E2.40206 ; external small perimeter
G1 X186.411 Y214.677 E2.40440 ; external small perimeter
G1 X186.745 Y214.997 E2.40649 ; external small perimeter
G1 X187.014 Y215.306 E2.40834 ; external small perimeter
G1 X187.224 Y215.602 E2.40997 ; external small perimeter
G1 X187.381 Y215.885 E2.41143 ; external small perimeter
G1 X187.492 Y216.158 E2.41276 ; external small perimeter
G1 X187.564 Y216.434 E2.41405 ; external small perimeter
G1 X187.597 Y216.719 E2.41534 ; external small perimeter
G1 X187.592 Y217.033 E2.41676 ; external small perimeter
G1 X187.541 Y217.374 E2.41831 ; external small perimeter
G1 X187.438 Y217.745 E2.42005 ; external small perimeter
G1 X187.276 Y218.148 E2.42201 ; external small perimeter
G1 X187.047 Y218.582 E2.42422 ; external small perimeter
G1 X186.745 Y219.043 E2.42670 ; external small perimeter
G1 X186.365 Y219.527 E2.42948 ; external small perimeter
G1 X185.897 Y220.038 E2.43260 ; external small perimeter
G1 X185.393 Y220.517 E2.43574 ; external small perimeter
G1 X184.736 Y221.070 E2.43961 ; external small perimeter
G1 X183.997 Y221.623 E2.44377 ; external small perimeter
G1 X183.216 Y222.144 E2.44801 ; external small perimeter
G1 X182.434 Y222.608 E2.45211 ; external small perimeter
G1 X181.692 Y222.997 E2.45588 ; external small perimeter
G1 X181.020 Y223.303 E2.45922 ; external small perimeter
G1 X180.435 Y223.527 E2.46204 ; external small perimeter
G1 X179.945 Y223.676 E2.46435 ; external small perimeter
G1 X179.560 Y223.759 E2.46613 ; external small perimeter
G1 X179.266 Y223.792 E2.46746 ; external small perimeter
G1 X178.858 Y223.784 E2.46930 ; external small perimeter
G1 X178.895 Y223.379 E2.47114 ; external small perimeter
G1 X179.364 Y221.495 E2.47989 ; external small perimeter
G1 X179.448 Y220.914 E2.48254 ; external small perimeter
G1 X179.484 Y220.315 E2.48524 ; external small perimeter
G1 X179.474 Y219.676 E2.48812 ; external small perimeter
G1 X179.417 Y218.979 E2.49128 ; external small perimeter
G1 X179.030 Y216.323 E2.50338 ; external small perimeter
G1 X178.988 Y215.800 E2.50575 ; external small perimeter
G1 X178.983 Y215.352 E2.50777 ; external small perimeter
G1 X179.013 Y214.961 E2.50954 ; external small perimeter
G1 X179.075 Y214.611 E2.51114 ; external small perimeter
G1 X179.169 Y214.292 E2.51264 ; external small perimeter
G1 X179.300 Y213.982 E2.51415 ; external small perimeter
G1 X179.475 Y213.679 E2.51573 ; external small perimeter
G1 X179.693 Y213.384 E2.51739 ; external small perimeter
G1 X179.949 Y213.110 E2.51908 ; external small perimeter
G1 X180.377 Y212.768 E2.52155 ; external small perimeter
G1 X180.633 Y212.620 E2.52288 ; external small perimeter
G1 X180.873 Y212.519 E2.52406 ; external small perimeter
G1 X181.115 Y212.455 E2.52518 ; external small perimeter
G1 X181.456 Y212.431 E2.52673 ; external small perimeter
G1 X180.679 Y214.421 F1800.000 ; move to first infill point
G1 F1110.418
G1 X180.485 Y214.553 E2.52881 ; infill
G1 X180.213 Y214.826 E2.53222 ; infill
G1 X180.073 Y215.027 E2.53440 ; infill
G1 X181.746 Y213.354 E2.55540 ; infill
G1 X181.900 Y213.290 E2.55689 ; infill
G1 X182.048 Y213.287 E2.55820 ; infill
G1 X182.229 Y213.313 E2.55982 ; infill
G1 X182.516 Y213.384 E2.56244 ; infill
G1 X182.966 Y213.529 E2.56664 ; infill
G1 X183.634 Y213.783 E2.57298 ; infill
G1 X184.076 Y213.981 E2.57728 ; infill
G1 X180.064 Y217.993 E2.62763 ; infill
G1 X180.263 Y219.356 E2.63986 ; infill
G1 X180.327 Y220.143 E2.64687 ; infill
G1 X180.335 Y220.679 E2.65162 ; infill
G1 X185.918 Y215.096 E2.72169 ; infill
G1 X186.273 Y215.422 E2.72597 ; infill
G1 X186.456 Y215.631 E2.72843 ; infill
G1 X186.661 Y215.952 E2.73181 ; infill
G1 X186.706 Y216.062 E2.73286 ; infill
G1 X186.742 Y216.255 E2.73461 ; infill
G1 X186.715 Y216.552 E2.73725 ; infill
G1 X186.656 Y216.766 E2.73922 ; infill
G1 X186.550 Y217.030 E2.74174 ; infill
G1 X186.385 Y217.342 E2.74488 ; infill
G1 X186.151 Y217.699 E2.74867 ; infill
G1 X185.840 Y218.095 E2.75313 ; infill
G1 X185.442 Y218.529 E2.75837 ; infill
G1 X184.370 Y219.602 E2.77182 ; infill
M106 S255 ; enable fan
G1 Z16.500 F1800.000 ; move to next layer (3)
G1 X181.636 Y212.436 F1800.000 ; move to first external small perimeter point
G1 F600.000
G1 X181.961 Y212.484 E2.77330 ; external small perimeter
G1 X182.361 Y212.582 E2.77516 ; external small perimeter
G1 X182.892 Y212.753 E2.77767 ; external small perimeter
G1 X183.630 Y213.034 E2.78123 ; external small perimeter
G1 X184.320 Y213.342 E2.78464 ; external small perimeter
G1 X184.945 Y213.665 E2.78782 ; external small perimeter
G1 X185.530 Y214.016 E2.79089 ; external small perimeter
G1 X186.007 Y214.349 E2.79351 ; external small perimeter
G1 X186.411 Y214.677 E2.79586 ; external small perimeter
G1 X186.745 Y214.997 E2.79795 ; external small perimeter
G1 X187.014 Y215.306 E2.79979 ; external small perimeter
G1 X187.224 Y215.602 E2.80143 ; external small perimeter
G1 X187.381 Y215.885 E2.80289 ; external small perimeter
G1 X187.492 Y216.158 E2.80422 ; external small perimeter
G1 X187.564 Y216.434 E2.80551 ; external small perimeter
G1 X187.597 Y216.719 E2.80680 ; external small perimeter
G1 X187.592 Y217.033 E2.80821 ; external small perimeter
G1 X187.541 Y217.374 E2.80977 ; external small perimeter
G1 X187.438 Y217.745 E2.81151 ; external small perimeter
G1 X187.276 Y218.148 E2.81346 ; external small perimeter
G1 X187.047 Y218.582 E2.81567 ; external small perimeter
G1 X186.745 Y219.043 E2.81816 ; external small perimeter
G1 X186.365 Y219.527 E2.82094 ; external small perimeter
G1 X185.897 Y220.038 E2.82406 ; external small perimeter
G1 X185.393 Y220.517 E2.82720 ; external small perimeter
G1 X184.736 Y221.070 E2.83107 ; external small perimeter
G1 X183.997 Y221.623 E2.83523 ; external small perimeter
G1 X183.216 Y222.144 E2.83947 ; external small perimeter
G1 X182.434 Y222.608 E2.84356 ; external small perimeter
G1 X181.692 Y222.997 E2.84734 ; external small perimeter
G1 X181.020 Y223.303 E2.85067 ; external small perimeter
G1 X180.435 Y223.527 E2.85350 ; external small perimeter
G1 X179.945 Y223.676 E2.85581 ; external small perimeter
