; generated by Slic3r 1.3.1-dev (Build (Unknown revision)) on 2022-12-16 at 11:54:17

; external perimeters extrusion width = 1.32mm (12.75mm^3/s)
; perimeters extrusion width = 1.26mm (12.03mm^3/s)
; infill extrusion width = 2.00mm (20.91mm^3/s)
; solid infill extrusion width = 2.00mm (41.82mm^3/s)
; top infill extrusion width = 1.26mm (18.04mm^3/s)

M107 ; disable fan
G92 E0 ; reset extrusion distance
M104 S200 ; set temperature
G28 ; home all axes
G1 Z5 F5000 ; lift nozzle

; Filament gcode

M109 S200 ; set temperature and wait for it to be reached
G21 ; set units to millimeters
G90 ; use absolute coordinates
M82 ; use absolute distances for extrusion
G92 E0 ; reset extrusion distance
G1 Z7.090 F1800.000 ; move to next layer (0)
G1 E-2.00000 F2400.00000 ; retract extruder 0
G92 E0 ; reset extrusion distance
G1 X198.689 Y214.087 F1800.000 ; move to first external small perimeter point
G1 E2.00000 F2400.00000 ; unretract extruder 0
G1 F600.000
G1 X199.040 Y213.967 E2.00088 ; external small perimeter
G1 X199.265 Y213.921 E2.00143 ; external small perimeter
G1 X199.557 Y213.898 E2.00213 ; external small perimeter
G1 X199.925 Y213.907 E2.00301 ; external small perimeter
G1 X200.370 Y213.958 E2.00407 ; external small perimeter
G1 X200.888 Y214.062 E2.00533 ; external small perimeter
G1 X201.472 Y214.223 E2.00678 ; external small perimeter
G1 X202.111 Y214.448 E2.00839 ; external small perimeter
G1 X202.788 Y214.735 E2.01014 ; external small perimeter
G1 X203.482 Y215.081 E2.01199 ; external small perimeter
G1 X204.170 Y215.478 E2.01388 ; external small perimeter
G1 X204.821 Y215.908 E2.01574 ; external small perimeter
G1 X205.436 Y216.374 E2.01758 ; external small perimeter
G1 X205.991 Y216.855 E2.01933 ; external small perimeter
G1 X206.477 Y217.340 E2.02097 ; external small perimeter
G1 X206.891 Y217.822 E2.02248 ; external small perimeter
G1 X207.215 Y218.266 E2.02379 ; external small perimeter
G1 X207.489 Y218.717 E2.02505 ; external small perimeter
G1 X207.697 Y219.146 E2.02618 ; external small perimeter
G1 X207.846 Y219.553 E2.02722 ; external small perimeter
G1 X207.942 Y219.939 E2.02816 ; external small perimeter
G1 X207.991 Y220.307 E2.02905 ; external small perimeter
G1 X207.998 Y220.654 E2.02987 ; external small perimeter
G1 X207.936 Y221.230 E2.03126 ; external small perimeter
G1 X207.849 Y221.602 E2.03217 ; external small perimeter
G1 X207.719 Y221.983 E2.03313 ; external small perimeter
G1 X207.551 Y222.350 E2.03409 ; external small perimeter
G1 X207.371 Y222.661 E2.03494 ; external small perimeter
G1 X207.153 Y222.960 E2.03583 ; external small perimeter
G1 X206.926 Y223.205 E2.03662 ; external small perimeter
G1 X206.699 Y223.397 E2.03733 ; external small perimeter
G1 X206.532 Y223.505 E2.03780 ; external small perimeter
G1 X206.333 Y223.599 E2.03833 ; external small perimeter
G1 X206.133 Y223.661 E2.03883 ; external small perimeter
G1 X205.916 Y223.696 E2.03935 ; external small perimeter
G1 X205.675 Y223.702 E2.03992 ; external small perimeter
G1 X205.404 Y223.675 E2.04057 ; external small perimeter
G1 X205.097 Y223.608 E2.04132 ; external small perimeter
G1 X204.746 Y223.492 E2.04220 ; external small perimeter
G1 X204.478 Y223.377 E2.04290 ; external small perimeter
G1 X204.058 Y223.159 E2.04403 ; external small perimeter
G1 X203.612 Y222.878 E2.04528 ; external small perimeter
G1 X203.134 Y222.527 E2.04669 ; external small perimeter
G1 X202.631 Y222.101 E2.04826 ; external small perimeter
G1 X202.134 Y221.626 E2.04990 ; external small perimeter
G1 X201.607 Y221.059 E2.05175 ; external small perimeter
G1 X201.085 Y220.430 E2.05369 ; external small perimeter
G1 X200.582 Y219.750 E2.05571 ; external small perimeter
G1 X200.110 Y219.033 E2.05776 ; external small perimeter
G1 X199.681 Y218.296 E2.05979 ; external small perimeter
G1 X199.310 Y217.563 E2.06175 ; external small perimeter
G1 X199.010 Y216.863 E2.06356 ; external small perimeter
G1 X198.785 Y216.218 E2.06519 ; external small perimeter
G1 X198.652 Y215.715 E2.06643 ; external small perimeter
G1 X198.569 Y215.248 E2.06756 ; external small perimeter
G1 X198.542 Y214.901 E2.06839 ; external small perimeter
G1 X198.550 Y214.628 E2.06904 ; external small perimeter
G1 X198.581 Y214.429 E2.06952 ; external small perimeter
G1 X198.635 Y214.259 E2.06994 ; external small perimeter
G1 E0.06994 F2400.00000 ; retract extruder 0
G92 E0 ; reset extrusion distance
G1 X200.624 Y216.977 F1800.000 ; move to first infill point
G1 E2.00000 F2400.00000 ; unretract extruder 0
G1 F600.000
G1 X200.007 Y216.771 E2.00186 ; infill
G1 X200.246 Y217.355 E2.00366 ; infill
G1 X202.121 Y215.480 E2.01125 ; infill
G1 X202.731 Y215.735 E2.01314 ; infill
G1 X203.319 Y216.029 E2.01502 ; infill
G1 X203.906 Y216.367 E2.01695 ; infill
G1 X204.263 Y216.604 E2.01818 ; infill
G1 X201.437 Y219.430 E2.02961 ; infill
G1 X201.852 Y219.991 E2.03160 ; infill
G1 X202.305 Y220.536 E2.03363 ; infill
G1 X202.938 Y221.196 E2.03624 ; infill
G1 X206.007 Y218.127 E2.04865 ; infill
G1 X206.130 Y218.270 E2.04919 ; infill
G1 X206.361 Y218.586 E2.05031 ; infill
G1 X206.545 Y218.889 E2.05133 ; infill
G1 X206.671 Y219.150 E2.05215 ; infill
G1 X206.751 Y219.369 E2.05282 ; infill
G1 X206.797 Y219.551 E2.05336 ; infill
G1 X206.820 Y219.822 E2.05414 ; infill
G1 X206.784 Y220.157 E2.05510 ; infill
G1 X206.745 Y220.321 E2.05558 ; infill
G1 X206.588 Y220.717 E2.05680 ; infill
G1 X206.412 Y220.987 E2.05772 ; infill
G1 X204.895 Y222.506 E2.06386 ; infill
G1 Z8.290 F1800.000 ; move to next layer (1)
G1 X198.529 Y213.844 F1800.000 ; move to first external small perimeter point
G1 F600.000
G1 X198.773 Y213.699 E2.06514 ; external small perimeter
G1 X198.951 Y213.638 E2.06598 ; external small perimeter
G1 X199.217 Y213.584 E2.06721 ; external small perimeter
G1 X199.547 Y213.557 E2.06870 ; external small perimeter
G1 X199.949 Y213.567 E2.07052 ; external small perimeter
G1 X200.423 Y213.622 E2.07267 ; external small perimeter
G1 X200.966 Y213.731 E2.07517 ; external small perimeter
G1 X201.574 Y213.899 E2.07801 ; external small perimeter
G1 X202.233 Y214.130 E2.08116 ; external small perimeter
G1 X202.930 Y214.426 E2.08457 ; external small perimeter
G1 X203.643 Y214.781 E2.08816 ; external small perimeter
G1 X204.349 Y215.189 E2.09184 ; external small perimeter
G1 X205.017 Y215.631 E2.09545 ; external small perimeter
G1 X205.650 Y216.109 E2.09903 ; external small perimeter
G1 X206.223 Y216.606 E2.10245 ; external small perimeter
G1 X206.727 Y217.109 E2.10566 ; external small perimeter
G1 X207.158 Y217.610 E2.10864 ; external small perimeter
G1 X207.499 Y218.077 E2.11125 ; external small perimeter
G1 X207.788 Y218.554 E2.11376 ; external small perimeter
G1 X208.011 Y219.014 E2.11607 ; external small perimeter
G1 X208.171 Y219.454 E2.11818 ; external small perimeter
G1 X208.276 Y219.875 E2.12014 ; external small perimeter
G1 X208.330 Y220.281 E2.12198 ; external small perimeter
G1 X208.339 Y220.668 E2.12373 ; external small perimeter
G1 X208.272 Y221.287 E2.12654 ; external small perimeter
G1 X208.176 Y221.696 E2.12843 ; external small perimeter
G1 X208.035 Y222.109 E2.13040 ; external small perimeter
G1 X207.854 Y222.507 E2.13237 ; external small perimeter
G1 X207.656 Y222.847 E2.13414 ; external small perimeter
G1 X207.416 Y223.176 E2.13598 ; external small perimeter
G1 X207.162 Y223.452 E2.13767 ; external small perimeter
G1 X206.902 Y223.671 E2.13921 ; external small perimeter
G1 X206.697 Y223.803 E2.14030 ; external small perimeter
G1 X206.457 Y223.917 E2.14150 ; external small perimeter
G1 X206.210 Y223.993 E2.14267 ; external small perimeter
G1 X205.948 Y224.035 E2.14386 ; external small perimeter
G1 X205.663 Y224.042 E2.14515 ; external small perimeter
G1 X205.351 Y224.011 E2.14657 ; external small perimeter
G1 X205.007 Y223.936 E2.14815 ; external small perimeter
G1 X204.626 Y223.810 E2.14996 ; external small perimeter
G1 X204.332 Y223.685 E2.15140 ; external small perimeter
G1 X203.889 Y223.454 E2.15366 ; external small perimeter
G1 X203.420 Y223.159 E2.15615 ; external small perimeter
G1 X202.924 Y222.794 E2.15893 ; external small perimeter
G1 X202.404 Y222.354 E2.16200 ; external small perimeter
G1 X201.892 Y221.865 E2.16520 ; external small perimeter
G1 X201.351 Y221.284 E2.16877 ; external small perimeter
G1 X200.817 Y220.640 E2.17255 ; external small perimeter
G1 X200.303 Y219.945 E2.17644 ; external small perimeter
G1 X199.821 Y219.213 E2.18040 ; external small perimeter
G1 X199.382 Y218.458 E2.18433 ; external small perimeter
G1 X199.002 Y217.707 E2.18813 ; external small perimeter
G1 X198.693 Y216.986 E2.19167 ; external small perimeter
G1 X198.460 Y216.318 E2.19486 ; external small perimeter
G1 X198.319 Y215.788 E2.19733 ; external small perimeter
G1 X198.231 Y215.291 E2.19960 ; external small perimeter
G1 X198.201 Y214.909 E2.20133 ; external small perimeter
G1 X198.211 Y214.596 E2.20274 ; external small perimeter
G1 X198.249 Y214.351 E2.20386 ; external small perimeter
G1 X198.315 Y214.144 E2.20484 ; external small perimeter
G1 X198.408 Y213.977 E2.20571 ; external small perimeter
G1 X205.176 Y217.521 F1800.000 ; move to first infill point
G1 F1014.632
G1 X205.061 Y217.406 E2.20709 ; infill
G1 X206.244 Y218.588 E2.22130 ; infill
G1 X207.176 Y222.353 F1800.000 ; move to first infill point
G1 F1014.632
G1 X199.240 Y214.417 E2.31670 ; infill
G1 X199.062 Y214.413 E2.31821 ; infill
G1 X199.141 Y214.955 E2.32287 ; infill
G1 X199.254 Y215.377 E2.32659 ; infill
G1 X199.453 Y215.950 E2.33174 ; infill
G1 X199.726 Y216.586 E2.33762 ; infill
G1 X200.068 Y217.262 E2.34406 ; infill
G1 X200.467 Y217.948 E2.35081 ; infill
G1 X200.907 Y218.617 E2.35761 ; infill
G1 X201.376 Y219.250 E2.36431 ; infill
G1 X201.860 Y219.833 E2.37076 ; infill
G1 X202.345 Y220.354 E2.37680 ; infill
G1 X203.412 Y221.422 E2.38963 ; infill
G1 Z9.490 F1800.000 ; move to next layer (2)
G1 X198.529 Y213.844 F1800.000 ; move to first external small perimeter point
G1 F600.000
G1 X198.773 Y213.699 E2.39091 ; external small perimeter
G1 X198.951 Y213.638 E2.39176 ; external small perimeter
G1 X199.217 Y213.584 E2.39299 ; external small perimeter
G1 X199.547 Y213.557 E2.39448 ; external small perimeter
G1 X199.949 Y213.567 E2.39629 ; external small perimeter
G1 X200.423 Y213.622 E2.39844 ; external small perimeter
G1 X200.966 Y213.731 E2.40094 ; external small perimeter
G1 X201.574 Y213.899 E2.40378 ; external small perimeter
G1 X202.233 Y214.130 E2.40694 ; external small perimeter
G1 X202.930 Y214.426 E2.41035 ; external small perimeter
G1 X203.643 Y214.781 E2.41394 ; external small perimeter
G1 X204.349 Y215.189 E2.41762 ; external small perimeter
G1 X205.017 Y215.631 E2.42123 ; external small perimeter
G1 X205.650 Y216.109 E2.42481 ; external small perimeter
G1 X206.223 Y216.606 E2.42822 ; external small perimeter
G1 X206.727 Y217.109 E2.43144 ; external small perimeter
G1 X207.158 Y217.610 E2.43442 ; external small perimeter
G1 X207.499 Y218.077 E2.43702 ; external small perimeter
G1 X207.788 Y218.554 E2.43954 ; external small perimeter
G1 X208.011 Y219.014 E2.44184 ; external small perimeter
G1 X208.171 Y219.454 E2.44395 ; external small perimeter
G1 X208.276 Y219.875 E2.44591 ; external small perimeter
G1 X208.330 Y220.281 E2.44776 ; external small perimeter
G1 X208.339 Y220.668 E2.44951 ; external small perimeter
G1 X208.272 Y221.287 E2.45231 ; external small perimeter
G1 X208.176 Y221.696 E2.45421 ; external small perimeter
G1 X208.035 Y222.109 E2.45617 ; external small perimeter
G1 X207.854 Y222.507 E2.45815 ; external small perimeter
G1 X207.656 Y222.847 E2.45992 ; external small perimeter
G1 X207.416 Y223.176 E2.46176 ; external small perimeter
G1 X207.162 Y223.452 E2.46345 ; external small perimeter
G1 X206.902 Y223.671 E2.46498 ; external small perimeter
G1 X206.697 Y223.803 E2.46608 ; external small perimeter
G1 X206.457 Y223.917 E2.46728 ; external small perimeter
G1 X206.210 Y223.993 E2.46844 ; external small perimeter
G1 X205.948 Y224.035 E2.46964 ; external small perimeter
G1 X205.663 Y224.042 E2.47093 ; external small perimeter
G1 X205.351 Y224.011 E2.47234 ; external small perimeter
G1 X205.007 Y223.936 E2.47393 ; external small perimeter
G1 X204.626 Y223.810 E2.47574 ; external small perimeter
G1 X204.332 Y223.685 E2.47718 ; external small perimeter
G1 X203.889 Y223.454 E2.47943 ; external small perimeter
G1 X203.420 Y223.159 E2.48193 ; external small perimeter
G1 X202.924 Y222.794 E2.48471 ; external small perimeter
G1 X202.404 Y222.354 E2.48778 ; external small perimeter
G1 X201.892 Y221.865 E2.49097 ; external small perimeter
G1 X201.351 Y221.284 E2.49455 ; external small perimeter
G1 X200.817 Y220.640 E2.49832 ; external small perimeter
G1 X200.303 Y219.945 E2.50222 ; external small perimeter
G1 X199.821 Y219.213 E2.50617 ; external small perimeter
G1 X199.382 Y218.458 E2.51011 ; external small perimeter
G1 X199.002 Y217.707 E2.51391 ; external small perimeter
G1 X198.693 Y216.986 E2.51744 ; external small perimeter
G1 X198.460 Y216.318 E2.52063 ; external small perimeter
G1 X198.319 Y215.788 E2.52310 ; external small perimeter
G1 X198.231 Y215.291 E2.52538 ; external small perimeter
G1 X198.201 Y214.909 E2.52711 ; external small perimeter
G1 X198.211 Y214.596 E2.52852 ; external small perimeter
G1 X198.249 Y214.351 E2.52964 ; external small perimeter
G1 X198.315 Y214.144 E2.53062 ; external small perimeter
G1 X198.408 Y213.977 E2.53148 ; external small perimeter
G1 X199.062 Y215.480 F1800.000 ; move to first infill point
G1 F1167.710
G1 X200.130 Y214.413 E2.54427 ; infill
G1 X200.386 Y214.419 E2.54643 ; infill
G1 X200.740 Y214.460 E2.54945 ; infill
G1 X201.179 Y214.548 E2.55324 ; infill
G1 X201.692 Y214.690 E2.55775 ; infill
G1 X202.411 Y214.953 E2.56423 ; infill
G1 X199.721 Y217.642 E2.59643 ; infill
G1 X200.068 Y218.329 E2.60295 ; infill
G1 X200.467 Y219.015 E2.60967 ; infill
G1 X200.746 Y219.439 E2.61396 ; infill
G1 X204.271 Y215.914 E2.65616 ; infill
G1 X204.749 Y216.230 E2.66101 ; infill
G1 X205.310 Y216.654 E2.66697 ; infill
G1 X205.864 Y217.142 E2.67322 ; infill
G1 X201.978 Y221.028 E2.71974 ; infill
G1 X202.347 Y221.424 E2.72432 ; infill
G1 X202.798 Y221.856 E2.72962 ; infill
G1 X203.445 Y222.381 E2.73667 ; infill
G1 X207.115 Y218.712 E2.78061 ; infill
G1 X207.265 Y219.022 E2.78353 ; infill
G1 X207.377 Y219.327 E2.78628 ; infill
G1 X207.445 Y219.601 E2.78867 ; infill
G1 X207.479 Y219.854 E2.79083 ; infill
G1 X207.483 Y220.075 E2.79270 ; infill
G1 X207.436 Y220.520 E2.79649 ; infill
G1 X207.375 Y220.779 E2.79874 ; infill
G1 X207.278 Y221.062 E2.80127 ; infill
G1 X207.154 Y221.335 E2.80381 ; infill
G1 X207.027 Y221.554 E2.80596 ; infill
G1 X206.876 Y221.760 E2.80812 ; infill
G1 X205.666 Y222.981 E2.82267 ; infill
M106 S255 ; enable fan
G1 Z10.690 F1800.000 ; move to next layer (3)
G1 X198.529 Y213.844 F1800.000 ; move to first external small perimeter point
G1 F600.000
G1 X198.773 Y213.699 E2.82395 ; external small perimeter
G1 X198.951 Y213.638 E2.82480 ; external small perimeter
G1 X199.217 Y213.584 E2.82602 ; external small perimeter
G1 X199.547 Y213.557 E2.82752 ; external small perimeter
G1 X199.949 Y213.567 E2.82933 ; external small perimeter
G1 X200.423 Y213.622 E2.83148 ; external small perimeter
G1 X200.966 Y213.731 E2.83398 ; external small perimeter
G1 X201.574 Y213.899 E2.83682 ; external small perimeter
G1 X202.233 Y214.130 E2.83997 ; external small perimeter
G1 X202.930 Y214.426 E2.84339 ; external small perimeter
G1 X203.643 Y214.781 E2.84698 ; external small perimeter
G1 X204.349 Y215.189 E2.85065 ; external small perimeter
G1 X205.017 Y215.631 E2.85427 ; external small perimeter
G1 X205.650 Y216.109 E2.85784 ; external small perimeter
G1 X206.223 Y216.606 E2.86126 ; external small perimeter
G1 X206.727 Y217.109 E2.86447 ; external small perimeter
G1 X207.158 Y217.610 E2.86745 ; external small perimeter
G1 X207.499 Y218.077 E2.87006 ; external small perimeter
G1 X207.788 Y218.554 E2.87258 ; external small perimeter
G1 X208.011 Y219.014 E2.87488 ; external small perimeter
