; generated by Slic3r 1.3.1-dev (Build (Unknown revision)) on 2022-12-16 at 11:54:17

; external perimeters extrusion width = 1.32mm (12.75mm^3/s)
; perimeters extrusion width = 1.26mm (12.03mm^3/s)
; infill extrusion width = 2.00mm (20.91mm^3/s)
; solid infill extrusion width = 2.00mm (41.82mm^3/s)
; top infill extrusion width = 1.26mm (18.04mm^3/s)

M107 ; disable fan
G92 E0 ; reset extrusion distance
M104 S200 ; set temperature
G28 ; home all axes
G1 Z5 F5000 ; lift nozzle

; Filament gcode

M109 S200 ; set temperature and wait for it to be reached
G21 ; set units to millimeters
G90 ; use absolute coordinates
M82 ; use absolute distances for extrusion
G92 E0 ; reset extrusion distance
G1 Z7.820 F1800.000 ; move to next layer (0)
G1 E-2.00000 F2400.00000 ; retract extruder 0
G92 E0 ; reset extrusion distance
G1 X206.254 Y196.214 F1800.000 ; move to first external small perimeter point
G1 E2.00000 F2400.00000 ; unretract extruder 0
G1 F600.000
G1 X206.548 Y196.255 E2.00071 ; external small perimeter
G1 X206.847 Y196.330 E2.00144 ; external small perimeter
G1 X207.158 Y196.441 E2.00223 ; external small perimeter
G1 X207.477 Y196.589 E2.00307 ; external small perimeter
G1 X207.797 Y196.777 E2.00395 ; external small perimeter
G1 X208.111 Y197.000 E2.00487 ; external small perimeter
G1 X208.408 Y197.255 E2.00580 ; external small perimeter
G1 X208.681 Y197.535 E2.00673 ; external small perimeter
G1 X208.917 Y197.829 E2.00763 ; external small perimeter
G1 X209.114 Y198.130 E2.00849 ; external small perimeter
G1 X209.266 Y198.423 E2.00928 ; external small perimeter
G1 X209.372 Y198.701 E2.00998 ; external small perimeter
G1 X209.434 Y198.944 E2.01058 ; external small perimeter
G1 X209.462 Y199.172 E2.01113 ; external small perimeter
G1 X209.458 Y199.371 E2.01160 ; external small perimeter
G1 X209.430 Y199.552 E2.01204 ; external small perimeter
G1 X209.375 Y199.730 E2.01248 ; external small perimeter
G1 X209.284 Y199.933 E2.01301 ; external small perimeter
G1 X209.157 Y200.142 E2.01360 ; external small perimeter
G1 X208.983 Y200.369 E2.01428 ; external small perimeter
G1 X208.758 Y200.611 E2.01506 ; external small perimeter
G1 X208.475 Y200.863 E2.01597 ; external small perimeter
G1 X208.132 Y201.123 E2.01699 ; external small perimeter
G1 X207.727 Y201.384 E2.01814 ; external small perimeter
G1 X207.261 Y201.640 E2.01941 ; external small perimeter
G1 X206.738 Y201.883 E2.02078 ; external small perimeter
G1 X206.168 Y202.107 E2.02224 ; external small perimeter
G1 X205.563 Y202.302 E2.02376 ; external small perimeter
G1 X204.936 Y202.462 E2.02530 ; external small perimeter
G1 X204.316 Y202.578 E2.02680 ; external small perimeter
G1 X203.722 Y202.649 E2.02823 ; external small perimeter
G1 X203.174 Y202.674 E2.02953 ; external small perimeter
G1 X202.689 Y202.657 E2.03069 ; external small perimeter
G1 X202.292 Y202.608 E2.03164 ; external small perimeter
G1 X201.992 Y202.541 E2.03237 ; external small perimeter
G1 X201.754 Y202.462 E2.03297 ; external small perimeter
G1 X201.445 Y202.296 E2.03381 ; external small perimeter
G1 X201.311 Y202.179 E2.03423 ; external small perimeter
G1 X201.239 Y202.062 E2.03456 ; external small perimeter
G1 X201.159 Y201.811 E2.03519 ; external small perimeter
G1 X201.138 Y201.624 E2.03564 ; external small perimeter
G1 X201.141 Y201.373 E2.03623 ; external small perimeter
G1 X201.176 Y201.086 E2.03692 ; external small perimeter
G1 X201.250 Y200.749 E2.03775 ; external small perimeter
G1 X201.370 Y200.368 E2.03870 ; external small perimeter
G1 X201.547 Y199.935 E2.03981 ; external small perimeter
G1 X201.770 Y199.489 E2.04100 ; external small perimeter
G1 X202.043 Y199.028 E2.04228 ; external small perimeter
G1 X202.362 Y198.568 E2.04361 ; external small perimeter
G1 X202.718 Y198.125 E2.04496 ; external small perimeter
G1 X203.100 Y197.713 E2.04630 ; external small perimeter
G1 X203.497 Y197.343 E2.04760 ; external small perimeter
G1 X203.878 Y197.040 E2.04876 ; external small perimeter
G1 X204.273 Y196.774 E2.04989 ; external small perimeter
G1 X204.655 Y196.563 E2.05093 ; external small perimeter
G1 X205.018 Y196.406 E2.05187 ; external small perimeter
G1 X205.358 Y196.297 E2.05272 ; external small perimeter
G1 X205.675 Y196.233 E2.05350 ; external small perimeter
G1 X206.074 Y196.209 E2.05445 ; external small perimeter
G1 E0.05445 F2400.00000 ; retract extruder 0
G92 E0 ; reset extrusion distance
G1 X205.213 Y198.323 F1800.000 ; move to first infill point
G1 E2.00000 F2400.00000 ; unretract extruder 0
G1 F600.000
G1 X203.712 Y199.824 E2.00577 ; infill
G1 E0.00577 F2400.00000 ; retract extruder 0
G92 E0 ; reset extrusion distance
G1 X206.660 Y199.983 F1800.000 ; move to first infill point
G1 E2.00000 F2400.00000 ; unretract extruder 0
G1 F600.000
G1 X208.158 Y198.486 E2.00576 ; infill
G1 Z9.020 F1800.000 ; move to next layer (1)
G1 X206.282 Y195.875 F1800.000 ; move to first external small perimeter point
G1 F600.000
G1 X206.613 Y195.921 E2.00726 ; external small perimeter
G1 X206.945 Y196.004 E2.00881 ; external small perimeter
G1 X207.287 Y196.126 E2.01045 ; external small perimeter
G1 X207.635 Y196.288 E2.01218 ; external small perimeter
G1 X207.982 Y196.491 E2.01399 ; external small perimeter
G1 X208.320 Y196.732 E2.01586 ; external small perimeter
G1 X208.641 Y197.007 E2.01777 ; external small perimeter
G1 X208.936 Y197.310 E2.01967 ; external small perimeter
G1 X209.192 Y197.629 E2.02152 ; external small perimeter
G1 X209.408 Y197.958 E2.02329 ; external small perimeter
G1 X209.577 Y198.284 E2.02495 ; external small perimeter
G1 X209.697 Y198.598 E2.02647 ; external small perimeter
G1 X209.769 Y198.882 E2.02778 ; external small perimeter
G1 X209.802 Y199.154 E2.02902 ; external small perimeter
G1 X209.798 Y199.401 E2.03013 ; external small perimeter
G1 X209.762 Y199.629 E2.03117 ; external small perimeter
G1 X209.694 Y199.851 E2.03222 ; external small perimeter
G1 X209.585 Y200.092 E2.03341 ; external small perimeter
G1 X209.438 Y200.334 E2.03469 ; external small perimeter
G1 X209.243 Y200.589 E2.03614 ; external small perimeter
G1 X208.996 Y200.854 E2.03777 ; external small perimeter
G1 X208.692 Y201.126 E2.03961 ; external small perimeter
G1 X208.327 Y201.402 E2.04167 ; external small perimeter
G1 X207.901 Y201.676 E2.04396 ; external small perimeter
G1 X207.414 Y201.943 E2.04646 ; external small perimeter
G1 X206.872 Y202.196 E2.04916 ; external small perimeter
G1 X206.282 Y202.427 E2.05202 ; external small perimeter
G1 X205.657 Y202.629 E2.05498 ; external small perimeter
G1 X205.010 Y202.794 E2.05799 ; external small perimeter
G1 X204.368 Y202.914 E2.06094 ; external small perimeter
G1 X203.750 Y202.988 E2.06374 ; external small perimeter
G1 X203.176 Y203.014 E2.06633 ; external small perimeter
G1 X202.662 Y202.996 E2.06865 ; external small perimeter
G1 X202.234 Y202.943 E2.07060 ; external small perimeter
G1 X201.902 Y202.869 E2.07213 ; external small perimeter
G1 X201.627 Y202.778 E2.07344 ; external small perimeter
G1 X201.409 Y202.676 E2.07452 ; external small perimeter
G1 X201.241 Y202.569 E2.07542 ; external small perimeter
G1 X201.017 Y202.350 E2.07683 ; external small perimeter
G1 X200.935 Y202.217 E2.07754 ; external small perimeter
G1 X200.871 Y202.062 E2.07829 ; external small perimeter
G1 X200.824 Y201.871 E2.07918 ; external small perimeter
G1 X200.798 Y201.641 E2.08022 ; external small perimeter
G1 X200.801 Y201.350 E2.08154 ; external small perimeter
G1 X200.840 Y201.029 E2.08300 ; external small perimeter
G1 X200.922 Y200.661 E2.08469 ; external small perimeter
G1 X201.050 Y200.253 E2.08663 ; external small perimeter
G1 X201.237 Y199.795 E2.08886 ; external small perimeter
G1 X201.471 Y199.326 E2.09122 ; external small perimeter
G1 X201.757 Y198.844 E2.09375 ; external small perimeter
G1 X202.090 Y198.364 E2.09638 ; external small perimeter
G1 X202.460 Y197.902 E2.09905 ; external small perimeter
G1 X202.859 Y197.472 E2.10169 ; external small perimeter
G1 X203.275 Y197.085 E2.10425 ; external small perimeter
G1 X203.677 Y196.765 E2.10657 ; external small perimeter
G1 X204.096 Y196.483 E2.10885 ; external small perimeter
G1 X204.505 Y196.258 E2.11096 ; external small perimeter
G1 X204.898 Y196.087 E2.11289 ; external small perimeter
G1 X205.272 Y195.968 E2.11466 ; external small perimeter
G1 X205.626 Y195.896 E2.11629 ; external small perimeter
G1 X206.102 Y195.870 E2.11844 ; external small perimeter
G1 X207.161 Y197.491 F1800.000 ; move to first infill point
G1 F811.996
G1 X208.229 Y198.558 E2.13184 ; infill
G1 X207.728 Y201.014 F1800.000 ; move to first infill point
G1 F811.996
G1 X204.024 Y197.311 E2.17832 ; infill
G1 X203.647 Y197.604 E2.18256 ; infill
G1 X203.308 Y197.920 E2.18668 ; infill
G1 X202.978 Y198.276 E2.19098 ; infill
G1 X202.566 Y198.809 E2.19696 ; infill
G1 X205.630 Y201.873 E2.23542 ; infill
G1 X205.243 Y201.972 E2.23896 ; infill
G1 X204.691 Y202.076 E2.24395 ; infill
G1 X204.170 Y202.138 E2.24861 ; infill
G1 X203.702 Y202.160 E2.25276 ; infill
G1 X203.306 Y202.146 E2.25629 ; infill
G1 X202.880 Y202.081 E2.26011 ; infill
G1 X201.660 Y200.860 E2.27542 ; infill
G1 Z10.220 F1800.000 ; move to next layer (2)
G1 X206.282 Y195.875 F1800.000 ; move to first external small perimeter point
G1 F600.000
G1 X206.613 Y195.921 E2.27693 ; external small perimeter
G1 X206.945 Y196.004 E2.27847 ; external small perimeter
G1 X207.287 Y196.126 E2.28011 ; external small perimeter
G1 X207.635 Y196.288 E2.28184 ; external small perimeter
G1 X207.982 Y196.491 E2.28365 ; external small perimeter
G1 X208.320 Y196.732 E2.28552 ; external small perimeter
G1 X208.641 Y197.007 E2.28743 ; external small perimeter
G1 X208.936 Y197.310 E2.28933 ; external small perimeter
G1 X209.192 Y197.629 E2.29118 ; external small perimeter
G1 X209.408 Y197.958 E2.29296 ; external small perimeter
G1 X209.577 Y198.284 E2.29461 ; external small perimeter
G1 X209.697 Y198.598 E2.29613 ; external small perimeter
G1 X209.769 Y198.882 E2.29745 ; external small perimeter
G1 X209.802 Y199.154 E2.29868 ; external small perimeter
G1 X209.798 Y199.401 E2.29980 ; external small perimeter
G1 X209.762 Y199.629 E2.30084 ; external small perimeter
G1 X209.694 Y199.851 E2.30188 ; external small perimeter
G1 X209.585 Y200.092 E2.30308 ; external small perimeter
G1 X209.438 Y200.334 E2.30435 ; external small perimeter
G1 X209.243 Y200.589 E2.30580 ; external small perimeter
G1 X208.996 Y200.854 E2.30743 ; external small perimeter
G1 X208.692 Y201.126 E2.30928 ; external small perimeter
G1 X208.327 Y201.402 E2.31134 ; external small perimeter
G1 X207.901 Y201.676 E2.31362 ; external small perimeter
G1 X207.414 Y201.943 E2.31612 ; external small perimeter
G1 X206.872 Y202.196 E2.31882 ; external small perimeter
G1 X206.282 Y202.427 E2.32168 ; external small perimeter
G1 X205.657 Y202.629 E2.32464 ; external small perimeter
G1 X205.010 Y202.794 E2.32765 ; external small perimeter
G1 X204.368 Y202.914 E2.33060 ; external small perimeter
G1 X203.750 Y202.988 E2.33341 ; external small perimeter
G1 X203.176 Y203.014 E2.33600 ; external small perimeter
G1 X202.662 Y202.996 E2.33832 ; external small perimeter
G1 X202.234 Y202.943 E2.34026 ; external small perimeter
G1 X201.902 Y202.869 E2.34180 ; external small perimeter
G1 X201.627 Y202.778 E2.34310 ; external small perimeter
G1 X201.409 Y202.676 E2.34419 ; external small perimeter
G1 X201.241 Y202.569 E2.34508 ; external small perimeter
G1 X201.017 Y202.350 E2.34649 ; external small perimeter
G1 X200.935 Y202.217 E2.34720 ; external small perimeter
G1 X200.871 Y202.062 E2.34796 ; external small perimeter
G1 X200.824 Y201.871 E2.34884 ; external small perimeter
G1 X200.798 Y201.641 E2.34989 ; external small perimeter
G1 X200.801 Y201.350 E2.35120 ; external small perimeter
G1 X200.840 Y201.029 E2.35266 ; external small perimeter
G1 X200.922 Y200.661 E2.35436 ; external small perimeter
G1 X201.050 Y200.253 E2.35629 ; external small perimeter
G1 X201.237 Y199.795 E2.35852 ; external small perimeter
G1 X201.471 Y199.326 E2.36088 ; external small perimeter
G1 X201.757 Y198.844 E2.36341 ; external small perimeter
G1 X202.090 Y198.364 E2.36604 ; external small perimeter
G1 X202.460 Y197.902 E2.36871 ; external small perimeter
G1 X202.859 Y197.472 E2.37135 ; external small perimeter
G1 X203.275 Y197.085 E2.37392 ; external small perimeter
G1 X203.677 Y196.765 E2.37623 ; external small perimeter
G1 X204.096 Y196.483 E2.37851 ; external small perimeter
G1 X204.505 Y196.258 E2.38062 ; external small perimeter
G1 X204.898 Y196.087 E2.38255 ; external small perimeter
G1 X205.272 Y195.968 E2.38432 ; external small perimeter
G1 X205.626 Y195.896 E2.38595 ; external small perimeter
G1 X206.102 Y195.870 E2.38810 ; external small perimeter
G1 X204.377 Y197.918 F1800.000 ; move to first infill point
G1 F809.409
G1 X203.306 Y198.989 E2.40081 ; infill
G1 X202.978 Y199.343 E2.40486 ; infill
G1 X202.668 Y199.728 E2.40900 ; infill
G1 X202.392 Y200.128 E2.41308 ; infill
G1 X202.156 Y200.525 E2.41695 ; infill
G1 X201.968 Y200.901 E2.42048 ; infill
G1 X201.823 Y201.257 E2.42371 ; infill
G1 X201.676 Y201.796 E2.42840 ; infill
G1 X201.653 Y202.036 E2.43041 ; infill
G1 X201.937 Y202.108 E2.43287 ; infill
G1 X202.238 Y202.146 E2.43542 ; infill
G1 X202.635 Y202.160 E2.43875 ; infill
G1 X202.945 Y202.145 E2.44135 ; infill
G1 X207.881 Y197.209 E2.49992 ; infill
G1 X208.224 Y197.486 E2.50361 ; infill
G1 X208.429 Y197.697 E2.50608 ; infill
G1 X208.603 Y197.912 E2.50841 ; infill
G1 X208.842 Y198.318 E2.51236 ; infill
G1 X208.936 Y198.603 E2.51487 ; infill
G1 X208.946 Y198.746 E2.51607 ; infill
G1 X208.889 Y198.910 E2.51753 ; infill
G1 X208.716 Y199.158 E2.52007 ; infill
G1 X207.489 Y200.396 E2.53469 ; infill
M106 S255 ; enable fan
G1 Z11.420 F1800.000 ; move to next layer (3)
G1 X206.282 Y195.875 F1800.000 ; move to first external small perimeter point
G1 F600.000
G1 X206.613 Y195.921 E2.53619 ; external small perimeter
G1 X206.945 Y196.004 E2.53774 ; external small perimeter
G1 X207.287 Y196.126 E2.53937 ; external small perimeter
G1 X207.635 Y196.288 E2.54110 ; external small perimeter
G1 X207.982 Y196.491 E2.54292 ; external small perimeter
G1 X208.320 Y196.732 E2.54479 ; external small perimeter
G1 X208.641 Y197.007 E2.54670 ; external small perimeter
G1 X208.936 Y197.310 E2.54860 ; external small perimeter
G1 X209.192 Y197.629 E2.55045 ; external small perimeter
G1 X209.408 Y197.958 E2.55222 ; external small perimeter
G1 X209.577 Y198.284 E2.55388 ; external small perimeter
G1 X209.697 Y198.598 E2.55540 ; external small perimeter
G1 X209.769 Y198.882 E2.55671 ; external small perimeter
G1 X209.802 Y199.154 E2.55795 ; external small perimeter
G1 X209.798 Y199.401 E2.55906 ; external small perimeter
G1 X209.762 Y199.629 E2.56010 ; external small perimeter
G1 X209.694 Y199.851 E2.56115 ; external small perimeter
G1 X209.585 Y200.092 E2.56234 ; external small perimeter
G1 X209.438 Y200.334 E2.56362 ; external small perimeter
G1 X209.243 Y200.589 E2.56507 ; external small perimeter
G1 X208.996 Y200.854 E2.56670 ; external small perimeter
G1 X208.692 Y201.126 E2.56854 ; external small perimeter
G1 X208.327 Y201.402 E2.57060 ; external small perimeter
G1 X207.901 Y201.676 E2.57289 ; external small perimeter
G1 X207.414 Y201.943 E2.57539 ; external small perimeter
G1 X206.872 Y202.196 E2.57809 ; external small perimeter
G1 X206.282 Y202.427 E2.58095 ; external small perimeter
G1 X205.657 Y202.629 E2.58391 ; external small perimeter
G1 X205.010 Y202.794 E2.58692 ; external small perimeter
G1 X204.368 Y202.914 E2.58987 ; external small perimeter
G1 X203.750 Y202.988 E2.59267 ; external small perimeter
G1 X203.176 Y203.014 E2.59526 ; external small perimeter
G1 X202.662 Y202.996 E2.59758 ; external small perimeter
G1 X202.234 Y202.943 E2.59953 ; external small perimeter
G1 X201.902 Y202.869 E2.60106 ; external small perimeter
G1 X201.627 Y202.778 E2.60236 ; external small perimeter
G1 X201.409 Y202.676 E2.60345 ; external small perimeter
