; generated by Slic3r 1.3.1-dev (Build (Unknown revision)) on 2022-12-16 at 12:27:59

; external perimeters extrusion width = 1.32mm (12.75mm^3/s)
; perimeters extrusion width = 1.26mm (12.03mm^3/s)
; infill extrusion width = 2.00mm (20.91mm^3/s)
; solid infill extrusion width = 2.00mm (41.82mm^3/s)
; top infill extrusion width = 1.26mm (18.04mm^3/s)

M107 ; disable fan
G92 E0 ; reset extrusion distance
M104 S200 ; set temperature
G28 ; home all axes
G1 Z5 F5000 ; lift nozzle

; Filament gcode

M109 S200 ; set temperature and wait for it to be reached
G21 ; set units to millimeters
G90 ; use absolute coordinates
M82 ; use absolute distances for extrusion
G92 E0 ; reset extrusion distance
G1 Z17.000 F1800.000 ; move to next layer (0)
G1 E-2.00000 F2400.00000 ; retract extruder 0
G92 E0 ; reset extrusion distance
G1 X158.338 Y213.971 F1800.000 ; move to first external small perimeter point
G1 E2.00000 F2400.00000 ; unretract extruder 0
G1 F600.000
G1 X158.225 Y213.807 E2.00038 ; external small perimeter
G1 X158.089 Y213.543 E2.00095 ; external small perimeter
G1 X157.973 Y213.229 E2.00158 ; external small perimeter
G1 X157.886 Y212.869 E2.00229 ; external small perimeter
G1 X157.839 Y212.513 E2.00297 ; external small perimeter
G1 X157.825 Y212.110 E2.00374 ; external small perimeter
G1 X157.851 Y211.708 E2.00451 ; external small perimeter
G1 X157.914 Y211.319 E2.00526 ; external small perimeter
G1 X158.011 Y210.961 E2.00597 ; external small perimeter
G1 X158.222 Y210.447 E2.00703 ; external small perimeter
G1 X158.402 Y210.136 E2.00771 ; external small perimeter
G1 X158.638 Y209.817 E2.00847 ; external small perimeter
G1 X158.931 Y209.498 E2.00930 ; external small perimeter
G1 X159.288 Y209.181 E2.01021 ; external small perimeter
G1 X159.714 Y208.869 E2.01121 ; external small perimeter
G1 X160.183 Y208.583 E2.01226 ; external small perimeter
G1 X160.750 Y208.297 E2.01347 ; external small perimeter
G1 X161.385 Y208.035 E2.01478 ; external small perimeter
G1 X162.082 Y207.803 E2.01618 ; external small perimeter
G1 X162.829 Y207.609 E2.01765 ; external small perimeter
G1 X163.595 Y207.460 E2.01914 ; external small perimeter
G1 X164.382 Y207.357 E2.02065 ; external small perimeter
G1 X165.156 Y207.303 E2.02213 ; external small perimeter
G1 X165.892 Y207.297 E2.02353 ; external small perimeter
G1 X166.568 Y207.335 E2.02482 ; external small perimeter
G1 X167.169 Y207.410 E2.02598 ; external small perimeter
G1 X167.687 Y207.512 E2.02699 ; external small perimeter
G1 X168.118 Y207.635 E2.02784 ; external small perimeter
G1 X168.461 Y207.768 E2.02854 ; external small perimeter
G1 X168.722 Y207.901 E2.02910 ; external small perimeter
G1 X168.912 Y208.030 E2.02954 ; external small perimeter
G1 X169.190 Y208.275 E2.03024 ; external small perimeter
G1 X169.159 Y208.632 E2.03093 ; external small perimeter
G1 X169.112 Y208.828 E2.03131 ; external small perimeter
G1 X169.015 Y209.083 E2.03183 ; external small perimeter
G1 X168.857 Y209.394 E2.03250 ; external small perimeter
G1 X168.601 Y209.793 E2.03340 ; external small perimeter
G1 X168.285 Y210.207 E2.03439 ; external small perimeter
G1 X167.831 Y210.716 E2.03569 ; external small perimeter
G1 X167.285 Y211.248 E2.03714 ; external small perimeter
G1 X166.662 Y211.783 E2.03871 ; external small perimeter
G1 X165.983 Y212.300 E2.04034 ; external small perimeter
G1 X165.272 Y212.781 E2.04197 ; external small perimeter
G1 X164.547 Y213.217 E2.04358 ; external small perimeter
G1 X163.825 Y213.598 E2.04514 ; external small perimeter
G1 X163.120 Y213.919 E2.04662 ; external small perimeter
G1 X162.479 Y214.168 E2.04793 ; external small perimeter
G1 X161.851 Y214.368 E2.04919 ; external small perimeter
G1 X161.276 Y214.510 E2.05032 ; external small perimeter
G1 X160.756 Y214.598 E2.05132 ; external small perimeter
G1 X160.285 Y214.639 E2.05222 ; external small perimeter
G1 X159.993 Y214.642 E2.05278 ; external small perimeter
G1 X159.624 Y214.615 E2.05348 ; external small perimeter
G1 X159.315 Y214.560 E2.05408 ; external small perimeter
G1 X159.054 Y214.480 E2.05460 ; external small perimeter
G1 X158.834 Y214.382 E2.05506 ; external small perimeter
G1 X158.647 Y214.267 E2.05548 ; external small perimeter
G1 X158.459 Y214.104 E2.05595 ; external small perimeter
G1 X159.107 Y213.450 F1800.000 ; move to first infill point
G1 F600.000
G1 X163.754 Y208.803 E2.07098 ; infill
G1 E0.07098 F2400.00000 ; retract extruder 0
G92 E0 ; reset extrusion distance
G1 X165.685 Y210.138 F1800.000 ; move to first infill point
G1 E2.00000 F2400.00000 ; unretract extruder 0
G1 F600.000
G1 X167.182 Y208.641 E2.00484 ; infill
G1 Z18.200 F1800.000 ; move to next layer (1)
G1 X158.071 Y214.182 F1800.000 ; move to first external small perimeter point
G1 F600.000
G1 X157.933 Y213.982 E2.00572 ; external small perimeter
G1 X157.777 Y213.680 E2.00695 ; external small perimeter
G1 X157.648 Y213.328 E2.00830 ; external small perimeter
G1 X157.552 Y212.932 E2.00977 ; external small perimeter
G1 X157.499 Y212.542 E2.01119 ; external small perimeter
G1 X157.484 Y212.105 E2.01277 ; external small perimeter
G1 X157.512 Y211.669 E2.01434 ; external small perimeter
G1 X157.582 Y211.248 E2.01588 ; external small perimeter
G1 X157.688 Y210.852 E2.01736 ; external small perimeter
G1 X157.916 Y210.296 E2.01953 ; external small perimeter
G1 X158.117 Y209.949 E2.02098 ; external small perimeter
G1 X158.376 Y209.600 E2.02254 ; external small perimeter
G1 X158.693 Y209.255 E2.02423 ; external small perimeter
G1 X159.074 Y208.916 E2.02607 ; external small perimeter
G1 X159.524 Y208.586 E2.02809 ; external small perimeter
G1 X160.018 Y208.286 E2.03017 ; external small perimeter
G1 X160.608 Y207.988 E2.03256 ; external small perimeter
G1 X161.267 Y207.716 E2.03513 ; external small perimeter
G1 X161.986 Y207.477 E2.03786 ; external small perimeter
G1 X162.754 Y207.277 E2.04072 ; external small perimeter
G1 X163.540 Y207.125 E2.04361 ; external small perimeter
G1 X164.348 Y207.019 E2.04655 ; external small perimeter
G1 X165.143 Y206.963 E2.04943 ; external small perimeter
G1 X165.900 Y206.957 E2.05216 ; external small perimeter
G1 X166.598 Y206.996 E2.05468 ; external small perimeter
G1 X167.223 Y207.074 E2.05695 ; external small perimeter
G1 X167.767 Y207.182 E2.05895 ; external small perimeter
G1 X168.226 Y207.312 E2.06067 ; external small perimeter
G1 X168.600 Y207.457 E2.06212 ; external small perimeter
G1 X168.895 Y207.608 E2.06332 ; external small perimeter
G1 X169.121 Y207.760 E2.06430 ; external small perimeter
G1 X169.261 Y207.884 E2.06497 ; external small perimeter
G1 X169.432 Y208.111 E2.06600 ; external small perimeter
G1 X169.504 Y208.332 E2.06684 ; external small perimeter
G1 X169.514 Y208.471 E2.06734 ; external small perimeter
G1 X169.495 Y208.688 E2.06812 ; external small perimeter
G1 X169.437 Y208.929 E2.06902 ; external small perimeter
G1 X169.326 Y209.221 E2.07015 ; external small perimeter
G1 X169.152 Y209.563 E2.07153 ; external small perimeter
G1 X168.880 Y209.988 E2.07335 ; external small perimeter
G1 X168.547 Y210.424 E2.07533 ; external small perimeter
G1 X168.077 Y210.951 E2.07788 ; external small perimeter
G1 X167.515 Y211.499 E2.08071 ; external small perimeter
G1 X166.876 Y212.047 E2.08375 ; external small perimeter
G1 X166.181 Y212.576 E2.08690 ; external small perimeter
G1 X165.455 Y213.068 E2.09006 ; external small perimeter
G1 X164.714 Y213.513 E2.09318 ; external small perimeter
G1 X163.975 Y213.903 E2.09619 ; external small perimeter
G1 X163.252 Y214.233 E2.09906 ; external small perimeter
G1 X162.592 Y214.489 E2.10161 ; external small perimeter
G1 X161.944 Y214.696 E2.10407 ; external small perimeter
G1 X161.345 Y214.843 E2.10629 ; external small perimeter
G1 X160.799 Y214.936 E2.10829 ; external small perimeter
G1 X160.301 Y214.979 E2.11009 ; external small perimeter
G1 X159.982 Y214.983 E2.11124 ; external small perimeter
G1 X159.582 Y214.953 E2.11269 ; external small perimeter
G1 X159.236 Y214.891 E2.11396 ; external small perimeter
G1 X158.935 Y214.800 E2.11509 ; external small perimeter
G1 X158.675 Y214.684 E2.11612 ; external small perimeter
G1 X158.448 Y214.544 E2.11708 ; external small perimeter
G1 X158.192 Y214.316 E2.11832 ; external small perimeter
G1 X158.677 Y212.840 F1800.000 ; move to first infill point
G1 F1142.271
G1 X159.746 Y213.909 E2.12810 ; infill
G1 X159.858 Y213.988 E2.12898 ; infill
G1 X160.095 Y214.073 E2.13061 ; infill
G1 X160.560 Y214.128 E2.13364 ; infill
G1 X161.156 Y214.092 E2.13750 ; infill
G1 X161.596 Y214.017 E2.14039 ; infill
G1 X162.345 Y213.815 E2.14540 ; infill
G1 X158.732 Y210.201 E2.17844 ; infill
G1 X158.913 Y209.951 E2.18044 ; infill
G1 X159.133 Y209.712 E2.18254 ; infill
G1 X159.413 Y209.463 E2.18497 ; infill
G1 X159.763 Y209.207 E2.18777 ; infill
G1 X160.179 Y208.956 E2.19091 ; infill
G1 X164.235 Y213.012 E2.22800 ; infill
G1 X164.567 Y212.837 E2.23042 ; infill
G1 X165.242 Y212.432 E2.23552 ; infill
G1 X165.901 Y211.985 E2.24066 ; infill
G1 X162.119 Y208.203 E2.27525 ; infill
G1 X162.527 Y208.097 E2.27797 ; infill
G1 X163.229 Y207.961 E2.28259 ; infill
G1 X163.953 Y207.866 E2.28732 ; infill
G1 X164.441 Y207.832 E2.29048 ; infill
G1 X167.368 Y210.759 E2.31724 ; infill
G1 X168.557 Y209.255 F1800.000 ; move to first infill point
G1 F1142.271
G1 X167.490 Y208.188 E2.32700 ; infill
G1 Z19.400 F1800.000 ; move to next layer (2)
G1 X158.071 Y214.182 F1800.000 ; move to first external small perimeter point
G1 F600.000
G1 X157.933 Y213.982 E2.32788 ; external small perimeter
G1 X157.777 Y213.680 E2.32910 ; external small perimeter
G1 X157.648 Y213.328 E2.33045 ; external small perimeter
G1 X157.552 Y212.932 E2.33192 ; external small perimeter
G1 X157.499 Y212.542 E2.33334 ; external small perimeter
G1 X157.484 Y212.105 E2.33492 ; external small perimeter
G1 X157.512 Y211.669 E2.33650 ; external small perimeter
G1 X157.582 Y211.248 E2.33804 ; external small perimeter
G1 X157.688 Y210.852 E2.33952 ; external small perimeter
G1 X157.916 Y210.296 E2.34168 ; external small perimeter
G1 X158.117 Y209.949 E2.34313 ; external small perimeter
G1 X158.376 Y209.600 E2.34470 ; external small perimeter
G1 X158.693 Y209.255 E2.34639 ; external small perimeter
G1 X159.074 Y208.916 E2.34823 ; external small perimeter
G1 X159.524 Y208.586 E2.35024 ; external small perimeter
G1 X160.018 Y208.286 E2.35233 ; external small perimeter
G1 X160.608 Y207.988 E2.35471 ; external small perimeter
G1 X161.267 Y207.716 E2.35728 ; external small perimeter
G1 X161.986 Y207.477 E2.36001 ; external small perimeter
G1 X162.754 Y207.277 E2.36288 ; external small perimeter
G1 X163.540 Y207.125 E2.36577 ; external small perimeter
G1 X164.348 Y207.019 E2.36871 ; external small perimeter
G1 X165.143 Y206.963 E2.37158 ; external small perimeter
G1 X165.900 Y206.957 E2.37431 ; external small perimeter
G1 X166.598 Y206.996 E2.37683 ; external small perimeter
G1 X167.223 Y207.074 E2.37911 ; external small perimeter
G1 X167.767 Y207.182 E2.38111 ; external small perimeter
G1 X168.226 Y207.312 E2.38283 ; external small perimeter
G1 X168.600 Y207.457 E2.38428 ; external small perimeter
G1 X168.895 Y207.608 E2.38547 ; external small perimeter
G1 X169.121 Y207.760 E2.38645 ; external small perimeter
G1 X169.261 Y207.884 E2.38713 ; external small perimeter
G1 X169.432 Y208.111 E2.38815 ; external small perimeter
G1 X169.504 Y208.332 E2.38899 ; external small perimeter
G1 X169.514 Y208.471 E2.38949 ; external small perimeter
G1 X169.495 Y208.688 E2.39028 ; external small perimeter
G1 X169.437 Y208.929 E2.39117 ; external small perimeter
G1 X169.326 Y209.221 E2.39230 ; external small perimeter
G1 X169.152 Y209.563 E2.39368 ; external small perimeter
G1 X168.880 Y209.988 E2.39551 ; external small perimeter
G1 X168.547 Y210.424 E2.39748 ; external small perimeter
G1 X168.077 Y210.951 E2.40003 ; external small perimeter
G1 X167.515 Y211.499 E2.40286 ; external small perimeter
G1 X166.876 Y212.047 E2.40590 ; external small perimeter
G1 X166.181 Y212.576 E2.40905 ; external small perimeter
G1 X165.455 Y213.068 E2.41221 ; external small perimeter
G1 X164.714 Y213.513 E2.41533 ; external small perimeter
G1 X163.975 Y213.903 E2.41835 ; external small perimeter
G1 X163.252 Y214.233 E2.42121 ; external small perimeter
G1 X162.592 Y214.489 E2.42377 ; external small perimeter
G1 X161.944 Y214.696 E2.42622 ; external small perimeter
G1 X161.345 Y214.843 E2.42845 ; external small perimeter
G1 X160.799 Y214.936 E2.43044 ; external small perimeter
G1 X160.301 Y214.979 E2.43225 ; external small perimeter
G1 X159.982 Y214.983 E2.43340 ; external small perimeter
G1 X159.582 Y214.953 E2.43485 ; external small perimeter
G1 X159.236 Y214.891 E2.43612 ; external small perimeter
G1 X158.935 Y214.800 E2.43725 ; external small perimeter
G1 X158.675 Y214.684 E2.43828 ; external small perimeter
G1 X158.448 Y214.544 E2.43924 ; external small perimeter
G1 X158.192 Y214.316 E2.44047 ; external small perimeter
G1 X160.009 Y214.099 F1800.000 ; move to first infill point
G1 F1061.562
G1 X166.296 Y207.812 E2.50360 ; infill
G1 X165.730 Y207.817 E2.50761 ; infill
G1 X165.021 Y207.866 E2.51266 ; infill
G1 X164.296 Y207.961 E2.51785 ; infill
G1 X163.594 Y208.097 E2.52292 ; infill
G1 X162.858 Y208.293 E2.52833 ; infill
G1 X158.345 Y212.806 E2.57365 ; infill
G1 X158.359 Y212.360 E2.57681 ; infill
G1 X158.406 Y212.074 E2.57887 ; infill
G1 X158.471 Y211.831 E2.58066 ; infill
G1 X158.630 Y211.444 E2.58363 ; infill
G1 X158.745 Y211.246 E2.58526 ; infill
G1 X158.913 Y211.019 E2.58726 ; infill
G1 X159.133 Y210.780 E2.58957 ; infill
G1 X159.413 Y210.530 E2.59223 ; infill
G1 X159.763 Y210.274 E2.59531 ; infill
G1 X160.159 Y210.033 E2.59860 ; infill
G1 X160.653 Y209.784 E2.60253 ; infill
G1 X161.217 Y209.551 E2.60686 ; infill
G1 X161.791 Y209.360 E2.61115 ; infill
G1 X166.534 Y210.531 F1800.000 ; move to first infill point
G1 F1061.562
G1 X167.602 Y209.463 E2.62187 ; infill
M106 S255 ; enable fan
G1 Z20.600 F1800.000 ; move to next layer (3)
G1 X158.071 Y214.182 F1800.000 ; move to first external small perimeter point
G1 F600.000
G1 X157.933 Y213.982 E2.62275 ; external small perimeter
G1 X157.777 Y213.680 E2.62398 ; external small perimeter
G1 X157.648 Y213.328 E2.62533 ; external small perimeter
G1 X157.552 Y212.932 E2.62680 ; external small perimeter
G1 X157.499 Y212.542 E2.62822 ; external small perimeter
G1 X157.484 Y212.105 E2.62980 ; external small perimeter
G1 X157.512 Y211.669 E2.63137 ; external small perimeter
G1 X157.582 Y211.248 E2.63291 ; external small perimeter
G1 X157.688 Y210.852 E2.63439 ; external small perimeter
G1 X157.916 Y210.296 E2.63656 ; external small perimeter
G1 X158.117 Y209.949 E2.63801 ; external small perimeter
G1 X158.376 Y209.600 E2.63957 ; external small perimeter
G1 X158.693 Y209.255 E2.64126 ; external small perimeter
G1 X159.074 Y208.916 E2.64310 ; external small perimeter
G1 X159.524 Y208.586 E2.64512 ; external small perimeter
G1 X160.018 Y208.286 E2.64720 ; external small perimeter
G1 X160.608 Y207.988 E2.64959 ; external small perimeter
G1 X161.267 Y207.716 E2.65216 ; external small perimeter
G1 X161.986 Y207.477 E2.65489 ; external small perimeter
G1 X162.754 Y207.277 E2.65775 ; external small perimeter
G1 X163.540 Y207.125 E2.66064 ; external small perimeter
G1 X164.348 Y207.019 E2.66358 ; external small perimeter
G1 X165.143 Y206.963 E2.66646 ; external small perimeter
G1 X165.900 Y206.957 E2.66919 ; external small perimeter
G1 X166.598 Y206.996 E2.67171 ; external small perimeter
G1 X167.223 Y207.074 E2.67398 ; external small perimeter
G1 X167.767 Y207.182 E2.67598 ; external small perimeter
G1 X168.226 Y207.312 E2.67770 ; external small perimeter
G1 X168.600 Y207.457 E2.67915 ; external small perimeter
G1 X168.895 Y207.608 E2.68035 ; external small perimeter
G1 X169.121 Y207.760 E2.68133 ; external small perimeter
G1 X169.261 Y207.884 E2.68200 ; external small perimeter
G1 X169.432 Y208.112 E2.68303 ; external small perimeter
G1 X169.504 Y208.332 E2.68387 ; external small perimeter
