; generated by Slic3r 1.3.1-dev (Build (Unknown revision)) on 2022-12-16 at 12:27:59

; external perimeters extrusion width = 1.32mm (12.75mm^3/s)
; perimeters extrusion width = 1.26mm (12.03mm^3/s)
; infill extrusion width = 2.00mm (20.91mm^3/s)
; solid infill extrusion width = 2.00mm (41.82mm^3/s)
; top infill extrusion width = 1.26mm (18.04mm^3/s)

M107 ; disable fan
G92 E0 ; reset extrusion distance
M104 S200 ; set temperature
G28 ; home all axes
G1 Z5 F5000 ; lift nozzle

; Filament gcode

M109 S200 ; set temperature and wait for it to be reached
G21 ; set units to millimeters
G90 ; use absolute coordinates
M82 ; use absolute distances for extrusion
G92 E0 ; reset extrusion distance
G1 Z19.640 F1800.000 ; move to next layer (0)
G1 E-2.00000 F2400.00000 ; retract extruder 0
G92 E0 ; reset extrusion distance
G1 X162.599 Y196.845 F1800.000 ; move to first external small perimeter point
G1 E2.00000 F2400.00000 ; unretract extruder 0
G1 F600.000
G1 X162.937 Y196.905 E2.00065 ; external small perimeter
G1 X163.313 Y197.011 E2.00140 ; external small perimeter
G1 X163.723 Y197.171 E2.00224 ; external small perimeter
G1 X164.161 Y197.386 E2.00317 ; external small perimeter
G1 X164.605 Y197.650 E2.00415 ; external small perimeter
G1 X165.068 Y197.972 E2.00523 ; external small perimeter
G1 X165.524 Y198.340 E2.00634 ; external small perimeter
G1 X165.957 Y198.742 E2.00747 ; external small perimeter
G1 X166.356 Y199.163 E2.00858 ; external small perimeter
G1 X166.704 Y199.584 E2.00962 ; external small perimeter
G1 X167.115 Y200.175 E2.01099 ; external small perimeter
G1 X167.332 Y200.556 E2.01183 ; external small perimeter
G1 X167.499 Y200.910 E2.01257 ; external small perimeter
G1 X167.615 Y201.226 E2.01321 ; external small perimeter
G1 X167.687 Y201.500 E2.01375 ; external small perimeter
G1 X167.727 Y201.919 E2.01456 ; external small perimeter
G1 X167.682 Y202.187 E2.01507 ; external small perimeter
G1 X167.570 Y202.395 E2.01553 ; external small perimeter
G1 X167.323 Y202.635 E2.01618 ; external small perimeter
G1 X167.133 Y202.761 E2.01661 ; external small perimeter
G1 X166.890 Y202.886 E2.01714 ; external small perimeter
G1 X166.543 Y203.023 E2.01785 ; external small perimeter
G1 X166.153 Y203.135 E2.01862 ; external small perimeter
G1 X165.679 Y203.229 E2.01954 ; external small perimeter
G1 X165.156 Y203.291 E2.02055 ; external small perimeter
G1 X164.599 Y203.315 E2.02161 ; external small perimeter
G1 X164.027 Y203.300 E2.02270 ; external small perimeter
G1 X163.513 Y203.254 E2.02368 ; external small perimeter
G1 X162.963 Y203.169 E2.02474 ; external small perimeter
G1 X162.445 Y203.053 E2.02576 ; external small perimeter
G1 X161.969 Y202.911 E2.02670 ; external small perimeter
G1 X161.541 Y202.748 E2.02758 ; external small perimeter
G1 X161.147 Y202.562 E2.02841 ; external small perimeter
G1 X160.822 Y202.373 E2.02912 ; external small perimeter
G1 X160.546 Y202.178 E2.02977 ; external small perimeter
G1 X160.316 Y201.980 E2.03034 ; external small perimeter
G1 X160.130 Y201.782 E2.03086 ; external small perimeter
G1 X159.982 Y201.586 E2.03133 ; external small perimeter
G1 X159.811 Y201.274 E2.03201 ; external small perimeter
G1 X159.723 Y201.018 E2.03253 ; external small perimeter
G1 X159.663 Y200.742 E2.03306 ; external small perimeter
G1 X159.632 Y200.433 E2.03366 ; external small perimeter
G1 X159.634 Y200.093 E2.03430 ; external small perimeter
G1 X159.674 Y199.732 E2.03500 ; external small perimeter
G1 X159.752 Y199.357 E2.03573 ; external small perimeter
G1 X159.868 Y198.982 E2.03648 ; external small perimeter
G1 X160.018 Y198.616 E2.03723 ; external small perimeter
G1 X160.196 Y198.275 E2.03796 ; external small perimeter
G1 X160.394 Y197.965 E2.03866 ; external small perimeter
G1 X160.606 Y197.692 E2.03932 ; external small perimeter
G1 X160.826 Y197.459 E2.03993 ; external small perimeter
G1 X161.047 Y197.267 E2.04049 ; external small perimeter
G1 X161.265 Y197.116 E2.04100 ; external small perimeter
G1 X161.460 Y197.009 E2.04142 ; external small perimeter
G1 X161.820 Y196.880 E2.04215 ; external small perimeter
G1 X162.036 Y196.841 E2.04257 ; external small perimeter
G1 X162.420 Y196.834 E2.04330 ; external small perimeter
G1 X162.909 Y198.101 F1800.000 ; move to first infill point
G1 F600.000
G1 X161.408 Y199.602 E2.04763 ; infill
G1 X161.219 Y199.825 E2.04822 ; infill
G1 X161.017 Y200.175 E2.04905 ; infill
G1 X160.870 Y200.587 E2.04994 ; infill
G1 X160.810 Y200.955 E2.05070 ; infill
G1 X160.830 Y201.243 E2.05129 ; infill
G1 X160.854 Y201.287 E2.05139 ; infill
G1 X160.984 Y201.408 E2.05175 ; infill
G1 X161.295 Y201.605 E2.05250 ; infill
G1 X161.547 Y201.724 E2.05307 ; infill
G1 X162.029 Y201.892 E2.05411 ; infill
G1 X164.935 Y198.986 E2.06249 ; infill
G1 X165.351 Y199.362 E2.06363 ; infill
G1 X165.661 Y199.690 E2.06455 ; infill
G1 X165.918 Y200.000 E2.06537 ; infill
G1 X166.286 Y200.546 E2.06672 ; infill
G1 X164.789 Y202.044 E2.07103 ; infill
G1 Z20.840 F1800.000 ; move to next layer (1)
G1 X159.870 Y202.002 F1800.000 ; move to first external small perimeter point
G1 F600.000
G1 X159.698 Y201.775 E2.07206 ; external small perimeter
G1 X159.495 Y201.401 E2.07360 ; external small perimeter
G1 X159.395 Y201.110 E2.07471 ; external small perimeter
G1 X159.326 Y200.795 E2.07587 ; external small perimeter
G1 X159.292 Y200.448 E2.07713 ; external small perimeter
G1 X159.294 Y200.074 E2.07848 ; external small perimeter
G1 X159.338 Y199.678 E2.07991 ; external small perimeter
G1 X159.423 Y199.272 E2.08141 ; external small perimeter
G1 X159.548 Y198.867 E2.08294 ; external small perimeter
G1 X159.709 Y198.473 E2.08448 ; external small perimeter
G1 X159.901 Y198.104 E2.08598 ; external small perimeter
G1 X160.116 Y197.768 E2.08742 ; external small perimeter
G1 X160.348 Y197.470 E2.08878 ; external small perimeter
G1 X160.590 Y197.213 E2.09005 ; external small perimeter
G1 X160.838 Y196.999 E2.09123 ; external small perimeter
G1 X161.086 Y196.826 E2.09232 ; external small perimeter
G1 X161.321 Y196.698 E2.09329 ; external small perimeter
G1 X161.731 Y196.551 E2.09486 ; external small perimeter
G1 X161.996 Y196.502 E2.09583 ; external small perimeter
G1 X162.301 Y196.485 E2.09694 ; external small perimeter
G1 X162.640 Y196.507 E2.09816 ; external small perimeter
G1 X163.013 Y196.573 E2.09953 ; external small perimeter
G1 X163.421 Y196.689 E2.10106 ; external small perimeter
G1 X163.860 Y196.859 E2.10275 ; external small perimeter
G1 X164.323 Y197.087 E2.10462 ; external small perimeter
G1 X164.789 Y197.364 E2.10657 ; external small perimeter
G1 X165.273 Y197.700 E2.10870 ; external small perimeter
G1 X165.746 Y198.083 E2.11089 ; external small perimeter
G1 X166.197 Y198.500 E2.11311 ; external small perimeter
G1 X166.611 Y198.938 E2.11528 ; external small perimeter
G1 X166.975 Y199.379 E2.11734 ; external small perimeter
G1 X167.402 Y199.993 E2.12005 ; external small perimeter
G1 X167.634 Y200.399 E2.12173 ; external small perimeter
G1 X167.813 Y200.779 E2.12325 ; external small perimeter
G1 X167.940 Y201.124 E2.12457 ; external small perimeter
G1 X168.021 Y201.431 E2.12572 ; external small perimeter
G1 X168.061 Y201.700 E2.12670 ; external small perimeter
G1 X168.068 Y201.931 E2.12753 ; external small perimeter
G1 X168.047 Y202.128 E2.12825 ; external small perimeter
G1 X168.005 Y202.296 E2.12887 ; external small perimeter
G1 X167.940 Y202.447 E2.12946 ; external small perimeter
G1 X167.842 Y202.601 E2.13013 ; external small perimeter
G1 X167.698 Y202.762 E2.13090 ; external small perimeter
G1 X167.528 Y202.907 E2.13171 ; external small perimeter
G1 X167.306 Y203.054 E2.13267 ; external small perimeter
G1 X167.031 Y203.196 E2.13379 ; external small perimeter
G1 X166.653 Y203.345 E2.13525 ; external small perimeter
G1 X166.234 Y203.466 E2.13683 ; external small perimeter
G1 X165.732 Y203.566 E2.13867 ; external small perimeter
G1 X165.183 Y203.630 E2.14067 ; external small perimeter
G1 X164.602 Y203.655 E2.14276 ; external small perimeter
G1 X164.007 Y203.640 E2.14491 ; external small perimeter
G1 X163.472 Y203.592 E2.14685 ; external small perimeter
G1 X162.899 Y203.503 E2.14894 ; external small perimeter
G1 X162.359 Y203.382 E2.15094 ; external small perimeter
G1 X161.860 Y203.233 E2.15282 ; external small perimeter
G1 X161.407 Y203.061 E2.15456 ; external small perimeter
G1 X160.989 Y202.863 E2.15623 ; external small perimeter
G1 X160.638 Y202.659 E2.15770 ; external small perimeter
G1 X160.336 Y202.446 E2.15903 ; external small perimeter
G1 X159.993 Y202.133 E2.16070 ; external small perimeter
G1 X161.572 Y201.753 F1800.000 ; move to first infill point
G1 F749.462
G1 X160.397 Y200.571 E2.17253 ; infill
G1 X160.235 Y200.306 E2.17474 ; infill
G1 X160.165 Y200.045 E2.17666 ; infill
G1 X160.148 Y199.621 E2.17967 ; infill
G1 X160.176 Y199.363 E2.18152 ; infill
G1 X160.234 Y199.086 E2.18353 ; infill
G1 X160.321 Y198.802 E2.18564 ; infill
G1 X160.436 Y198.523 E2.18777 ; infill
G1 X160.569 Y198.266 E2.18983 ; infill
G1 X160.758 Y197.982 E2.19225 ; infill
G1 X165.558 Y202.782 E2.24044 ; infill
G1 X165.756 Y200.023 F1800.000 ; move to first infill point
G1 F749.462
G1 X164.689 Y198.955 E2.25116 ; infill
G1 Z22.040 F1800.000 ; move to next layer (2)
G1 X159.870 Y202.002 F1800.000 ; move to first external small perimeter point
G1 F600.000
G1 X159.698 Y201.775 E2.25219 ; external small perimeter
G1 X159.495 Y201.401 E2.25372 ; external small perimeter
G1 X159.395 Y201.110 E2.25483 ; external small perimeter
G1 X159.326 Y200.795 E2.25600 ; external small perimeter
G1 X159.292 Y200.448 E2.25726 ; external small perimeter
G1 X159.294 Y200.074 E2.25861 ; external small perimeter
G1 X159.338 Y199.678 E2.26004 ; external small perimeter
G1 X159.423 Y199.272 E2.26154 ; external small perimeter
G1 X159.548 Y198.867 E2.26307 ; external small perimeter
G1 X159.709 Y198.473 E2.26461 ; external small perimeter
G1 X159.901 Y198.104 E2.26610 ; external small perimeter
G1 X160.116 Y197.768 E2.26754 ; external small perimeter
G1 X160.348 Y197.470 E2.26891 ; external small perimeter
G1 X160.590 Y197.213 E2.27018 ; external small perimeter
G1 X160.838 Y196.999 E2.27136 ; external small perimeter
G1 X161.086 Y196.826 E2.27245 ; external small perimeter
G1 X161.321 Y196.698 E2.27342 ; external small perimeter
G1 X161.731 Y196.551 E2.27499 ; external small perimeter
G1 X161.996 Y196.502 E2.27596 ; external small perimeter
G1 X162.301 Y196.485 E2.27706 ; external small perimeter
G1 X162.640 Y196.507 E2.27829 ; external small perimeter
G1 X163.013 Y196.573 E2.27965 ; external small perimeter
G1 X163.421 Y196.689 E2.28118 ; external small perimeter
G1 X163.860 Y196.859 E2.28288 ; external small perimeter
G1 X164.323 Y197.087 E2.28474 ; external small perimeter
G1 X164.789 Y197.364 E2.28670 ; external small perimeter
G1 X165.273 Y197.700 E2.28883 ; external small perimeter
G1 X165.746 Y198.083 E2.29102 ; external small perimeter
G1 X166.197 Y198.500 E2.29324 ; external small perimeter
G1 X166.611 Y198.938 E2.29541 ; external small perimeter
G1 X166.975 Y199.379 E2.29747 ; external small perimeter
G1 X167.402 Y199.993 E2.30017 ; external small perimeter
G1 X167.634 Y200.399 E2.30186 ; external small perimeter
G1 X167.813 Y200.779 E2.30337 ; external small perimeter
G1 X167.940 Y201.124 E2.30470 ; external small perimeter
G1 X168.021 Y201.431 E2.30585 ; external small perimeter
G1 X168.061 Y201.700 E2.30683 ; external small perimeter
G1 X168.068 Y201.931 E2.30766 ; external small perimeter
G1 X168.047 Y202.128 E2.30838 ; external small perimeter
G1 X168.005 Y202.296 E2.30900 ; external small perimeter
G1 X167.940 Y202.447 E2.30959 ; external small perimeter
G1 X167.842 Y202.601 E2.31025 ; external small perimeter
G1 X167.698 Y202.762 E2.31103 ; external small perimeter
G1 X167.528 Y202.907 E2.31184 ; external small perimeter
G1 X167.306 Y203.054 E2.31280 ; external small perimeter
G1 X167.031 Y203.196 E2.31392 ; external small perimeter
G1 X166.653 Y203.345 E2.31538 ; external small perimeter
G1 X166.234 Y203.466 E2.31695 ; external small perimeter
G1 X165.732 Y203.566 E2.31880 ; external small perimeter
G1 X165.183 Y203.630 E2.32079 ; external small perimeter
G1 X164.602 Y203.655 E2.32289 ; external small perimeter
G1 X164.007 Y203.640 E2.32504 ; external small perimeter
G1 X163.472 Y203.592 E2.32698 ; external small perimeter
G1 X162.899 Y203.503 E2.32907 ; external small perimeter
G1 X162.359 Y203.382 E2.33106 ; external small perimeter
G1 X161.860 Y203.233 E2.33295 ; external small perimeter
G1 X161.407 Y203.061 E2.33469 ; external small perimeter
G1 X160.989 Y202.863 E2.33636 ; external small perimeter
G1 X160.638 Y202.659 E2.33782 ; external small perimeter
G1 X160.336 Y202.446 E2.33916 ; external small perimeter
G1 X159.993 Y202.133 E2.34083 ; external small perimeter
G1 X161.019 Y198.749 F1800.000 ; move to first infill point
G1 F841.997
G1 X162.225 Y197.561 E2.35264 ; infill
G1 X162.424 Y197.434 E2.35428 ; infill
G1 X162.627 Y197.361 E2.35579 ; infill
G1 X162.829 Y197.342 E2.35720 ; infill
G1 X163.008 Y197.353 E2.35846 ; infill
G1 X163.236 Y197.393 E2.36007 ; infill
G1 X163.513 Y197.472 E2.36208 ; infill
G1 X163.835 Y197.597 E2.36449 ; infill
G1 X164.196 Y197.774 E2.36729 ; infill
G1 X164.633 Y198.040 E2.37086 ; infill
G1 X160.734 Y201.939 E2.40931 ; infill
G1 X160.855 Y202.024 E2.41035 ; infill
G1 X161.101 Y202.168 E2.41233 ; infill
G1 X161.417 Y202.317 E2.41477 ; infill
G1 X161.771 Y202.452 E2.41741 ; infill
G1 X162.176 Y202.573 E2.42036 ; infill
G1 X162.867 Y202.711 E2.42527 ; infill
G1 X166.172 Y199.406 E2.45787 ; infill
G1 X166.402 Y199.684 E2.46039 ; infill
G1 X166.762 Y200.202 E2.46479 ; infill
G1 X166.936 Y200.506 E2.46723 ; infill
G1 X167.149 Y201.006 E2.47102 ; infill
G1 X167.208 Y201.274 E2.47294 ; infill
G1 X166.140 Y202.342 E2.48347 ; infill
M106 S255 ; enable fan
G1 Z23.240 F1800.000 ; move to next layer (3)
G1 X159.870 Y202.002 F1800.000 ; move to first external small perimeter point
G1 F600.000
G1 X159.698 Y201.775 E2.48450 ; external small perimeter
G1 X159.495 Y201.401 E2.48603 ; external small perimeter
G1 X159.395 Y201.110 E2.48714 ; external small perimeter
G1 X159.326 Y200.795 E2.48831 ; external small perimeter
G1 X159.292 Y200.448 E2.48956 ; external small perimeter
G1 X159.294 Y200.074 E2.49092 ; external small perimeter
G1 X159.338 Y199.678 E2.49235 ; external small perimeter
G1 X159.423 Y199.272 E2.49385 ; external small perimeter
G1 X159.548 Y198.867 E2.49538 ; external small perimeter
G1 X159.709 Y198.473 E2.49691 ; external small perimeter
G1 X159.901 Y198.104 E2.49841 ; external small perimeter
G1 X160.116 Y197.768 E2.49985 ; external small perimeter
G1 X160.348 Y197.470 E2.50121 ; external small perimeter
G1 X160.590 Y197.213 E2.50249 ; external small perimeter
G1 X160.838 Y196.999 E2.50367 ; external small perimeter
G1 X161.086 Y196.826 E2.50476 ; external small perimeter
G1 X161.321 Y196.698 E2.50573 ; external small perimeter
G1 X161.731 Y196.551 E2.50730 ; external small perimeter
G1 X161.996 Y196.502 E2.50827 ; external small perimeter
G1 X162.301 Y196.485 E2.50937 ; external small perimeter
G1 X162.640 Y196.507 E2.51059 ; external small perimeter
G1 X163.013 Y196.573 E2.51196 ; external small perimeter
G1 X163.421 Y196.689 E2.51349 ; external small perimeter
G1 X163.860 Y196.859 E2.51519 ; external small perimeter
G1 X164.323 Y197.087 E2.51705 ; external small perimeter
G1 X164.789 Y197.364 E2.51901 ; external small perimeter
G1 X165.273 Y197.700 E2.52113 ; external small perimeter
G1 X165.746 Y198.083 E2.52333 ; external small perimeter
G1 X166.197 Y198.500 E2.52554 ; external small perimeter
G1 X166.611 Y198.938 E2.52772 ; external small perimeter
G1 X166.975 Y199.379 E2.52978 ; external small perimeter
G1 X167.402 Y199.993 E2.53248 ; external small perimeter
G1 X167.634 Y200.399 E2.53417 ; external small perimeter
G1 X167.813 Y200.779 E2.53568 ; external small perimeter
G1 X167.940 Y201.124 E2.53701 ; external small perimeter
