; generated by Slic3r 1.3.1-dev (Build (Unknown revision)) on 2022-12-16 at 12:27:59

; external perimeters extrusion width = 1.32mm (12.75mm^3/s)
; perimeters extrusion width = 1.26mm (12.03mm^3/s)
; infill extrusion width = 2.00mm (20.91mm^3/s)
; solid infill extrusion width = 2.00mm (41.82mm^3/s)
; top infill extrusion width = 1.26mm (18.04mm^3/s)

M107 ; disable fan
G92 E0 ; reset extrusion distance
M104 S200 ; set temperature
G28 ; home all axes
G1 Z5 F5000 ; lift nozzle

; Filament gcode

M109 S200 ; set temperature and wait for it to be reached
G21 ; set units to millimeters
G90 ; use absolute coordinates
M82 ; use absolute distances for extrusion
G92 E0 ; reset extrusion distance
G1 Z16.260 F1800.000 ; move to next layer (0)
G1 E-2.00000 F2400.00000 ; retract extruder 0
G92 E0 ; reset extrusion distance
G1 X165.416 Y189.748 F1800.000 ; move to first external small perimeter point
G1 E2.00000 F2400.00000 ; unretract extruder 0
G1 F600.000
G1 X165.668 Y189.535 E2.00079 ; external small perimeter
G1 X165.966 Y189.333 E2.00164 ; external small perimeter
G1 X166.296 Y189.152 E2.00254 ; external small perimeter
G1 X166.656 Y188.997 E2.00347 ; external small perimeter
G1 X167.028 Y188.876 E2.00441 ; external small perimeter
G1 X167.403 Y188.789 E2.00533 ; external small perimeter
G1 X167.771 Y188.739 E2.00621 ; external small perimeter
G1 X168.122 Y188.724 E2.00705 ; external small perimeter
G1 X168.452 Y188.741 E2.00783 ; external small perimeter
G1 X168.757 Y188.787 E2.00857 ; external small perimeter
G1 X169.044 Y188.861 E2.00928 ; external small perimeter
G1 X169.308 Y188.962 E2.00995 ; external small perimeter
G1 X169.572 Y189.100 E2.01066 ; external small perimeter
G1 X169.840 Y189.281 E2.01143 ; external small perimeter
G1 X170.113 Y189.511 E2.01228 ; external small perimeter
G1 X170.388 Y189.796 E2.01322 ; external small perimeter
G1 X170.659 Y190.136 E2.01426 ; external small perimeter
G1 X170.923 Y190.534 E2.01540 ; external small perimeter
G1 X171.158 Y190.960 E2.01656 ; external small perimeter
G1 X171.384 Y191.454 E2.01785 ; external small perimeter
G1 X171.579 Y191.980 E2.01919 ; external small perimeter
G1 X171.738 Y192.526 E2.02054 ; external small perimeter
G1 X171.856 Y193.073 E2.02188 ; external small perimeter
G1 X171.932 Y193.604 E2.02315 ; external small perimeter
G1 X171.967 Y194.101 E2.02434 ; external small perimeter
G1 X171.964 Y194.569 E2.02546 ; external small perimeter
G1 X171.929 Y194.967 E2.02641 ; external small perimeter
G1 X171.869 Y195.306 E2.02723 ; external small perimeter
G1 X171.791 Y195.585 E2.02792 ; external small perimeter
G1 X171.698 Y195.818 E2.02852 ; external small perimeter
G1 X171.607 Y195.982 E2.02897 ; external small perimeter
G1 X171.436 Y196.184 E2.02959 ; external small perimeter
G1 X171.325 Y196.265 E2.02992 ; external small perimeter
G1 X171.157 Y196.321 E2.03034 ; external small perimeter
G1 X170.808 Y196.356 E2.03118 ; external small perimeter
G1 X170.557 Y196.338 E2.03178 ; external small perimeter
G1 X170.255 Y196.285 E2.03251 ; external small perimeter
G1 X169.870 Y196.178 E2.03346 ; external small perimeter
G1 X169.415 Y196.008 E2.03462 ; external small perimeter
G1 X168.918 Y195.775 E2.03593 ; external small perimeter
G1 X168.396 Y195.482 E2.03735 ; external small perimeter
G1 X167.868 Y195.137 E2.03886 ; external small perimeter
G1 X167.351 Y194.749 E2.04040 ; external small perimeter
G1 X166.867 Y194.337 E2.04191 ; external small perimeter
G1 X166.426 Y193.912 E2.04337 ; external small perimeter
G1 X166.036 Y193.487 E2.04474 ; external small perimeter
G1 X165.704 Y193.072 E2.04601 ; external small perimeter
G1 X165.429 Y192.676 E2.04716 ; external small perimeter
G1 X165.212 Y192.305 E2.04819 ; external small perimeter
G1 X165.047 Y191.963 E2.04909 ; external small perimeter
G1 X164.931 Y191.654 E2.04988 ; external small perimeter
G1 X164.858 Y191.378 E2.05056 ; external small perimeter
G1 X164.821 Y191.136 E2.05114 ; external small perimeter
G1 X164.814 Y190.914 E2.05167 ; external small perimeter
G1 X164.832 Y190.728 E2.05211 ; external small perimeter
G1 X164.875 Y190.550 E2.05255 ; external small perimeter
G1 X164.948 Y190.364 E2.05303 ; external small perimeter
G1 X165.061 Y190.165 E2.05357 ; external small perimeter
G1 X165.292 Y189.879 E2.05445 ; external small perimeter
G1 E0.05445 F2400.00000 ; retract extruder 0
G92 E0 ; reset extrusion distance
G1 X167.534 Y190.362 F1800.000 ; move to first infill point
G1 E2.00000 F2400.00000 ; unretract extruder 0
G1 F600.000
G1 X166.035 Y191.861 E2.00586 ; infill
G1 X166.163 Y192.148 E2.00673 ; infill
G1 X166.499 Y192.670 E2.00845 ; infill
G1 X166.750 Y192.983 E2.00956 ; infill
G1 X167.056 Y193.316 E2.01081 ; infill
G1 X167.405 Y193.652 E2.01215 ; infill
G1 X170.113 Y190.944 E2.02275 ; infill
G1 X170.352 Y191.440 E2.02427 ; infill
G1 X170.499 Y191.835 E2.02544 ; infill
G1 X170.619 Y192.250 E2.02663 ; infill
G1 X170.709 Y192.665 E2.02780 ; infill
G1 X170.765 Y193.060 E2.02891 ; infill
G1 X170.790 Y193.427 E2.02993 ; infill
G1 X169.293 Y194.924 E2.03579 ; infill
G1 Z17.460 F1800.000 ; move to next layer (1)
G1 X171.425 Y196.590 F1800.000 ; move to first external small perimeter point
G1 F600.000
G1 X171.240 Y196.652 E2.03667 ; external small perimeter
G1 X171.045 Y196.686 E2.03756 ; external small perimeter
G1 X170.804 Y196.696 E2.03865 ; external small perimeter
G1 X170.515 Y196.676 E2.03995 ; external small perimeter
G1 X170.180 Y196.617 E2.04149 ; external small perimeter
G1 X169.765 Y196.502 E2.04343 ; external small perimeter
G1 X169.282 Y196.321 E2.04575 ; external small perimeter
G1 X168.763 Y196.077 E2.04834 ; external small perimeter
G1 X168.220 Y195.773 E2.05115 ; external small perimeter
G1 X167.673 Y195.415 E2.05409 ; external small perimeter
G1 X167.139 Y195.015 E2.05711 ; external small perimeter
G1 X166.639 Y194.589 E2.06007 ; external small perimeter
G1 X166.182 Y194.150 E2.06292 ; external small perimeter
G1 X165.778 Y193.708 E2.06562 ; external small perimeter
G1 X165.431 Y193.275 E2.06813 ; external small perimeter
G1 X165.142 Y192.859 E2.07041 ; external small perimeter
G1 X164.911 Y192.464 E2.07247 ; external small perimeter
G1 X164.734 Y192.096 E2.07431 ; external small perimeter
G1 X164.607 Y191.757 E2.07595 ; external small perimeter
G1 X164.525 Y191.447 E2.07739 ; external small perimeter
G1 X164.482 Y191.167 E2.07867 ; external small perimeter
G1 X164.474 Y190.902 E2.07987 ; external small perimeter
G1 X164.496 Y190.672 E2.08091 ; external small perimeter
G1 X164.550 Y190.447 E2.08195 ; external small perimeter
G1 X164.641 Y190.217 E2.08307 ; external small perimeter
G1 X164.776 Y189.979 E2.08430 ; external small perimeter
G1 X164.950 Y189.745 E2.08562 ; external small perimeter
G1 X165.182 Y189.500 E2.08714 ; external small perimeter
G1 X165.463 Y189.263 E2.08879 ; external small perimeter
G1 X165.788 Y189.042 E2.09057 ; external small perimeter
G1 X166.147 Y188.846 E2.09241 ; external small perimeter
G1 X166.535 Y188.679 E2.09432 ; external small perimeter
G1 X166.937 Y188.548 E2.09623 ; external small perimeter
G1 X167.342 Y188.455 E2.09810 ; external small perimeter
G1 X167.740 Y188.400 E2.09991 ; external small perimeter
G1 X168.123 Y188.383 E2.10164 ; external small perimeter
G1 X168.487 Y188.402 E2.10328 ; external small perimeter
G1 X168.825 Y188.453 E2.10482 ; external small perimeter
G1 X169.148 Y188.537 E2.10633 ; external small perimeter
G1 X169.448 Y188.651 E2.10778 ; external small perimeter
G1 X169.746 Y188.807 E2.10929 ; external small perimeter
G1 X170.046 Y189.009 E2.11092 ; external small perimeter
G1 X170.346 Y189.263 E2.11269 ; external small perimeter
G1 X170.643 Y189.571 E2.11463 ; external small perimeter
G1 X170.935 Y189.936 E2.11673 ; external small perimeter
G1 X171.214 Y190.357 E2.11901 ; external small perimeter
G1 X171.462 Y190.807 E2.12133 ; external small perimeter
G1 X171.698 Y191.324 E2.12389 ; external small perimeter
G1 X171.902 Y191.874 E2.12653 ; external small perimeter
G1 X172.067 Y192.442 E2.12920 ; external small perimeter
G1 X172.191 Y193.013 E2.13184 ; external small perimeter
G1 X172.270 Y193.568 E2.13436 ; external small perimeter
G1 X172.307 Y194.090 E2.13673 ; external small perimeter
G1 X172.304 Y194.585 E2.13896 ; external small perimeter
G1 X172.267 Y195.011 E2.14089 ; external small perimeter
G1 X172.201 Y195.382 E2.14258 ; external small perimeter
G1 X172.114 Y195.694 E2.14405 ; external small perimeter
G1 X172.005 Y195.964 E2.14536 ; external small perimeter
G1 X171.893 Y196.167 E2.14640 ; external small perimeter
G1 X171.776 Y196.325 E2.14729 ; external small perimeter
G1 X171.581 Y196.499 E2.14847 ; external small perimeter
G1 X171.452 Y194.895 F1800.000 ; move to first infill point
G1 F771.860
G1 X166.155 Y189.598 E2.20607 ; infill
G1 X165.768 Y189.837 E2.20956 ; infill
G1 X165.602 Y189.977 E2.21123 ; infill
G1 X165.480 Y190.106 E2.21260 ; infill
G1 X165.362 Y190.283 E2.21423 ; infill
G1 X165.329 Y190.414 E2.21527 ; infill
G1 X165.351 Y190.630 E2.21694 ; infill
G1 X165.478 Y191.018 E2.22008 ; infill
G1 X165.603 Y191.278 E2.22230 ; infill
G1 X165.779 Y191.578 E2.22497 ; infill
G1 X166.010 Y191.912 E2.22809 ; infill
G1 X166.298 Y192.271 E2.23163 ; infill
G1 X166.640 Y192.645 E2.23553 ; infill
G1 X167.708 Y193.713 E2.24714 ; infill
G1 X169.934 Y190.815 F1800.000 ; move to first infill point
G1 F771.860
G1 X168.867 Y189.748 E2.25874 ; infill
G1 Z18.660 F1800.000 ; move to next layer (2)
G1 X171.425 Y196.590 F1800.000 ; move to first external small perimeter point
G1 F600.000
G1 X171.240 Y196.652 E2.25962 ; external small perimeter
G1 X171.045 Y196.686 E2.26052 ; external small perimeter
G1 X170.804 Y196.696 E2.26161 ; external small perimeter
G1 X170.515 Y196.676 E2.26291 ; external small perimeter
G1 X170.180 Y196.617 E2.26445 ; external small perimeter
G1 X169.765 Y196.502 E2.26639 ; external small perimeter
G1 X169.282 Y196.321 E2.26871 ; external small perimeter
G1 X168.763 Y196.077 E2.27130 ; external small perimeter
G1 X168.220 Y195.773 E2.27411 ; external small perimeter
G1 X167.673 Y195.415 E2.27705 ; external small perimeter
G1 X167.139 Y195.015 E2.28006 ; external small perimeter
G1 X166.639 Y194.589 E2.28303 ; external small perimeter
G1 X166.182 Y194.150 E2.28588 ; external small perimeter
G1 X165.778 Y193.708 E2.28858 ; external small perimeter
G1 X165.431 Y193.275 E2.29108 ; external small perimeter
G1 X165.142 Y192.859 E2.29337 ; external small perimeter
G1 X164.911 Y192.464 E2.29543 ; external small perimeter
G1 X164.734 Y192.096 E2.29727 ; external small perimeter
G1 X164.607 Y191.757 E2.29891 ; external small perimeter
G1 X164.525 Y191.447 E2.30035 ; external small perimeter
G1 X164.482 Y191.167 E2.30163 ; external small perimeter
G1 X164.474 Y190.902 E2.30282 ; external small perimeter
G1 X164.496 Y190.672 E2.30387 ; external small perimeter
G1 X164.550 Y190.447 E2.30491 ; external small perimeter
G1 X164.641 Y190.217 E2.30603 ; external small perimeter
G1 X164.776 Y189.979 E2.30726 ; external small perimeter
G1 X164.950 Y189.745 E2.30858 ; external small perimeter
G1 X165.182 Y189.500 E2.31010 ; external small perimeter
G1 X165.463 Y189.263 E2.31175 ; external small perimeter
G1 X165.788 Y189.042 E2.31353 ; external small perimeter
G1 X166.147 Y188.846 E2.31537 ; external small perimeter
G1 X166.535 Y188.679 E2.31728 ; external small perimeter
G1 X166.937 Y188.548 E2.31918 ; external small perimeter
G1 X167.342 Y188.455 E2.32106 ; external small perimeter
G1 X167.740 Y188.400 E2.32287 ; external small perimeter
G1 X168.123 Y188.383 E2.32460 ; external small perimeter
G1 X168.487 Y188.402 E2.32624 ; external small perimeter
G1 X168.825 Y188.453 E2.32778 ; external small perimeter
G1 X169.148 Y188.537 E2.32929 ; external small perimeter
G1 X169.448 Y188.651 E2.33073 ; external small perimeter
G1 X169.746 Y188.807 E2.33225 ; external small perimeter
G1 X170.046 Y189.009 E2.33388 ; external small perimeter
G1 X170.346 Y189.263 E2.33565 ; external small perimeter
G1 X170.643 Y189.571 E2.33758 ; external small perimeter
G1 X170.935 Y189.936 E2.33969 ; external small perimeter
G1 X171.214 Y190.357 E2.34197 ; external small perimeter
G1 X171.462 Y190.807 E2.34428 ; external small perimeter
G1 X171.698 Y191.324 E2.34685 ; external small perimeter
G1 X171.902 Y191.874 E2.34949 ; external small perimeter
G1 X172.067 Y192.442 E2.35216 ; external small perimeter
G1 X172.191 Y193.013 E2.35479 ; external small perimeter
G1 X172.270 Y193.568 E2.35732 ; external small perimeter
G1 X172.307 Y194.090 E2.35968 ; external small perimeter
G1 X172.304 Y194.585 E2.36191 ; external small perimeter
G1 X172.267 Y195.011 E2.36384 ; external small perimeter
G1 X172.201 Y195.382 E2.36554 ; external small perimeter
G1 X172.114 Y195.694 E2.36700 ; external small perimeter
G1 X172.005 Y195.964 E2.36831 ; external small perimeter
G1 X171.893 Y196.167 E2.36936 ; external small perimeter
G1 X171.776 Y196.325 E2.37025 ; external small perimeter
G1 X171.581 Y196.499 E2.37143 ; external small perimeter
G1 X170.242 Y195.837 F1800.000 ; move to first infill point
G1 F889.321
G1 X171.309 Y194.769 E2.38483 ; infill
G1 X171.380 Y194.540 E2.38696 ; infill
G1 X171.451 Y193.986 E2.39192 ; infill
G1 X171.453 Y193.601 E2.39533 ; infill
G1 X171.424 Y193.181 E2.39906 ; infill
G1 X171.358 Y192.724 E2.40316 ; infill
G1 X171.255 Y192.249 E2.40747 ; infill
G1 X171.169 Y191.953 E2.41022 ; infill
G1 X168.162 Y194.960 E2.44796 ; infill
G1 X167.471 Y194.464 E2.45550 ; infill
G1 X167.036 Y194.094 E2.46057 ; infill
G1 X166.550 Y193.614 E2.46663 ; infill
G1 X170.168 Y189.997 E2.51203 ; infill
G1 X169.930 Y189.744 E2.51511 ; infill
G1 X169.741 Y189.584 E2.51731 ; infill
G1 X169.568 Y189.467 E2.51916 ; infill
G1 X169.258 Y189.327 E2.52218 ; infill
G1 X168.881 Y189.250 E2.52559 ; infill
G1 X168.652 Y189.239 E2.52763 ; infill
G1 X168.126 Y189.287 E2.53232 ; infill
G1 X167.859 Y189.348 E2.53475 ; infill
G1 X165.385 Y191.823 E2.56580 ; infill
G1 X165.332 Y191.573 E2.56806 ; infill
G1 X165.342 Y191.400 E2.56961 ; infill
G1 X165.407 Y191.272 E2.57088 ; infill
G1 X165.602 Y191.045 E2.57354 ; infill
G1 X165.979 Y190.761 E2.57772 ; infill
G1 X166.222 Y190.629 E2.58018 ; infill
G1 X166.492 Y190.512 E2.58279 ; infill
G1 X166.792 Y190.416 E2.58558 ; infill
M106 S255 ; enable fan
G1 Z19.860 F1800.000 ; move to next layer (3)
G1 X171.425 Y196.590 F1800.000 ; move to first external small perimeter point
G1 F600.000
G1 X171.240 Y196.652 E2.58646 ; external small perimeter
G1 X171.045 Y196.686 E2.58736 ; external small perimeter
G1 X170.804 Y196.696 E2.58845 ; external small perimeter
G1 X170.515 Y196.676 E2.58975 ; external small perimeter
G1 X170.180 Y196.617 E2.59128 ; external small perimeter
G1 X169.765 Y196.502 E2.59323 ; external small perimeter
G1 X169.282 Y196.321 E2.59555 ; external small perimeter
G1 X168.763 Y196.077 E2.59814 ; external small perimeter
G1 X168.220 Y195.773 E2.60094 ; external small perimeter
G1 X167.673 Y195.415 E2.60389 ; external small perimeter
G1 X167.139 Y195.015 E2.60690 ; external small perimeter
G1 X166.639 Y194.589 E2.60986 ; external small perimeter
G1 X166.182 Y194.150 E2.61272 ; external small perimeter
G1 X165.778 Y193.708 E2.61542 ; external small perimeter
G1 X165.431 Y193.275 E2.61792 ; external small perimeter
G1 X165.142 Y192.859 E2.62021 ; external small perimeter
G1 X164.911 Y192.464 E2.62227 ; external small perimeter
G1 X164.734 Y192.096 E2.62411 ; external small perimeter
G1 X164.607 Y191.757 E2.62574 ; external small perimeter
G1 X164.525 Y191.447 E2.62719 ; external small perimeter
G1 X164.482 Y191.167 E2.62847 ; external small perimeter
G1 X164.474 Y190.902 E2.62966 ; external small perimeter
G1 X164.496 Y190.672 E2.63071 ; external small perimeter
G1 X164.550 Y190.447 E2.63175 ; external small perimeter
G1 X164.641 Y190.217 E2.63286 ; external small perimeter
G1 X164.776 Y189.979 E2.63410 ; external small perimeter
G1 X164.950 Y189.745 E2.63541 ; external small perimeter
