; generated by Slic3r 1.3.1-dev (Build (Unknown revision)) on 2022-12-16 at 11:54:17

; external perimeters extrusion width = 1.32mm (12.75mm^3/s)
; perimeters extrusion width = 1.26mm (12.03mm^3/s)
; infill extrusion width = 2.00mm (20.91mm^3/s)
; solid infill extrusion width = 2.00mm (41.82mm^3/s)
; top infill extrusion width = 1.26mm (18.04mm^3/s)

M107 ; disable fan
G92 E0 ; reset extrusion distance
M104 S200 ; set temperature
G28 ; home all axes
G1 Z5 F5000 ; lift nozzle

; Filament gcode

M109 S200 ; set temperature and wait for it to be reached
G21 ; set units to millimeters
G90 ; use absolute coordinates
M82 ; use absolute distances for extrusion
G92 E0 ; reset extrusion distance
G1 Z11.190 F1800.000 ; move to next layer (0)
G1 E-2.00000 F2400.00000 ; retract extruder 0
G92 E0 ; reset extrusion distance
G1 X190.402 Y185.979 F1800.000 ; move to first external small perimeter point
G1 E2.00000 F2400.00000 ; unretract extruder 0
G1 F600.000
G1 X190.883 Y186.684 E2.00204 ; external small perimeter
G1 X191.091 Y187.057 E2.00305 ; external small perimeter
G1 X191.313 Y187.541 E2.00432 ; external small perimeter
G1 X191.541 Y188.138 E2.00584 ; external small perimeter
G1 X191.764 Y188.847 E2.00761 ; external small perimeter
G1 X191.973 Y189.655 E2.00960 ; external small perimeter
G1 X192.153 Y190.543 E2.01176 ; external small perimeter
G1 X192.296 Y191.478 E2.01402 ; external small perimeter
G1 X192.391 Y192.408 E2.01624 ; external small perimeter
G1 X192.436 Y193.321 E2.01842 ; external small perimeter
G1 X192.429 Y194.171 E2.02045 ; external small perimeter
G1 X192.383 Y194.851 E2.02207 ; external small perimeter
G1 X192.306 Y195.445 E2.02350 ; external small perimeter
G1 X192.194 Y195.990 E2.02482 ; external small perimeter
G1 X192.074 Y196.402 E2.02585 ; external small perimeter
G1 X191.943 Y196.734 E2.02670 ; external small perimeter
G1 X191.810 Y196.990 E2.02738 ; external small perimeter
G1 X191.681 Y197.181 E2.02793 ; external small perimeter
G1 X191.563 Y197.313 E2.02835 ; external small perimeter
G1 X191.407 Y197.443 E2.02884 ; external small perimeter
G1 X191.252 Y197.512 E2.02924 ; external small perimeter
G1 X190.920 Y197.573 E2.03005 ; external small perimeter
G1 X190.688 Y197.571 E2.03060 ; external small perimeter
G1 X190.409 Y197.535 E2.03127 ; external small perimeter
G1 X190.064 Y197.451 E2.03212 ; external small perimeter
G1 X189.695 Y197.322 E2.03305 ; external small perimeter
G1 X189.291 Y197.140 E2.03410 ; external small perimeter
G1 X188.867 Y196.904 E2.03526 ; external small perimeter
G1 X188.428 Y196.611 E2.03652 ; external small perimeter
G1 X188.014 Y196.283 E2.03778 ; external small perimeter
G1 X187.635 Y195.928 E2.03901 ; external small perimeter
G1 X187.310 Y195.565 E2.04017 ; external small perimeter
G1 X187.050 Y195.212 E2.04122 ; external small perimeter
G1 X186.857 Y194.883 E2.04213 ; external small perimeter
G1 X186.719 Y194.572 E2.04294 ; external small perimeter
G1 X186.620 Y194.261 E2.04372 ; external small perimeter
G1 X186.555 Y193.934 E2.04451 ; external small perimeter
G1 X186.525 Y193.598 E2.04531 ; external small perimeter
G1 X186.529 Y193.240 E2.04617 ; external small perimeter
G1 X186.572 Y192.853 E2.04710 ; external small perimeter
G1 X186.657 Y192.431 E2.04812 ; external small perimeter
G1 X186.790 Y191.969 E2.04927 ; external small perimeter
G1 X186.977 Y191.460 E2.05056 ; external small perimeter
G1 X187.228 Y190.897 E2.05203 ; external small perimeter
G1 X187.550 Y190.269 E2.05371 ; external small perimeter
G1 X187.956 Y189.564 E2.05565 ; external small perimeter
G1 X188.570 Y188.591 E2.05839 ; external small perimeter
G1 X189.528 Y187.166 E2.06248 ; external small perimeter
G1 X190.295 Y186.123 E2.06557 ; external small perimeter
G1 E0.06557 F2400.00000 ; retract extruder 0
G92 E0 ; reset extrusion distance
G1 X190.788 Y189.120 F1800.000 ; move to first infill point
G1 E2.00000 F2400.00000 ; unretract extruder 0
G1 F600.000
G1 X189.291 Y190.617 E2.00549 ; infill
G1 X188.856 Y191.306 E2.00760 ; infill
G1 X188.492 Y191.938 E2.00949 ; infill
G1 X188.216 Y192.477 E2.01105 ; infill
G1 X188.013 Y192.933 E2.01235 ; infill
G1 X187.871 Y193.318 E2.01341 ; infill
G1 X187.727 Y193.897 E2.01496 ; infill
G1 X187.702 Y194.273 E2.01593 ; infill
G1 X187.738 Y194.528 E2.01660 ; infill
G1 X187.824 Y194.752 E2.01722 ; infill
G1 X187.935 Y194.933 E2.01777 ; infill
G1 X191.205 Y191.663 E2.02975 ; infill
G1 X191.259 Y192.612 E2.03221 ; infill
G1 X191.253 Y193.350 E2.03413 ; infill
G1 X191.216 Y193.913 E2.03559 ; infill
G1 X191.155 Y194.378 E2.03680 ; infill
G1 X191.079 Y194.748 E2.03778 ; infill
G1 X189.582 Y196.246 E2.04327 ; infill
G1 Z12.390 F1800.000 ; move to next layer (1)
G1 X190.546 Y185.802 F1800.000 ; move to first external small perimeter point
G1 F600.000
G1 X190.793 Y186.000 E2.04470 ; external small perimeter
G1 X190.970 Y186.208 E2.04592 ; external small perimeter
G1 X191.173 Y186.506 E2.04755 ; external small perimeter
G1 X191.394 Y186.903 E2.04960 ; external small perimeter
G1 X191.627 Y187.409 E2.05211 ; external small perimeter
G1 X191.862 Y188.026 E2.05509 ; external small perimeter
G1 X192.091 Y188.753 E2.05853 ; external small perimeter
G1 X192.304 Y189.579 E2.06237 ; external small perimeter
G1 X192.488 Y190.483 E2.06653 ; external small perimeter
G1 X192.634 Y191.435 E2.07088 ; external small perimeter
G1 X192.730 Y192.383 E2.07517 ; external small perimeter
G1 X192.776 Y193.314 E2.07937 ; external small perimeter
G1 X192.769 Y194.184 E2.08330 ; external small perimeter
G1 X192.722 Y194.884 E2.08646 ; external small perimeter
G1 X192.642 Y195.501 E2.08927 ; external small perimeter
G1 X192.525 Y196.072 E2.09189 ; external small perimeter
G1 X192.396 Y196.512 E2.09396 ; external small perimeter
G1 X192.253 Y196.875 E2.09572 ; external small perimeter
G1 X192.103 Y197.164 E2.09719 ; external small perimeter
G1 X191.950 Y197.390 E2.09842 ; external small perimeter
G1 X191.800 Y197.558 E2.09944 ; external small perimeter
G1 X191.623 Y197.705 E2.10047 ; external small perimeter
G1 X191.367 Y197.833 E2.10177 ; external small perimeter
G1 X191.171 Y197.886 E2.10268 ; external small perimeter
G1 X190.938 Y197.914 E2.10374 ; external small perimeter
G1 X190.664 Y197.911 E2.10498 ; external small perimeter
G1 X190.347 Y197.869 E2.10642 ; external small perimeter
G1 X189.968 Y197.778 E2.10817 ; external small perimeter
G1 X189.569 Y197.638 E2.11008 ; external small perimeter
G1 X189.139 Y197.444 E2.11221 ; external small perimeter
G1 X188.689 Y197.194 E2.11453 ; external small perimeter
G1 X188.228 Y196.886 E2.11703 ; external small perimeter
G1 X187.792 Y196.540 E2.11954 ; external small perimeter
G1 X187.392 Y196.166 E2.12201 ; external small perimeter
G1 X187.046 Y195.780 E2.12435 ; external small perimeter
G1 X186.766 Y195.400 E2.12648 ; external small perimeter
G1 X186.554 Y195.038 E2.12836 ; external small perimeter
G1 X186.401 Y194.693 E2.13007 ; external small perimeter
G1 X186.291 Y194.347 E2.13171 ; external small perimeter
G1 X186.218 Y193.983 E2.13338 ; external small perimeter
G1 X186.184 Y193.611 E2.13506 ; external small perimeter
G1 X186.189 Y193.219 E2.13683 ; external small perimeter
G1 X186.235 Y192.801 E2.13873 ; external small perimeter
G1 X186.326 Y192.351 E2.14080 ; external small perimeter
G1 X186.466 Y191.863 E2.14309 ; external small perimeter
G1 X186.662 Y191.332 E2.14564 ; external small perimeter
G1 X186.921 Y190.750 E2.14851 ; external small perimeter
G1 X187.251 Y190.107 E2.15177 ; external small perimeter
G1 X187.665 Y189.388 E2.15551 ; external small perimeter
G1 X188.285 Y188.405 E2.16075 ; external small perimeter
G1 X189.250 Y186.970 E2.16855 ; external small perimeter
G1 X189.827 Y186.187 E2.17294 ; external small perimeter
G1 X190.031 Y185.964 E2.17430 ; external small perimeter
G1 X190.322 Y185.721 E2.17601 ; external small perimeter
G1 X190.377 Y185.741 E2.17627 ; external small perimeter
G1 X190.847 Y188.408 F1800.000 ; move to first infill point
G1 F1037.753
G1 X189.780 Y187.341 E2.18967 ; infill
G1 X188.603 Y189.121 E2.20861 ; infill
G1 X191.809 Y192.327 E2.24885 ; infill
G1 X191.880 Y193.021 E2.25504 ; infill
G1 X191.922 Y193.876 E2.26264 ; infill
G1 X191.916 Y194.666 E2.26964 ; infill
G1 X191.867 Y195.342 E2.27566 ; infill
G1 X187.547 Y191.022 E2.32987 ; infill
G1 X187.252 Y191.762 E2.33693 ; infill
G1 X187.141 Y192.146 E2.34048 ; infill
G1 X187.074 Y192.480 E2.34350 ; infill
G1 X187.042 Y192.770 E2.34610 ; infill
G1 X187.039 Y193.024 E2.34835 ; infill
G1 X187.059 Y193.250 E2.35036 ; infill
G1 X187.135 Y193.567 E2.35325 ; infill
G1 X190.312 Y196.744 E2.39313 ; infill
G1 X189.947 Y196.543 E2.39683 ; infill
G1 X189.579 Y196.297 E2.40075 ; infill
G1 X189.232 Y196.022 E2.40468 ; infill
G1 X188.918 Y195.728 E2.40850 ; infill
G1 X188.657 Y195.437 E2.41197 ; infill
G1 X188.460 Y195.169 E2.41492 ; infill
G1 X188.325 Y194.938 E2.41730 ; infill
G1 X188.202 Y194.634 E2.42021 ; infill
G1 Z13.590 F1800.000 ; move to next layer (2)
G1 X190.546 Y185.802 F1800.000 ; move to first external small perimeter point
G1 F600.000
G1 X190.793 Y186.000 E2.42163 ; external small perimeter
G1 X190.970 Y186.208 E2.42286 ; external small perimeter
G1 X191.173 Y186.506 E2.42449 ; external small perimeter
G1 X191.394 Y186.903 E2.42654 ; external small perimeter
G1 X191.627 Y187.409 E2.42905 ; external small perimeter
G1 X191.862 Y188.026 E2.43203 ; external small perimeter
G1 X192.091 Y188.753 E2.43547 ; external small perimeter
G1 X192.304 Y189.579 E2.43931 ; external small perimeter
G1 X192.488 Y190.483 E2.44347 ; external small perimeter
G1 X192.634 Y191.435 E2.44781 ; external small perimeter
G1 X192.730 Y192.383 E2.45211 ; external small perimeter
G1 X192.776 Y193.314 E2.45631 ; external small perimeter
G1 X192.769 Y194.184 E2.46024 ; external small perimeter
G1 X192.722 Y194.884 E2.46340 ; external small perimeter
G1 X192.642 Y195.501 E2.46621 ; external small perimeter
G1 X192.525 Y196.072 E2.46883 ; external small perimeter
G1 X192.396 Y196.512 E2.47090 ; external small perimeter
G1 X192.253 Y196.875 E2.47266 ; external small perimeter
G1 X192.103 Y197.164 E2.47413 ; external small perimeter
G1 X191.950 Y197.390 E2.47536 ; external small perimeter
G1 X191.800 Y197.558 E2.47638 ; external small perimeter
G1 X191.623 Y197.705 E2.47741 ; external small perimeter
G1 X191.367 Y197.833 E2.47870 ; external small perimeter
G1 X191.171 Y197.886 E2.47962 ; external small perimeter
G1 X190.938 Y197.914 E2.48068 ; external small perimeter
G1 X190.664 Y197.911 E2.48191 ; external small perimeter
G1 X190.347 Y197.869 E2.48335 ; external small perimeter
G1 X189.968 Y197.778 E2.48511 ; external small perimeter
G1 X189.569 Y197.638 E2.48702 ; external small perimeter
G1 X189.139 Y197.444 E2.48915 ; external small perimeter
G1 X188.689 Y197.194 E2.49147 ; external small perimeter
G1 X188.228 Y196.886 E2.49397 ; external small perimeter
G1 X187.792 Y196.540 E2.49648 ; external small perimeter
G1 X187.392 Y196.166 E2.49895 ; external small perimeter
G1 X187.046 Y195.780 E2.50129 ; external small perimeter
G1 X186.766 Y195.400 E2.50342 ; external small perimeter
G1 X186.554 Y195.038 E2.50530 ; external small perimeter
G1 X186.401 Y194.693 E2.50701 ; external small perimeter
G1 X186.291 Y194.347 E2.50865 ; external small perimeter
G1 X186.218 Y193.983 E2.51032 ; external small perimeter
G1 X186.184 Y193.611 E2.51200 ; external small perimeter
G1 X186.189 Y193.219 E2.51377 ; external small perimeter
G1 X186.235 Y192.801 E2.51567 ; external small perimeter
G1 X186.326 Y192.351 E2.51774 ; external small perimeter
G1 X186.466 Y191.863 E2.52003 ; external small perimeter
G1 X186.662 Y191.332 E2.52258 ; external small perimeter
G1 X186.921 Y190.750 E2.52545 ; external small perimeter
G1 X187.251 Y190.107 E2.52871 ; external small perimeter
G1 X187.665 Y189.388 E2.53245 ; external small perimeter
G1 X188.285 Y188.405 E2.53769 ; external small perimeter
G1 X189.250 Y186.970 E2.54549 ; external small perimeter
G1 X189.827 Y186.187 E2.54988 ; external small perimeter
G1 X190.031 Y185.964 E2.55124 ; external small perimeter
G1 X190.322 Y185.721 E2.55295 ; external small perimeter
G1 X190.377 Y185.741 E2.55321 ; external small perimeter
G1 X189.874 Y188.640 F1800.000 ; move to first infill point
G1 F1009.752
G1 X189.780 Y188.408 E2.55543 ; infill
G1 X189.112 Y189.401 E2.56605 ; infill
G1 X190.941 Y187.572 E2.58901 ; infill
G1 X191.085 Y187.949 E2.59258 ; infill
G1 X191.291 Y188.601 E2.59866 ; infill
G1 X191.485 Y189.357 E2.60558 ; infill
G1 X191.592 Y189.879 E2.61031 ; infill
G1 X187.075 Y194.396 E2.66700 ; infill
G1 X187.166 Y194.733 E2.67010 ; infill
G1 X187.257 Y194.938 E2.67209 ; infill
G1 X187.392 Y195.169 E2.67447 ; infill
G1 X187.590 Y195.437 E2.67742 ; infill
G1 X187.851 Y195.728 E2.68089 ; infill
G1 X188.299 Y196.129 E2.68622 ; infill
G1 X191.908 Y192.520 E2.73151 ; infill
G1 X191.916 Y193.598 E2.74108 ; infill
G1 X191.874 Y194.214 E2.74656 ; infill
G1 X191.806 Y194.738 E2.75125 ; infill
G1 X191.711 Y195.203 E2.75546 ; infill
G1 X191.616 Y195.528 E2.75847 ; infill
G1 X191.522 Y195.765 E2.76073 ; infill
G1 X191.394 Y195.991 E2.76303 ; infill
G1 X190.326 Y197.059 E2.77644 ; infill
M106 S255 ; enable fan
G1 Z14.790 F1800.000 ; move to next layer (3)
G1 X190.546 Y185.802 F1800.000 ; move to first external small perimeter point
G1 F600.000
G1 X190.793 Y186.000 E2.77786 ; external small perimeter
G1 X190.970 Y186.208 E2.77909 ; external small perimeter
G1 X191.173 Y186.506 E2.78072 ; external small perimeter
G1 X191.394 Y186.903 E2.78277 ; external small perimeter
G1 X191.627 Y187.409 E2.78528 ; external small perimeter
G1 X191.862 Y188.026 E2.78826 ; external small perimeter
G1 X192.091 Y188.753 E2.79170 ; external small perimeter
G1 X192.304 Y189.579 E2.79554 ; external small perimeter
G1 X192.488 Y190.483 E2.79970 ; external small perimeter
G1 X192.634 Y191.435 E2.80405 ; external small perimeter
G1 X192.730 Y192.383 E2.80834 ; external small perimeter
G1 X192.776 Y193.314 E2.81254 ; external small perimeter
G1 X192.769 Y194.184 E2.81647 ; external small perimeter
G1 X192.722 Y194.884 E2.81963 ; external small perimeter
G1 X192.642 Y195.501 E2.82244 ; external small perimeter
G1 X192.525 Y196.072 E2.82506 ; external small perimeter
G1 X192.396 Y196.512 E2.82713 ; external small perimeter
G1 X192.253 Y196.875 E2.82889 ; external small perimeter
G1 X192.103 Y197.164 E2.83036 ; external small perimeter
G1 X191.950 Y197.390 E2.83159 ; external small perimeter
G1 X191.800 Y197.558 E2.83261 ; external small perimeter
G1 X191.623 Y197.705 E2.83364 ; external small perimeter
G1 X191.367 Y197.833 E2.83494 ; external small perimeter
G1 X191.171 Y197.886 E2.83585 ; external small perimeter
G1 X190.938 Y197.914 E2.83691 ; external small perimeter
G1 X190.664 Y197.911 E2.83814 ; external small perimeter
G1 X190.347 Y197.869 E2.83959 ; external small perimeter
G1 X189.968 Y197.778 E2.84134 ; external small perimeter
G1 X189.569 Y197.638 E2.84325 ; external small perimeter
G1 X189.139 Y197.444 E2.84538 ; external small perimeter
G1 X188.689 Y197.194 E2.84770 ; external small perimeter
G1 X188.228 Y196.886 E2.85020 ; external small perimeter
G1 X187.792 Y196.540 E2.85271 ; external small perimeter
G1 X187.392 Y196.166 E2.85518 ; external small perimeter
G1 X187.046 Y195.780 E2.85752 ; external small perimeter
G1 X186.766 Y195.400 E2.85965 ; external small perimeter
G1 X186.554 Y195.038 E2.86153 ; external small perimeter
G1 X186.401 Y194.693 E2.86324 ; external small perimeter
G1 X186.291 Y194.347 E2.86488 ; external small perimeter
G1 X186.218 Y193.983 E2.86655 ; external small perimeter
G1 X186.184 Y193.611 E2.86823 ; external small perimeter
G1 X186.189 Y193.219 E2.87000 ; external small perimeter
G1 X186.235 Y192.801 E2.87190 ; external small perimeter
G1 X186.326 Y192.351 E2.87397 ; external small perimeter
G1 X186.466 Y191.863 E2.87626 ; external small perimeter
G1 X186.662 Y191.332 E2.87881 ; external small perimeter
