; generated by Slic3r 1.3.1-dev (Build (Unknown revision)) on 2022-12-16 at 12:27:58

; external perimeters extrusion width = 1.32mm (12.75mm^3/s)
; perimeters extrusion width = 1.26mm (12.03mm^3/s)
; infill extrusion width = 2.00mm (20.91mm^3/s)
; solid infill extrusion width = 2.00mm (41.82mm^3/s)
; top infill extrusion width = 1.26mm (18.04mm^3/s)

M107 ; disable fan
G92 E0 ; reset extrusion distance
M104 S200 ; set temperature
G28 ; home all axes
G1 Z5 F5000 ; lift nozzle

; Filament gcode

M109 S200 ; set temperature and wait for it to be reached
G21 ; set units to millimeters
G90 ; use absolute coordinates
M82 ; use absolute distances for extrusion
G92 E0 ; reset extrusion distance
G1 Z10.200 F1800.000 ; move to next layer (0)
G1 E-2.00000 F2400.00000 ; retract extruder 0
G92 E0 ; reset extrusion distance
G1 X173.936 Y186.629 F1800.000 ; move to first external perimeter point
G1 E2.00000 F2400.00000 ; unretract extruder 0
G1 F600.000
G1 X175.172 Y190.840 E2.00816 ; external perimeter
G1 X176.034 Y194.463 E2.01508 ; external perimeter
G1 X176.607 Y197.840 E2.02144 ; external perimeter
G1 X176.847 Y200.140 E2.02574 ; external perimeter
G1 X176.940 Y202.956 E2.03098 ; external perimeter
G1 X176.789 Y205.486 E2.03569 ; external perimeter
G1 X176.408 Y207.764 E2.03998 ; external perimeter
G1 X176.033 Y209.147 E2.04264 ; external perimeter
G1 X175.310 Y210.992 E2.04633 ; external perimeter
G1 X174.380 Y212.633 E2.04983 ; external perimeter
G1 X173.221 Y214.088 E2.05329 ; external perimeter
G1 X172.803 Y214.514 E2.05440 ; external perimeter
G1 X172.423 Y218.901 E2.06258 ; external perimeter
G1 X172.525 Y220.657 E2.06585 ; external perimeter
G1 X172.863 Y222.141 E2.06868 ; external perimeter
G1 X173.311 Y223.226 E2.07086 ; external perimeter
G1 X173.938 Y224.242 E2.07308 ; external perimeter
G1 X174.747 Y225.170 E2.07537 ; external perimeter
G1 X175.712 Y225.981 E2.07771 ; external perimeter
G1 X176.970 Y226.766 E2.08047 ; external perimeter
G1 X178.531 Y227.487 E2.08366 ; external perimeter
G1 X180.456 Y228.145 E2.08745 ; external perimeter
G1 X182.145 Y228.566 E2.09068 ; external perimeter
G1 X187.766 Y225.566 E2.10252 ; external perimeter
G1 X190.230 Y223.986 E2.10796 ; external perimeter
G1 X192.198 Y222.459 E2.11259 ; external perimeter
G1 X193.926 Y220.786 E2.11706 ; external perimeter
G1 X195.527 Y218.843 E2.12174 ; external perimeter
G1 X196.525 Y216.552 E2.12639 ; external perimeter
G1 X196.900 Y215.065 E2.12924 ; external perimeter
G1 X197.022 Y213.542 E2.13208 ; external perimeter
G1 X196.895 Y211.992 E2.13497 ; external perimeter
G1 X196.502 Y210.362 E2.13808 ; external perimeter
G1 X195.944 Y208.786 E2.14119 ; external perimeter
G1 X199.458 Y207.325 E2.14826 ; external perimeter
G1 X202.002 Y206.589 E2.15318 ; external perimeter
G1 X204.323 Y206.236 E2.15755 ; external perimeter
G1 X206.448 Y206.216 E2.16150 ; external perimeter
G1 X209.013 Y206.548 E2.16630 ; external perimeter
G1 X208.942 Y209.718 E2.17220 ; external perimeter
G1 X208.638 Y212.186 E2.17682 ; external perimeter
G1 X208.093 Y214.568 E2.18136 ; external perimeter
G1 X207.301 Y216.900 E2.18594 ; external perimeter
G1 X206.252 Y219.176 E2.19060 ; external perimeter
G1 X205.024 Y221.257 E2.19509 ; external perimeter
G1 X203.114 Y223.875 E2.20111 ; external perimeter
G1 X201.135 Y225.793 E2.20623 ; external perimeter
G1 X199.148 Y227.413 E2.21100 ; external perimeter
G1 X196.982 Y228.822 E2.21580 ; external perimeter
G1 X194.650 Y230.001 E2.22066 ; external perimeter
G1 X192.198 Y230.937 E2.22553 ; external perimeter
G1 X191.394 Y230.675 E2.22710 ; external perimeter
G1 X188.719 Y229.982 E2.23224 ; external perimeter
G1 X188.642 Y231.779 E2.23558 ; external perimeter
G1 X186.545 Y231.977 E2.23950 ; external perimeter
G1 X183.831 Y232.000 E2.24454 ; external perimeter
G1 X181.117 Y231.712 E2.24962 ; external perimeter
G1 X178.454 Y231.119 E2.25469 ; external perimeter
G1 X175.875 Y230.227 E2.25976 ; external perimeter
G1 X173.414 Y229.049 E2.26483 ; external perimeter
G1 X171.103 Y227.598 E2.26990 ; external perimeter
G1 X168.972 Y225.895 E2.27497 ; external perimeter
G1 X167.047 Y223.961 E2.28004 ; external perimeter
G1 X165.355 Y221.823 E2.28511 ; external perimeter
G1 X163.205 Y218.384 E2.29265 ; external perimeter
G1 X163.277 Y218.372 E2.29278 ; external perimeter
G1 X162.108 Y215.257 E2.29897 ; external perimeter
G1 X161.426 Y212.569 E2.30412 ; external perimeter
G1 X161.057 Y209.790 E2.30933 ; external perimeter
G1 X161.020 Y206.933 E2.31464 ; external perimeter
G1 X161.293 Y204.228 E2.31969 ; external perimeter
G1 X161.894 Y201.504 E2.32488 ; external perimeter
G1 X162.837 Y198.802 E2.33020 ; external perimeter
G1 X164.016 Y196.357 E2.33524 ; external perimeter
G1 X165.511 Y194.003 E2.34042 ; external perimeter
G1 X167.268 Y191.838 E2.34561 ; external perimeter
G1 X169.264 Y189.891 E2.35079 ; external perimeter
G1 X171.466 Y188.195 E2.35595 ; external perimeter
G1 X173.784 Y186.725 E2.36106 ; external perimeter
G1 E0.36106 F2400.00000 ; retract extruder 0
G92 E0 ; reset extrusion distance
G1 X176.717 Y185.434 F1800.000 ; move to first external perimeter point
G1 E2.00000 F2400.00000 ; unretract extruder 0
G1 F600.000
G1 X179.292 Y184.706 E2.00497 ; external perimeter
G1 X181.791 Y184.232 E2.00970 ; external perimeter
G1 X184.348 Y184.026 E2.01447 ; external perimeter
G1 X186.913 Y184.094 E2.01924 ; external perimeter
G1 X189.456 Y184.435 E2.02401 ; external perimeter
G1 X191.915 Y185.037 E2.02871 ; external perimeter
G1 X193.885 Y185.697 E2.03257 ; external perimeter
G1 X194.157 Y188.093 E2.03705 ; external perimeter
G1 X194.211 Y190.411 E2.04136 ; external perimeter
G1 X193.998 Y192.440 E2.04515 ; external perimeter
G1 X193.612 Y193.994 E2.04813 ; external perimeter
G1 X193.066 Y195.306 E2.05077 ; external perimeter
G1 X192.385 Y196.408 E2.05318 ; external perimeter
G1 X191.683 Y197.236 E2.05520 ; external perimeter
G1 X190.845 Y198.020 E2.05733 ; external perimeter
G1 X190.066 Y197.252 E2.05936 ; external perimeter
G1 X189.650 Y196.921 E2.06035 ; external perimeter
G1 X189.210 Y196.677 E2.06129 ; external perimeter
G1 X188.734 Y196.510 E2.06222 ; external perimeter
G1 X188.238 Y196.423 E2.06316 ; external perimeter
G1 X187.735 Y196.420 E2.06410 ; external perimeter
G1 X187.219 Y196.504 E2.06507 ; external perimeter
G1 X186.798 Y196.628 E2.06588 ; external perimeter
G1 X185.663 Y196.888 E2.06805 ; external perimeter
G1 X184.168 Y197.067 E2.07085 ; external perimeter
G1 X182.460 Y197.111 E2.07402 ; external perimeter
G1 X179.553 Y196.944 E2.07943 ; external perimeter
G1 X179.313 Y195.499 E2.08216 ; external perimeter
G1 X178.706 Y192.495 E2.08785 ; external perimeter
G1 X177.845 Y189.139 E2.09429 ; external perimeter
G1 X176.770 Y185.606 E2.10115 ; external perimeter
G1 E0.10115 F2400.00000 ; retract extruder 0
G92 E0 ; reset extrusion distance
G1 X197.236 Y187.251 F1800.000 ; move to first external perimeter point
G1 E2.00000 F2400.00000 ; unretract extruder 0
G1 F600.000
G1 X199.506 Y188.899 E2.00521 ; external perimeter
G1 X201.586 Y190.671 E2.01029 ; external perimeter
G1 X203.467 Y192.689 E2.01542 ; external perimeter
G1 X205.105 Y194.909 E2.02055 ; external perimeter
G1 X206.476 Y197.303 E2.02567 ; external perimeter
G1 X207.560 Y199.828 E2.03078 ; external perimeter
G1 X208.657 Y203.367 E2.03767 ; external perimeter
G1 X206.583 Y203.190 E2.04153 ; external perimeter
G1 X205.900 Y203.162 E2.04280 ; external perimeter
G1 X204.872 Y203.172 E2.04472 ; external perimeter
G1 X203.845 Y203.241 E2.04663 ; external perimeter
G1 X201.870 Y203.526 E2.05034 ; external perimeter
G1 X200.644 Y203.785 E2.05266 ; external perimeter
G1 X199.848 Y202.584 E2.05534 ; external perimeter
G1 X198.961 Y201.356 E2.05816 ; external perimeter
G1 X198.643 Y200.946 E2.05912 ; external perimeter
G1 X197.605 Y199.688 E2.06215 ; external perimeter
G1 X196.450 Y198.412 E2.06535 ; external perimeter
G1 X195.447 Y197.366 E2.06805 ; external perimeter
G1 X196.233 Y195.631 E2.07159 ; external perimeter
G1 X196.710 Y194.185 E2.07442 ; external perimeter
G1 X197.052 Y192.540 E2.07754 ; external perimeter
G1 X197.145 Y191.806 E2.07892 ; external perimeter
G1 X197.250 Y189.830 E2.08259 ; external perimeter
G1 X197.237 Y187.431 E2.08705 ; external perimeter
G1 E0.08705 F2400.00000 ; retract extruder 0
G92 E0 ; reset extrusion distance
G1 X179.559 Y202.596 F1800.000 ; move to first external perimeter point
G1 E2.00000 F2400.00000 ; unretract extruder 0
G1 F600.000
G1 X183.129 Y202.710 E2.00664 ; external perimeter
G1 X184.258 Y202.672 E2.00874 ; external perimeter
G1 X185.413 Y202.576 E2.01089 ; external perimeter
G1 X186.810 Y202.371 E2.01352 ; external perimeter
G1 X187.337 Y202.272 E2.01451 ; external perimeter
G1 X189.097 Y203.942 E2.01902 ; external perimeter
G1 X190.741 Y205.701 E2.02350 ; external perimeter
G1 X191.825 Y207.050 E2.02671 ; external perimeter
G1 X192.372 Y207.822 E2.02847 ; external perimeter
G1 X192.882 Y208.623 E2.03024 ; external perimeter
G1 X193.600 Y209.980 E2.03309 ; external perimeter
G1 X193.817 Y210.490 E2.03412 ; external perimeter
G1 X194.198 Y211.637 E2.03637 ; external perimeter
G1 X194.392 Y212.589 E2.03817 ; external perimeter
G1 X194.458 Y213.351 E2.03959 ; external perimeter
G1 X194.433 Y214.167 E2.04111 ; external perimeter
G1 X194.314 Y214.940 E2.04257 ; external perimeter
G1 X194.100 Y215.716 E2.04406 ; external perimeter
G1 X193.779 Y216.512 E2.04566 ; external perimeter
G1 X193.225 Y217.506 E2.04777 ; external perimeter
G1 X192.641 Y218.326 E2.04964 ; external perimeter
G1 X191.713 Y219.392 E2.05227 ; external perimeter
G1 X191.036 Y220.054 E2.05403 ; external perimeter
G1 X190.331 Y220.673 E2.05577 ; external perimeter
G1 X188.825 Y221.833 E2.05930 ; external perimeter
G1 X186.898 Y223.093 E2.06358 ; external perimeter
G1 X184.281 Y224.544 E2.06915 ; external perimeter
G1 X181.629 Y225.820 E2.07462 ; external perimeter
G1 X179.901 Y225.260 E2.07799 ; external perimeter
G1 X178.511 Y224.673 E2.08080 ; external perimeter
G1 X177.570 Y224.144 E2.08280 ; external perimeter
G1 X176.911 Y223.666 E2.08431 ; external perimeter
G1 X176.424 Y223.218 E2.08555 ; external perimeter
G1 X176.033 Y222.762 E2.08666 ; external perimeter
G1 X175.719 Y222.288 E2.08772 ; external perimeter
G1 X175.478 Y221.809 E2.08871 ; external perimeter
G1 X175.285 Y221.290 E2.08974 ; external perimeter
G1 X175.137 Y220.713 E2.09085 ; external perimeter
G1 X175.037 Y220.072 E2.09206 ; external perimeter
G1 X174.989 Y219.278 E2.09353 ; external perimeter
G1 X175.028 Y218.202 E2.09554 ; external perimeter
G1 X175.221 Y216.755 E2.09825 ; external perimeter
G1 X175.513 Y215.395 E2.10083 ; external perimeter
G1 X176.302 Y214.365 E2.10325 ; external perimeter
G1 X177.242 Y212.853 E2.10655 ; external perimeter
G1 X178.030 Y211.179 E2.10999 ; external perimeter
G1 X178.635 Y209.412 E2.11346 ; external perimeter
G1 X179.116 Y207.321 E2.11745 ; external perimeter
G1 X179.393 Y205.269 E2.12130 ; external perimeter
G1 X179.548 Y202.776 E2.12594 ; external perimeter
G1 E0.12594 F2400.00000 ; retract extruder 0
G92 E0 ; reset extrusion distance
G1 X159.122 Y181.505 F1800.000 ; move to first external perimeter point
G1 E2.00000 F2400.00000 ; unretract extruder 0
G1 F600.000
G1 X160.586 Y180.086 E2.00379 ; external perimeter
G1 X163.588 Y177.725 E2.01089 ; external perimeter
G1 X166.817 Y175.684 E2.01799 ; external perimeter
G1 X170.238 Y173.986 E2.02509 ; external perimeter
G1 X173.816 Y172.649 E2.03219 ; external perimeter
G1 X177.513 Y171.687 E2.03928 ; external perimeter
G1 X181.288 Y171.110 E2.04638 ; external perimeter
G1 X185.103 Y170.924 E2.05348 ; external perimeter
G1 X188.917 Y171.131 E2.06058 ; external perimeter
G1 X192.690 Y171.730 E2.06768 ; external perimeter
G1 X196.381 Y172.713 E2.07478 ; external perimeter
G1 X199.951 Y174.071 E2.08188 ; external perimeter
G1 X203.362 Y175.789 E2.08898 ; external perimeter
G1 X206.579 Y177.848 E2.09608 ; external perimeter
G1 X209.568 Y180.227 E2.10317 ; external perimeter
G1 X212.295 Y182.900 E2.11027 ; external perimeter
G1 X214.734 Y185.840 E2.11737 ; external perimeter
G1 X216.857 Y189.016 E2.12447 ; external perimeter
G1 X218.642 Y192.392 E2.13157 ; external perimeter
G1 X220.071 Y195.934 E2.13867 ; external perimeter
G1 X221.128 Y199.605 E2.14577 ; external perimeter
G1 X221.802 Y203.364 E2.15287 ; external perimeter
G1 X222.086 Y207.173 E2.15997 ; external perimeter
G1 X221.977 Y211.002 E2.16708 ; external perimeter
G1 X221.725 Y213.260 E2.17131 ; external perimeter
G1 X221.479 Y214.763 E2.17414 ; external perimeter
G1 X220.588 Y218.493 E2.18127 ; external perimeter
G1 X219.322 Y222.097 E2.18836 ; external perimeter
G1 X217.691 Y225.557 E2.19547 ; external perimeter
G1 X216.213 Y228.067 E2.20089 ; external perimeter
G1 X215.729 Y228.806 E2.20253 ; external perimeter
G1 X213.416 Y231.869 E2.20966 ; external perimeter
G1 X210.814 Y234.665 E2.21676 ; external perimeter
G1 X207.938 Y237.178 E2.22386 ; external perimeter
G1 X204.818 Y239.382 E2.23096 ; external perimeter
G1 X201.489 Y241.254 E2.23806 ; external perimeter
G1 X197.984 Y242.774 E2.24516 ; external perimeter
G1 X194.342 Y243.925 E2.25226 ; external perimeter
G1 X190.601 Y244.695 E2.25936 ; external perimeter
G1 X186.801 Y245.077 E2.26645 ; external perimeter
G1 X182.981 Y245.066 E2.27355 ; external perimeter
G1 X179.183 Y244.663 E2.28065 ; external perimeter
G1 X175.446 Y243.871 E2.28775 ; external perimeter
G1 X171.811 Y242.699 E2.29485 ; external perimeter
G1 X168.316 Y241.159 E2.30195 ; external perimeter
G1 X164.997 Y239.268 E2.30905 ; external perimeter
G1 X161.890 Y237.046 E2.31615 ; external perimeter
G1 X159.028 Y234.516 E2.32325 ; external perimeter
G1 X156.442 Y231.706 E2.33034 ; external perimeter
G1 X154.158 Y228.644 E2.33744 ; external perimeter
G1 X152.201 Y225.364 E2.34454 ; external perimeter
G1 X150.592 Y221.900 E2.35164 ; external perimeter
G1 X149.347 Y218.289 E2.35874 ; external perimeter
G1 X148.481 Y214.569 E2.36584 ; external perimeter
G1 X148.001 Y210.780 E2.37294 ; external perimeter
G1 X147.914 Y206.961 E2.38004 ; external perimeter
G1 X148.219 Y203.154 E2.38714 ; external perimeter
G1 X148.915 Y199.398 E2.39423 ; external perimeter
G1 X149.993 Y195.734 E2.40133 ; external perimeter
G1 X151.442 Y192.200 E2.40843 ; external perimeter
G1 X153.247 Y188.833 E2.41553 ; external perimeter
G1 X155.388 Y185.670 E2.42263 ; external perimeter
G1 X157.843 Y182.744 E2.42973 ; external perimeter
G1 X158.993 Y181.631 E2.43270 ; external perimeter
G1 E0.43270 F2400.00000 ; retract extruder 0
G92 E0 ; reset extrusion distance
G1 X171.911 Y213.996 F1800.000 ; move to first perimeter point
G1 E2.00000 F2400.00000 ; unretract extruder 0
G1 F600.000
G1 X169.789 Y217.695 E2.00398 ; perimeter
G1 E0.00398 F2400.00000 ; retract extruder 0
G92 E0 ; reset extrusion distance
G1 X172.772 Y214.875 F1800.000 ; move to first perimeter point
G1 E2.00000 F2400.00000 ; unretract extruder 0
G1 F600.000
G1 X169.876 Y216.570 E2.00630 ; perimeter
G1 X168.058 Y217.331 E2.01000 ; perimeter
G1 X167.729 Y217.437 E2.01065 ; perimeter
G1 X165.939 Y217.906 E2.01413 ; perimeter
G1 X165.509 Y217.994 E2.01495 ; perimeter
G1 X165.334 Y218.022 E2.01529 ; perimeter
G1 X165.002 Y217.869 E2.01597 ; perimeter
G1 F600.000
G1 X164.340 Y217.562 E2.01729 ; perimeter
G1 F600.000
G1 X163.678 Y217.256 E2.01855 ; perimeter
G1 F600.000
G1 X163.016 Y216.949 E2.01974 ; perimeter
G1 F600.000
G1 X162.685 Y216.796 E2.02030 ; perimeter
G1 E0.02030 F2400.00000 ; retract extruder 0
G92 E0 ; reset extrusion distance
G1 X182.061 Y228.611 F1800.000 ; move to first perimeter point
G1 E2.00000 F2400.00000 ; unretract extruder 0
G1 F600.000
G1 X188.719 Y229.978 E2.01259 ; perimeter
G1 E0.01259 F2400.00000 ; retract extruder 0
G92 E0 ; reset extrusion distance
G1 X197.151 Y219.953 F1800.000 ; move to first perimeter point
G1 E2.00000 F2400.00000 ; unretract extruder 0
G1 F600.000
G1 X197.163 Y220.002 E2.00010 ; perimeter
G1 X201.394 Y222.756 E2.00972 ; perimeter
