; generated by Slic3r 1.3.1-dev (Build (Unknown revision)) on 2022-06-22 at 13:00:03

; external perimeters extrusion width = 1.32mm (12.75mm^3/s)
; perimeters extrusion width = 1.26mm (12.03mm^3/s)
; infill extrusion width = 2.00mm (20.91mm^3/s)
; solid infill extrusion width = 2.00mm (41.82mm^3/s)
; top infill extrusion width = 1.26mm (18.04mm^3/s)

M107 ; disable fan
G92 E0 ; reset extrusion distance
M104 S200 ; set temperature
G28 ; home all axes
G1 Z5 F5000 ; lift nozzle

; Filament gcode

M109 S200 ; set temperature and wait for it to be reached
G21 ; set units to millimeters
G90 ; use absolute coordinates
M82 ; use absolute distances for extrusion
G92 E0 ; reset extrusion distance
G1 Z2.650 F1800.000 ; move to next layer (0)
G1 E-2.00000 F2400.00000 ; retract extruder 0
G92 E0 ; reset extrusion distance
G1 X167.739 Y188.602 F1800.000 ; move to first external perimeter point
G1 E2.00000 F2400.00000 ; unretract extruder 0
G1 F600.000
G1 X168.457 Y188.010 E2.00355 ; external perimeter
G1 X169.201 Y187.451 E2.00710 ; external perimeter
G1 X169.970 Y186.926 E2.01064 ; external perimeter
G1 X170.761 Y186.437 E2.01419 ; external perimeter
G1 X171.574 Y185.984 E2.01774 ; external perimeter
G1 X172.406 Y185.568 E2.02129 ; external perimeter
G1 X173.257 Y185.190 E2.02484 ; external perimeter
G1 X174.124 Y184.851 E2.02838 ; external perimeter
G1 X175.005 Y184.551 E2.03193 ; external perimeter
G1 X175.898 Y184.292 E2.03548 ; external perimeter
G1 X176.803 Y184.073 E2.03903 ; external perimeter
G1 X177.717 Y183.895 E2.04258 ; external perimeter
G1 X178.637 Y183.759 E2.04612 ; external perimeter
G1 X179.563 Y183.665 E2.04967 ; external perimeter
G1 X180.492 Y183.612 E2.05322 ; external perimeter
G1 X181.423 Y183.602 E2.05677 ; external perimeter
G1 X182.353 Y183.633 E2.06032 ; external perimeter
G1 X183.280 Y183.707 E2.06386 ; external perimeter
G1 X184.204 Y183.822 E2.06741 ; external perimeter
G1 X185.121 Y183.979 E2.07096 ; external perimeter
G1 X186.031 Y184.177 E2.07451 ; external perimeter
G1 X186.930 Y184.416 E2.07806 ; external perimeter
G1 X187.818 Y184.696 E2.08160 ; external perimeter
G1 X188.692 Y185.015 E2.08515 ; external perimeter
G1 X189.550 Y185.374 E2.08870 ; external perimeter
G1 X190.392 Y185.771 E2.09225 ; external perimeter
G1 X191.215 Y186.206 E2.09580 ; external perimeter
G1 X192.017 Y186.677 E2.09934 ; external perimeter
G1 X192.798 Y187.184 E2.10289 ; external perimeter
G1 X193.554 Y187.726 E2.10644 ; external perimeter
G1 X194.286 Y188.302 E2.10999 ; external perimeter
G1 X194.990 Y188.910 E2.11354 ; external perimeter
G1 X195.667 Y189.549 E2.11708 ; external perimeter
G1 X196.313 Y190.218 E2.12063 ; external perimeter
G1 X196.929 Y190.916 E2.12418 ; external perimeter
G1 X197.513 Y191.640 E2.12773 ; external perimeter
G1 X198.064 Y192.391 E2.13128 ; external perimeter
G1 X198.579 Y193.165 E2.13482 ; external perimeter
G1 X199.060 Y193.962 E2.13837 ; external perimeter
G1 X199.504 Y194.780 E2.14192 ; external perimeter
G1 X199.910 Y195.617 E2.14547 ; external perimeter
G1 X200.279 Y196.472 E2.14901 ; external perimeter
G1 X200.608 Y197.343 E2.15256 ; external perimeter
G1 X200.897 Y198.227 E2.15611 ; external perimeter
G1 X201.147 Y199.124 E2.15966 ; external perimeter
G1 X201.355 Y200.031 E2.16321 ; external perimeter
G1 X201.523 Y200.946 E2.16675 ; external perimeter
G1 X201.648 Y201.868 E2.17030 ; external perimeter
G1 X201.732 Y202.789 E2.17383 ; external perimeter
G1 X201.779 Y204.190 E2.17917 ; external perimeter
G1 X201.732 Y205.591 E2.18451 ; external perimeter
G1 X201.648 Y206.512 E2.18804 ; external perimeter
G1 X201.523 Y207.434 E2.19159 ; external perimeter
G1 X201.355 Y208.349 E2.19514 ; external perimeter
G1 X201.147 Y209.256 E2.19869 ; external perimeter
G1 X200.897 Y210.153 E2.20223 ; external perimeter
G1 X200.608 Y211.037 E2.20578 ; external perimeter
G1 X200.279 Y211.908 E2.20933 ; external perimeter
G1 X199.910 Y212.763 E2.21288 ; external perimeter
G1 X199.504 Y213.600 E2.21643 ; external perimeter
G1 X199.060 Y214.418 E2.21997 ; external perimeter
G1 X198.579 Y215.215 E2.22352 ; external perimeter
G1 X198.064 Y215.989 E2.22707 ; external perimeter
G1 X197.513 Y216.740 E2.23062 ; external perimeter
G1 X196.929 Y217.464 E2.23417 ; external perimeter
G1 X196.313 Y218.162 E2.23771 ; external perimeter
G1 X195.667 Y218.831 E2.24126 ; external perimeter
G1 X194.990 Y219.470 E2.24481 ; external perimeter
G1 X194.286 Y220.078 E2.24836 ; external perimeter
G1 X193.554 Y220.654 E2.25190 ; external perimeter
G1 X192.798 Y221.196 E2.25545 ; external perimeter
G1 X192.017 Y221.703 E2.25900 ; external perimeter
G1 X191.215 Y222.174 E2.26255 ; external perimeter
G1 X190.392 Y222.609 E2.26610 ; external perimeter
G1 X189.550 Y223.006 E2.26964 ; external perimeter
G1 X188.692 Y223.365 E2.27319 ; external perimeter
G1 X187.818 Y223.684 E2.27674 ; external perimeter
G1 X186.930 Y223.963 E2.28029 ; external perimeter
G1 X186.031 Y224.203 E2.28384 ; external perimeter
G1 X185.121 Y224.401 E2.28738 ; external perimeter
G1 X184.204 Y224.558 E2.29093 ; external perimeter
G1 X183.280 Y224.673 E2.29448 ; external perimeter
G1 X182.353 Y224.747 E2.29803 ; external perimeter
G1 X181.423 Y224.778 E2.30158 ; external perimeter
G1 X180.492 Y224.768 E2.30512 ; external perimeter
G1 X179.563 Y224.715 E2.30867 ; external perimeter
G1 X178.637 Y224.621 E2.31222 ; external perimeter
G1 X177.717 Y224.485 E2.31577 ; external perimeter
G1 X176.803 Y224.307 E2.31932 ; external perimeter
G1 X175.898 Y224.088 E2.32286 ; external perimeter
G1 X175.005 Y223.829 E2.32641 ; external perimeter
G1 X174.124 Y223.529 E2.32996 ; external perimeter
G1 X173.257 Y223.190 E2.33351 ; external perimeter
G1 X172.406 Y222.812 E2.33706 ; external perimeter
G1 X171.574 Y222.396 E2.34060 ; external perimeter
G1 X170.761 Y221.943 E2.34415 ; external perimeter
G1 X169.970 Y221.454 E2.34770 ; external perimeter
G1 X169.201 Y220.929 E2.35125 ; external perimeter
G1 X168.457 Y220.370 E2.35480 ; external perimeter
G1 X167.739 Y219.778 E2.35834 ; external perimeter
G1 X167.048 Y219.155 E2.36189 ; external perimeter
G1 X166.386 Y218.500 E2.36544 ; external perimeter
G1 X165.755 Y217.817 E2.36899 ; external perimeter
G1 X165.155 Y217.105 E2.37254 ; external perimeter
G1 X164.587 Y216.368 E2.37608 ; external perimeter
G1 X164.054 Y215.605 E2.37963 ; external perimeter
G1 X163.556 Y214.819 E2.38318 ; external perimeter
G1 X163.094 Y214.011 E2.38673 ; external perimeter
G1 X162.668 Y213.183 E2.39028 ; external perimeter
G1 X162.281 Y212.337 E2.39382 ; external perimeter
G1 X161.932 Y211.474 E2.39737 ; external perimeter
G1 X161.622 Y210.597 E2.40092 ; external perimeter
G1 X161.353 Y209.706 E2.40447 ; external perimeter
G1 X161.124 Y208.804 E2.40802 ; external perimeter
G1 X160.936 Y207.893 E2.41156 ; external perimeter
G1 X160.789 Y206.974 E2.41511 ; external perimeter
G1 X160.684 Y206.049 E2.41866 ; external perimeter
G1 X160.621 Y205.120 E2.42221 ; external perimeter
G1 X160.600 Y204.190 E2.42576 ; external perimeter
G1 X160.621 Y203.260 E2.42930 ; external perimeter
G1 X160.684 Y202.331 E2.43285 ; external perimeter
G1 X160.789 Y201.406 E2.43640 ; external perimeter
G1 X160.936 Y200.487 E2.43995 ; external perimeter
G1 X161.124 Y199.576 E2.44350 ; external perimeter
G1 X161.353 Y198.674 E2.44704 ; external perimeter
G1 X161.622 Y197.783 E2.45059 ; external perimeter
G1 X161.932 Y196.906 E2.45414 ; external perimeter
G1 X162.281 Y196.043 E2.45769 ; external perimeter
G1 X162.668 Y195.197 E2.46124 ; external perimeter
G1 X163.094 Y194.369 E2.46478 ; external perimeter
G1 X163.556 Y193.561 E2.46833 ; external perimeter
G1 X164.054 Y192.775 E2.47188 ; external perimeter
G1 X164.587 Y192.012 E2.47543 ; external perimeter
G1 X165.155 Y191.275 E2.47898 ; external perimeter
G1 X165.755 Y190.563 E2.48252 ; external perimeter
G1 X166.386 Y189.880 E2.48607 ; external perimeter
G1 X167.048 Y189.225 E2.48962 ; external perimeter
G1 X167.605 Y188.722 E2.49248 ; external perimeter
G1 E0.49248 F2400.00000 ; retract extruder 0
G92 E0 ; reset extrusion distance
G1 X167.036 Y191.952 F1800.000 ; move to first infill point
G1 E2.00000 F2400.00000 ; unretract extruder 0
G1 F600.000
G1 X167.020 Y191.969 E2.00009 ; infill
G1 X169.119 Y189.876 E2.01162 ; infill
G1 X169.745 Y189.311 E2.01491 ; infill
G1 X170.396 Y188.774 E2.01819 ; infill
G1 X171.071 Y188.268 E2.02147 ; infill
G1 X171.767 Y187.792 E2.02475 ; infill
G1 X172.485 Y187.348 E2.02803 ; infill
G1 X173.222 Y186.938 E2.03132 ; infill
G1 X173.976 Y186.561 E2.03460 ; infill
G1 X174.747 Y186.218 E2.03788 ; infill
G1 X175.533 Y185.911 E2.04116 ; infill
G1 X176.023 Y185.744 E2.04318 ; infill
G1 X162.740 Y199.026 E2.11626 ; infill
G1 X162.459 Y199.938 E2.11997 ; infill
G1 X162.252 Y200.756 E2.12326 ; infill
G1 X162.081 Y201.582 E2.12654 ; infill
G1 X161.925 Y202.620 E2.13062 ; infill
G1 X179.624 Y184.921 E2.22801 ; infill
G1 X180.464 Y184.835 E2.23130 ; infill
G1 X181.306 Y184.788 E2.23458 ; infill
G1 X182.532 Y184.791 E2.23935 ; infill
G1 X161.790 Y205.533 E2.35348 ; infill
G1 X161.853 Y206.624 E2.35773 ; infill
G1 X161.948 Y207.462 E2.36101 ; infill
G1 X162.043 Y208.058 E2.36336 ; infill
G1 X185.057 Y185.044 E2.49000 ; infill
G1 X185.502 Y185.120 E2.49175 ; infill
G1 X186.326 Y185.300 E2.49504 ; infill
G1 X187.310 Y185.570 E2.49900 ; infill
G1 X162.571 Y210.309 E2.63513 ; infill
G1 X162.704 Y210.746 E2.63691 ; infill
G1 X162.984 Y211.542 E2.64019 ; infill
G1 X163.311 Y212.347 E2.64357 ; infill
G1 X189.345 Y186.313 E2.78682 ; infill
G1 X190.280 Y186.745 E2.79083 ; infill
G1 X191.197 Y187.239 E2.79489 ; infill
G1 X164.240 Y214.196 E2.94322 ; infill
G1 X164.456 Y214.574 E2.94491 ; infill
G1 X164.908 Y215.286 E2.94819 ; infill
G1 X165.328 Y215.887 E2.95104 ; infill
G1 X192.885 Y188.329 E3.10268 ; infill
G1 X193.810 Y189.039 E3.10721 ; infill
G1 X194.424 Y189.569 E3.11037 ; infill
G1 X166.570 Y217.422 E3.26363 ; infill
G1 X167.022 Y217.911 E3.26622 ; infill
G1 X167.622 Y218.504 E3.26950 ; infill
G1 X167.961 Y218.810 E3.27128 ; infill
G1 X195.811 Y190.960 E3.42453 ; infill
G1 X196.206 Y191.408 E3.42685 ; infill
G1 X196.735 Y192.065 E3.43013 ; infill
G1 X197.052 Y192.497 E3.43222 ; infill
G1 X169.495 Y220.054 E3.58385 ; infill
G1 X170.270 Y220.588 E3.58751 ; infill
G1 X171.185 Y221.142 E3.59167 ; infill
G1 X198.144 Y194.183 E3.74002 ; infill
G1 X198.540 Y194.912 E3.74324 ; infill
G1 X199.067 Y196.039 E3.74808 ; infill
G1 X173.038 Y222.068 E3.89131 ; infill
G1 X174.036 Y222.469 E3.89550 ; infill
G1 X175.073 Y222.810 E3.89975 ; infill
G1 X199.813 Y198.071 E4.03587 ; infill
G1 X200.029 Y198.849 E4.03902 ; infill
G1 X200.218 Y199.671 E4.04230 ; infill
G1 X200.338 Y200.324 E4.04488 ; infill
G1 X177.322 Y223.340 E4.17153 ; infill
G1 X178.127 Y223.459 E4.17469 ; infill
G1 X178.966 Y223.545 E4.17798 ; infill
G1 X179.847 Y223.593 E4.18141 ; infill
G1 X200.582 Y202.858 E4.29550 ; infill
G1 X200.602 Y203.441 E4.29777 ; infill
G1 X200.559 Y204.722 E4.30276 ; infill
G1 X200.454 Y205.764 E4.30684 ; infill
G1 X182.765 Y223.453 E4.40417 ; infill
G1 X184.005 Y223.260 E4.40905 ; infill
G1 X184.829 Y223.080 E4.41233 ; infill
G1 X185.645 Y222.863 E4.41561 ; infill
G1 X186.358 Y222.638 E4.41853 ; infill
G1 X199.634 Y209.362 E4.49158 ; infill
G1 X199.242 Y210.438 E4.49603 ; infill
G1 X198.908 Y211.212 E4.49931 ; infill
G1 X198.540 Y211.971 E4.50260 ; infill
G1 X198.137 Y212.713 E4.50588 ; infill
G1 X197.702 Y213.435 E4.50916 ; infill
G1 X197.234 Y214.137 E4.51244 ; infill
G1 X196.735 Y214.817 E4.51573 ; infill
G1 X196.206 Y215.474 E4.51901 ; infill
G1 X195.648 Y216.107 E4.52229 ; infill
G1 X193.562 Y218.213 E4.53382 ; infill
G1 Z3.850 F1800.000 ; move to next layer (1)
G1 X167.511 Y188.349 F1800.000 ; move to first external perimeter point
G1 F600.000
G1 X168.246 Y187.742 E4.54071 ; external perimeter
G1 X169.003 Y187.174 E4.54753 ; external perimeter
G1 X169.784 Y186.641 E4.55436 ; external perimeter
G1 X170.589 Y186.144 E4.56118 ; external perimeter
G1 X171.415 Y185.683 E4.56801 ; external perimeter
G1 X172.261 Y185.260 E4.57483 ; external perimeter
G1 X173.126 Y184.876 E4.58166 ; external perimeter
G1 X174.007 Y184.531 E4.58848 ; external perimeter
G1 X174.903 Y184.227 E4.59531 ; external perimeter
G1 X175.811 Y183.963 E4.60213 ; external perimeter
G1 X176.731 Y183.741 E4.60896 ; external perimeter
G1 X177.659 Y183.560 E4.61578 ; external perimeter
G1 X178.595 Y183.422 E4.62261 ; external perimeter
G1 X179.536 Y183.326 E4.62943 ; external perimeter
G1 X180.481 Y183.272 E4.63626 ; external perimeter
G1 X181.427 Y183.262 E4.64309 ; external perimeter
G1 X182.372 Y183.294 E4.64991 ; external perimeter
G1 X183.315 Y183.368 E4.65674 ; external perimeter
G1 X184.254 Y183.486 E4.66356 ; external perimeter
G1 X185.186 Y183.645 E4.67039 ; external perimeter
G1 X186.110 Y183.847 E4.67721 ; external perimeter
G1 X187.025 Y184.090 E4.68404 ; external perimeter
G1 X187.927 Y184.374 E4.69086 ; external perimeter
G1 X188.816 Y184.699 E4.69769 ; external perimeter
G1 X189.689 Y185.063 E4.70451 ; external perimeter
G1 X190.544 Y185.467 E4.71134 ; external perimeter
G1 X191.381 Y185.909 E4.71816 ; external perimeter
G1 X192.196 Y186.388 E4.72499 ; external perimeter
G1 X192.989 Y186.903 E4.73181 ; external perimeter
G1 X193.759 Y187.454 E4.73864 ; external perimeter
G1 X194.502 Y188.039 E4.74546 ; external perimeter
G1 X195.218 Y188.657 E4.75229 ; external perimeter
G1 X195.906 Y189.307 E4.75912 ; external perimeter
G1 X196.563 Y189.987 E4.76594 ; external perimeter
G1 X197.189 Y190.696 E4.77277 ; external perimeter
G1 X197.783 Y191.433 E4.77959 ; external perimeter
G1 X198.342 Y192.196 E4.78642 ; external perimeter
G1 X198.867 Y192.983 E4.79324 ; external perimeter
G1 X199.355 Y193.793 E4.80007 ; external perimeter
G1 X199.806 Y194.625 E4.80689 ; external perimeter
G1 X200.220 Y195.476 E4.81372 ; external perimeter
G1 X200.594 Y196.345 E4.82054 ; external perimeter
G1 X200.929 Y197.229 E4.82737 ; external perimeter
G1 X201.223 Y198.129 E4.83419 ; external perimeter
G1 X201.476 Y199.040 E4.84102 ; external perimeter
G1 X201.688 Y199.962 E4.84784 ; external perimeter
G1 X201.858 Y200.892 E4.85467 ; external perimeter
G1 X201.986 Y201.830 E4.86150 ; external perimeter
G1 X202.072 Y202.772 E4.86832 ; external perimeter
G1 X202.114 Y203.717 E4.87515 ; external perimeter
G1 X202.114 Y204.663 E4.88197 ; external perimeter
G1 X202.072 Y205.608 E4.88880 ; external perimeter
G1 X201.986 Y206.550 E4.89562 ; external perimeter
G1 X201.858 Y207.488 E4.90245 ; external perimeter
G1 X201.688 Y208.418 E4.90927 ; external perimeter
G1 X201.476 Y209.340 E4.91610 ; external perimeter
G1 X201.223 Y210.251 E4.92292 ; external perimeter
G1 X200.929 Y211.151 E4.92975 ; external perimeter
G1 X200.594 Y212.035 E4.93657 ; external perimeter
G1 X200.220 Y212.904 E4.94340 ; external perimeter
G1 X199.806 Y213.755 E4.95022 ; external perimeter
G1 X199.355 Y214.587 E4.95705 ; external perimeter
G1 X198.867 Y215.397 E4.96387 ; external perimeter
G1 X198.342 Y216.184 E4.97070 ; external perimeter
G1 X197.783 Y216.947 E4.97753 ; external perimeter
G1 X197.189 Y217.684 E4.98435 ; external perimeter
G1 X196.563 Y218.393 E4.99118 ; external perimeter
G1 X195.906 Y219.073 E4.99800 ; external perimeter
G1 X195.218 Y219.723 E5.00483 ; external perimeter
G1 X194.502 Y220.341 E5.01165 ; external perimeter
G1 X193.759 Y220.926 E5.01848 ; external perimeter
G1 X192.989 Y221.477 E5.02530 ; external perimeter
G1 X192.196 Y221.992 E5.03213 ; external perimeter
G1 X191.381 Y222.471 E5.03895 ; external perimeter
G1 X190.544 Y222.913 E5.04578 ; external perimeter
G1 X189.689 Y223.317 E5.05260 ; external perimeter
G1 X188.816 Y223.681 E5.05943 ; external perimeter
G1 X187.927 Y224.006 E5.06625 ; external perimeter
G1 X187.025 Y224.290 E5.07308 ; external perimeter
G1 X186.110 Y224.533 E5.07991 ; external perimeter
G1 X185.186 Y224.735 E5.08673 ; external perimeter
G1 X184.254 Y224.894 E5.09356 ; external perimeter
G1 X183.315 Y225.012 E5.10038 ; external perimeter
