; generated by Slic3r 1.3.1-dev (Build (Unknown revision)) on 2022-12-16 at 12:27:58

; external perimeters extrusion width = 1.32mm (12.75mm^3/s)
; perimeters extrusion width = 1.26mm (12.03mm^3/s)
; infill extrusion width = 2.00mm (20.91mm^3/s)
; solid infill extrusion width = 2.00mm (41.82mm^3/s)
; top infill extrusion width = 1.26mm (18.04mm^3/s)

M107 ; disable fan
G92 E0 ; reset extrusion distance
M104 S200 ; set temperature
G28 ; home all axes
G1 Z5 F5000 ; lift nozzle

; Filament gcode

M109 S200 ; set temperature and wait for it to be reached
G21 ; set units to millimeters
G90 ; use absolute coordinates
M82 ; use absolute distances for extrusion
G92 E0 ; reset extrusion distance
G1 Z18.900 F1800.000 ; move to next layer (0)
G1 E-2.00000 F2400.00000 ; retract extruder 0
G92 E0 ; reset extrusion distance
G1 X190.982 Y171.405 F1800.000 ; move to first external perimeter point
G1 E2.00000 F2400.00000 ; unretract extruder 0
G1 F600.000
G1 X192.118 Y171.619 E2.00215 ; external perimeter
G1 X194.915 Y172.292 E2.00750 ; external perimeter
G1 X195.600 Y172.473 E2.00881 ; external perimeter
G1 X199.198 Y173.752 E2.01591 ; external perimeter
G1 X202.718 Y175.435 E2.02316 ; external perimeter
G1 X206.022 Y177.463 E2.03036 ; external perimeter
G1 X209.100 Y179.828 E2.03758 ; external perimeter
G1 X211.901 Y182.488 E2.04476 ; external perimeter
G1 X214.464 Y185.497 E2.05210 ; external perimeter
G1 X216.627 Y188.650 E2.05921 ; external perimeter
G1 X218.478 Y192.061 E2.06642 ; external perimeter
G1 X219.963 Y195.652 E2.07365 ; external perimeter
G1 X221.065 Y199.375 E2.08086 ; external perimeter
G1 X221.770 Y203.191 E2.08808 ; external perimeter
G1 X222.074 Y207.065 E2.09530 ; external perimeter
G1 X221.971 Y210.947 E2.10251 ; external perimeter
G1 X221.462 Y214.797 E2.10973 ; external perimeter
G1 X220.554 Y218.572 E2.11695 ; external perimeter
G1 X219.257 Y222.232 E2.12417 ; external perimeter
G1 X217.583 Y225.737 E2.13138 ; external perimeter
G1 X215.607 Y228.967 E2.13842 ; external perimeter
G1 X213.187 Y232.128 E2.14582 ; external perimeter
G1 X210.659 Y234.798 E2.15266 ; external perimeter
G1 X210.422 Y235.027 E2.15327 ; external perimeter
G1 X207.714 Y237.338 E2.15988 ; external perimeter
G1 X207.051 Y237.844 E2.16143 ; external perimeter
G1 X204.335 Y239.676 E2.16752 ; external perimeter
G1 X200.945 Y241.513 E2.17469 ; external perimeter
G1 X197.355 Y242.998 E2.18191 ; external perimeter
G1 X193.631 Y244.099 E2.18913 ; external perimeter
G1 X189.816 Y244.805 E2.19634 ; external perimeter
G1 X185.934 Y245.108 E2.20357 ; external perimeter
G1 X182.073 Y245.006 E2.21075 ; external perimeter
G1 X178.212 Y244.496 E2.21799 ; external perimeter
G1 X174.437 Y243.588 E2.22521 ; external perimeter
G1 X170.740 Y242.275 E2.23250 ; external perimeter
G1 X167.232 Y240.595 E2.23973 ; external perimeter
G1 X164.077 Y238.666 E2.24660 ; external perimeter
G1 X163.300 Y238.108 E2.24838 ; external perimeter
G1 X163.505 Y237.575 E2.24944 ; external perimeter
G1 X163.878 Y236.765 E2.25110 ; external perimeter
G1 X165.840 Y232.036 E2.26061 ; external perimeter
G1 X168.541 Y233.941 E2.26675 ; external perimeter
G1 X171.546 Y235.618 E2.27315 ; external perimeter
G1 X174.514 Y236.877 E2.27914 ; external perimeter
G1 X177.603 Y237.816 E2.28514 ; external perimeter
G1 X180.882 Y238.443 E2.29135 ; external perimeter
G1 X184.185 Y238.709 E2.29751 ; external perimeter
G1 X187.520 Y238.614 E2.30371 ; external perimeter
G1 X190.815 Y238.159 E2.30989 ; external perimeter
G1 X193.955 Y237.380 E2.31590 ; external perimeter
G1 X197.793 Y236.000 E2.32348 ; external perimeter
G1 X197.787 Y235.988 E2.32351 ; external perimeter
G1 X200.980 Y234.224 E2.33029 ; external perimeter
G1 X203.524 Y232.491 E2.33601 ; external perimeter
G1 X205.890 Y230.503 E2.34175 ; external perimeter
G1 X208.686 Y227.652 E2.34917 ; external perimeter
G1 X211.117 Y224.134 E2.35712 ; external perimeter
G1 X212.733 Y221.153 E2.36342 ; external perimeter
G1 X212.837 Y220.918 E2.36390 ; external perimeter
G1 X214.072 Y217.841 E2.37006 ; external perimeter
G1 X214.984 Y214.547 E2.37641 ; external perimeter
G1 X215.628 Y210.553 E2.38393 ; external perimeter
G1 X215.703 Y210.608 E2.38411 ; external perimeter
G1 X215.652 Y206.622 E2.39152 ; external perimeter
G1 X215.347 Y203.479 E2.39738 ; external perimeter
G1 X214.706 Y200.329 E2.40336 ; external perimeter
G1 X213.746 Y197.286 E2.40929 ; external perimeter
G1 X212.434 Y194.277 E2.41539 ; external perimeter
G1 X210.872 Y191.520 E2.42128 ; external perimeter
G1 X209.030 Y188.937 E2.42718 ; external perimeter
G1 X206.853 Y186.477 E2.43328 ; external perimeter
G1 X204.505 Y184.328 E2.43920 ; external perimeter
G1 X201.927 Y182.421 E2.44516 ; external perimeter
G1 X199.162 Y180.793 E2.45112 ; external perimeter
G1 X196.306 Y179.490 E2.45695 ; external perimeter
G1 X191.967 Y177.979 E2.46549 ; external perimeter
G1 X192.004 Y178.104 E2.46574 ; external perimeter
G1 X188.450 Y177.512 E2.47243 ; external perimeter
G1 X190.913 Y171.572 E2.48438 ; external perimeter
G1 E0.48438 F2400.00000 ; retract extruder 0
G92 E0 ; reset extrusion distance
G1 X192.029 Y178.108 F1800.000 ; move to first perimeter point
G1 E2.00000 F2400.00000 ; unretract extruder 0
G1 F600.000
G1 X193.202 Y182.278 E2.00801 ; perimeter
G1 X193.390 Y183.048 E2.00948 ; perimeter
G1 X193.863 Y185.343 E2.01381 ; perimeter
G1 X193.974 Y186.024 E2.01509 ; perimeter
G1 X194.211 Y188.061 E2.01888 ; perimeter
G1 X194.242 Y188.517 E2.01973 ; perimeter
G1 X194.261 Y190.507 E2.02341 ; perimeter
G1 X194.060 Y192.382 E2.02690 ; perimeter
G1 X193.629 Y194.093 E2.03016 ; perimeter
G1 X193.096 Y195.343 E2.03268 ; perimeter
G1 X192.413 Y196.441 E2.03507 ; perimeter
G1 X191.655 Y197.316 E2.03721 ; perimeter
G1 X190.866 Y197.991 E2.03913 ; perimeter
G1 X190.710 Y198.112 E2.03949 ; perimeter
G1 X189.578 Y198.795 E2.04194 ; perimeter
G1 F600.000
G1 X189.363 Y198.903 E2.04240 ; perimeter
G1 X189.303 Y198.953 E2.04255 ; perimeter
G1 F600.000
G1 X189.184 Y199.052 E2.04287 ; perimeter
G1 F600.000
G1 X189.065 Y199.150 E2.04319 ; perimeter
G1 F600.000
G1 X188.946 Y199.249 E2.04353 ; perimeter
G1 F600.000
G1 X188.827 Y199.348 E2.04389 ; perimeter
G1 F600.000
G1 X188.708 Y199.447 E2.04425 ; perimeter
G1 F600.000
G1 X188.589 Y199.546 E2.04464 ; perimeter
G1 X188.532 Y199.543 E2.04478 ; perimeter
G1 F600.000
G1 X188.418 Y199.536 E2.04505 ; perimeter
G1 F600.000
G1 X188.304 Y199.529 E2.04531 ; perimeter
G1 F600.000
G1 X188.189 Y199.523 E2.04556 ; perimeter
G1 F600.000
G1 X188.075 Y199.516 E2.04580 ; perimeter
G1 F600.000
G1 X187.897 Y199.524 E2.04615 ; perimeter
G1 F600.000
G1 X187.505 Y199.580 E2.04691 ; perimeter
G1 F600.000
G1 X186.140 Y199.878 E2.04951 ; perimeter
G1 X185.855 Y199.925 E2.05005 ; perimeter
G1 X183.631 Y200.121 E2.05422 ; perimeter
G1 X181.011 Y200.062 E2.05911 ; perimeter
G1 X178.160 Y199.763 E2.06445 ; perimeter
G1 X177.652 Y201.217 F1800.000 ; move to first perimeter point
G1 F600.000
G1 X176.960 Y204.905 E2.07053 ; perimeter
G1 F600.000
G1 X176.908 Y205.117 E2.07090 ; perimeter
G1 F600.000
G1 X176.831 Y205.428 E2.07146 ; perimeter
G1 F600.000
G1 X176.709 Y205.947 E2.07243 ; perimeter
G1 X176.494 Y207.287 E2.07490 ; perimeter
G1 X176.181 Y208.511 E2.07719 ; perimeter
G1 X175.928 Y209.365 E2.07881 ; perimeter
G1 X175.425 Y210.633 E2.08129 ; perimeter
G1 X175.069 Y211.363 E2.08277 ; perimeter
G1 X174.418 Y212.480 E2.08512 ; perimeter
G1 X173.917 Y213.161 E2.08665 ; perimeter
G1 X173.536 Y213.627 E2.08775 ; perimeter
G1 X173.399 Y213.857 E2.08823 ; perimeter
G1 F600.000
G1 X173.163 Y214.336 E2.08917 ; perimeter
G1 F600.000
G1 X172.995 Y214.839 E2.09013 ; perimeter
G1 F600.000
G1 X172.913 Y215.097 E2.09063 ; perimeter
G1 F600.000
G1 X172.769 Y215.551 E2.09157 ; perimeter
G1 F600.000
G1 X172.568 Y216.201 E2.09294 ; perimeter
G1 X172.508 Y216.217 E2.09307 ; perimeter
G1 F600.000
G1 X172.448 Y216.233 E2.09319 ; perimeter
G1 F600.000
G1 X172.388 Y216.249 E2.09330 ; perimeter
G1 F600.000
G1 X172.329 Y216.266 E2.09341 ; perimeter
G1 F600.000
G1 X172.269 Y216.282 E2.09351 ; perimeter
G1 F600.000
G1 X172.209 Y216.298 E2.09361 ; perimeter
G1 F600.000
G1 X172.149 Y216.315 E2.09370 ; perimeter
G1 F600.000
G1 X172.089 Y216.331 E2.09379 ; perimeter
G1 F600.000
G1 X172.029 Y216.347 E2.09387 ; perimeter
G1 F600.000
G1 X171.969 Y216.364 E2.09394 ; perimeter
G1 F600.000
G1 X171.909 Y216.380 E2.09401 ; perimeter
G1 F600.000
G1 X171.849 Y216.396 E2.09407 ; perimeter
G1 F600.000
G1 X171.790 Y216.412 E2.09412 ; perimeter
G1 F600.000
G1 X171.730 Y216.429 E2.09417 ; perimeter
G1 F600.000
G1 X171.670 Y216.445 E2.09421 ; perimeter
G1 F600.000
G1 X171.610 Y216.461 E2.09425 ; perimeter
G1 F600.000
G1 X171.550 Y216.478 E2.09428 ; perimeter
G1 F600.000
G1 X171.490 Y216.494 E2.09431 ; perimeter
G1 F600.000
G1 X171.460 Y216.502 E2.09432 ; perimeter
G1 X171.322 Y216.661 E2.09439 ; perimeter
G1 X172.562 Y216.661 F1800.000 ; move to first perimeter point
G1 F600.000
G1 X172.369 Y218.901 E2.09867 ; perimeter
G1 X172.376 Y219.305 E2.09944 ; perimeter
G1 X172.477 Y220.647 E2.10200 ; perimeter
G1 F600.000
G1 X172.548 Y221.029 E2.10272 ; perimeter
G1 X172.810 Y222.137 E2.10483 ; perimeter
G1 X173.265 Y223.222 E2.10701 ; perimeter
G1 X173.871 Y224.203 E2.10915 ; perimeter
G1 X174.028 Y224.401 E2.10961 ; perimeter
G1 X174.722 Y225.176 E2.11154 ; perimeter
G1 X175.659 Y225.962 E2.11381 ; perimeter
G1 X176.903 Y226.732 E2.11652 ; perimeter
G1 X177.316 Y226.946 E2.11738 ; perimeter
G1 X178.417 Y227.437 E2.11961 ; perimeter
G1 X179.070 Y227.685 E2.12091 ; perimeter
G1 X180.401 Y228.122 E2.12350 ; perimeter
G1 X181.386 Y228.398 E2.12540 ; perimeter
G1 X181.514 Y228.408 E2.12563 ; perimeter
G1 F600.000
G1 X181.769 Y228.430 E2.12613 ; perimeter
G1 F600.000
G1 X182.025 Y228.451 E2.12664 ; perimeter
G1 F600.000
G1 X182.153 Y228.461 E2.12691 ; perimeter
G1 X183.418 Y228.402 F1800.000 ; move to first perimeter point
G1 F600.000
G1 X183.473 Y228.460 E2.12713 ; perimeter
G1 F600.000
G1 X183.527 Y228.519 E2.12734 ; perimeter
G1 F600.000
G1 X183.670 Y228.600 E2.12778 ; perimeter
G1 F600.000
G1 X183.814 Y228.681 E2.12819 ; perimeter
G1 F600.000
G1 X183.958 Y228.762 E2.12859 ; perimeter
G1 F600.000
G1 X184.102 Y228.843 E2.12898 ; perimeter
G1 F600.000
G1 X184.246 Y228.924 E2.12935 ; perimeter
G1 F600.000
G1 X184.390 Y229.005 E2.12970 ; perimeter
G1 F600.000
G1 X184.533 Y229.086 E2.13004 ; perimeter
G1 F600.000
G1 X184.677 Y229.167 E2.13036 ; perimeter
G1 F600.000
G1 X188.658 Y230.007 E2.13791 ; perimeter
G1 X191.289 Y230.699 E2.14296 ; perimeter
G1 X193.141 Y231.376 E2.14663 ; perimeter
G1 X194.594 Y232.128 E2.14966 ; perimeter
G1 X194.913 Y232.333 E2.15037 ; perimeter
G1 X195.624 Y232.858 E2.15201 ; perimeter
G1 X196.363 Y233.581 E2.15393 ; perimeter
G1 X196.839 Y234.217 E2.15540 ; perimeter
G1 F600.000
G1 X196.837 Y234.233 E2.15543 ; perimeter
G1 F600.000
G1 X196.835 Y234.248 E2.15546 ; perimeter
G1 F600.000
G1 X196.833 Y234.263 E2.15549 ; perimeter
G1 F600.000
G1 X196.831 Y234.278 E2.15553 ; perimeter
G1 F600.000
G1 X196.829 Y234.293 E2.15556 ; perimeter
G1 F600.000
G1 X196.826 Y234.308 E2.15560 ; perimeter
G1 F600.000
G1 X196.824 Y234.323 E2.15564 ; perimeter
G1 F600.000
G1 X196.822 Y234.338 E2.15568 ; perimeter
G1 F600.000
G1 X196.820 Y234.353 E2.15572 ; perimeter
G1 F600.000
G1 X196.818 Y234.368 E2.15576 ; perimeter
G1 F600.000
G1 X196.816 Y234.384 E2.15580 ; perimeter
G1 F600.000
G1 X196.813 Y234.399 E2.15585 ; perimeter
G1 F600.000
G1 X196.871 Y234.528 E2.15628 ; perimeter
G1 F600.000
G1 X196.910 Y234.604 E2.15654 ; perimeter
G1 F600.000
G1 X196.950 Y234.680 E2.15678 ; perimeter
G1 F600.000
G1 X196.989 Y234.756 E2.15702 ; perimeter
G1 F600.000
G1 X197.029 Y234.832 E2.15725 ; perimeter
G1 F600.000
G1 X197.068 Y234.907 E2.15747 ; perimeter
G1 F600.000
G1 X197.108 Y234.983 E2.15768 ; perimeter
G1 F600.000
G1 X197.148 Y235.059 E2.15789 ; perimeter
G1 F600.000
G1 X197.187 Y235.135 E2.15809 ; perimeter
G1 F600.000
G1 X197.227 Y235.211 E2.15827 ; perimeter
G1 F600.000
G1 X197.266 Y235.287 E2.15845 ; perimeter
G1 F600.000
G1 X197.306 Y235.363 E2.15863 ; perimeter
G1 F600.000
G1 X197.345 Y235.439 E2.15879 ; perimeter
G1 F600.000
G1 X197.385 Y235.515 E2.15895 ; perimeter
G1 F600.000
G1 X197.425 Y235.591 E2.15909 ; perimeter
G1 F600.000
G1 X197.464 Y235.667 E2.15923 ; perimeter
G1 F600.000
G1 X197.504 Y235.743 E2.15937 ; perimeter
G1 F600.000
G1 X197.543 Y235.819 E2.15949 ; perimeter
G1 F600.000
G1 X197.583 Y235.895 E2.15960 ; perimeter
G1 F600.000
G1 X197.622 Y235.971 E2.15971 ; perimeter
G1 F600.000
G1 X197.662 Y236.047 E2.15981 ; perimeter
G1 E0.15981 F2400.00000 ; retract extruder 0
G92 E0 ; reset extrusion distance
G1 X207.871 Y226.438 F1800.000 ; move to first perimeter point
G1 E2.00000 F2400.00000 ; unretract extruder 0
G1 F600.000
G1 X208.760 Y226.342 E2.00158 ; perimeter
G1 F600.000
G1 X209.649 Y226.247 E2.00308 ; perimeter
G1 X207.871 Y226.438 F1800.000 ; move to first perimeter point
G1 F600.000
G1 X206.982 Y226.533 E2.00475 ; perimeter
G1 X196.149 Y219.422 E2.02883 ; perimeter
G1 F600.000
G1 X196.029 Y219.345 E2.02911 ; perimeter
G1 F600.000
G1 X195.909 Y219.268 E2.02940 ; perimeter
G1 F600.000
G1 X195.788 Y219.191 E2.02971 ; perimeter
G1 F600.000
G1 X195.668 Y219.115 E2.03003 ; perimeter
G1 F600.000
G1 X195.548 Y219.038 E2.03036 ; perimeter
G1 F600.000
G1 X195.450 Y219.115 E2.03064 ; perimeter
G1 F600.000
G1 X195.300 Y219.243 E2.03109 ; perimeter
G1 F600.000
G1 X195.149 Y219.372 E2.03152 ; perimeter
G1 F600.000
G1 X194.998 Y219.500 E2.03192 ; perimeter
G1 F600.000
G1 X194.847 Y219.629 E2.03231 ; perimeter
G1 F600.000
G1 X194.610 Y219.933 E2.03303 ; perimeter
G1 X193.872 Y220.786 E2.03514 ; perimeter
G1 X193.134 Y221.548 E2.03713 ; perimeter
G1 X192.136 Y222.458 E2.03966 ; perimeter
G1 X191.034 Y223.348 E2.04231 ; perimeter
G1 X190.160 Y223.985 E2.04433 ; perimeter
G1 X188.749 Y224.919 E2.04750 ; perimeter
G1 X187.693 Y225.556 E2.04980 ; perimeter
G1 X185.876 Y226.552 E2.05368 ; perimeter
G1 X184.406 Y227.290 E2.05676 ; perimeter
G1 F600.000
G1 X184.307 Y227.390 E2.05703 ; perimeter
G1 F600.000
G1 X184.208 Y227.490 E2.05732 ; perimeter
G1 F600.000
G1 X184.108 Y227.591 E2.05762 ; perimeter
G1 F600.000
G1 X184.009 Y227.691 E2.05793 ; perimeter
G1 F600.000
G1 X183.910 Y227.791 E2.05826 ; perimeter
G1 F600.000
G1 X183.811 Y227.892 E2.05860 ; perimeter
G1 F600.000
G1 X183.712 Y227.992 E2.05895 ; perimeter
G1 F600.000
G1 X183.612 Y228.092 E2.05932 ; perimeter
G1 F600.000
G1 X183.513 Y228.193 E2.05970 ; perimeter
G1 F600.000
G1 X183.414 Y228.293 E2.06009 ; perimeter
G1 F600.000
G1 X183.364 Y228.343 E2.06029 ; perimeter
G1 X183.418 Y228.402 E2.06052 ; perimeter
G1 E0.06052 F2400.00000 ; retract extruder 0
G92 E0 ; reset extrusion distance
G1 X195.548 Y219.038 F1800.000 ; move to first perimeter point
G1 E2.00000 F2400.00000 ; unretract extruder 0
G1 F600.000
G1 X195.559 Y218.941 E2.00022 ; perimeter
G1 F600.000
G1 X195.593 Y218.791 E2.00056 ; perimeter
G1 F600.000
G1 X195.651 Y218.586 E2.00101 ; perimeter
G1 F600.000
G1 X195.709 Y218.381 E2.00144 ; perimeter
G1 F600.000
G1 X195.767 Y218.176 E2.00185 ; perimeter
G1 F600.000
G1 X196.242 Y217.181 E2.00391 ; perimeter
G1 X196.472 Y216.585 E2.00510 ; perimeter
G1 X196.690 Y215.847 E2.00653 ; perimeter
G1 X196.858 Y215.104 E2.00795 ; perimeter
G1 X196.912 Y214.703 E2.00871 ; perimeter
G1 X196.982 Y213.589 E2.01079 ; perimeter
G1 X196.962 Y213.020 E2.01185 ; perimeter
G1 X196.857 Y212.018 E2.01373 ; perimeter
G1 X196.784 Y211.623 E2.01448 ; perimeter
G1 X196.468 Y210.401 E2.01683 ; perimeter
G1 X196.241 Y209.724 E2.01816 ; perimeter
G1 F600.000
G1 X196.214 Y209.537 E2.01853 ; perimeter
G1 F600.000
G1 X196.188 Y209.349 E2.01892 ; perimeter
G1 F600.000
G1 X196.161 Y209.162 E2.01932 ; perimeter
G1 F600.000
G1 X196.134 Y208.975 E2.01975 ; perimeter
G1 F600.000
G1 X196.108 Y208.785 E2.02018 ; perimeter
G1 X196.036 Y208.726 E2.02040 ; perimeter
G1 F600.000
G1 X195.924 Y208.607 E2.02076 ; perimeter
G1 F600.000
G1 X195.773 Y208.428 E2.02125 ; perimeter
G1 F600.000
