; generated by Slic3r 1.3.1-dev (Build (Unknown revision)) on 2022-12-16 at 12:27:58

; external perimeters extrusion width = 1.32mm (12.75mm^3/s)
; perimeters extrusion width = 1.26mm (12.03mm^3/s)
; infill extrusion width = 2.00mm (20.91mm^3/s)
; solid infill extrusion width = 2.00mm (41.82mm^3/s)
; top infill extrusion width = 1.26mm (18.04mm^3/s)

M107 ; disable fan
G92 E0 ; reset extrusion distance
M104 S200 ; set temperature
G28 ; home all axes
G1 Z5 F5000 ; lift nozzle

; Filament gcode

M109 S200 ; set temperature and wait for it to be reached
G21 ; set units to millimeters
G90 ; use absolute coordinates
M82 ; use absolute distances for extrusion
G92 E0 ; reset extrusion distance
G1 Z17.880 F1800.000 ; move to next layer (0)
G1 E-2.00000 F2400.00000 ; retract extruder 0
G92 E0 ; reset extrusion distance
G1 X205.361 Y200.263 F1800.000 ; move to first external small perimeter point
G1 E2.00000 F2400.00000 ; unretract extruder 0
G1 F600.000
G1 X206.639 Y199.084 E2.00265 ; external small perimeter
G1 X206.976 Y198.811 E2.00331 ; external small perimeter
G1 X207.293 Y198.585 E2.00391 ; external small perimeter
G1 X207.584 Y198.408 E2.00443 ; external small perimeter
G1 X208.077 Y198.184 E2.00525 ; external small perimeter
G1 X208.407 Y198.107 E2.00577 ; external small perimeter
G1 X208.646 Y198.097 E2.00613 ; external small perimeter
G1 X208.926 Y198.292 E2.00665 ; external small perimeter
G1 X209.177 Y198.583 E2.00724 ; external small perimeter
G1 X209.460 Y199.073 E2.00810 ; external small perimeter
G1 X209.598 Y199.393 E2.00863 ; external small perimeter
G1 X209.740 Y199.803 E2.00930 ; external small perimeter
G1 X209.855 Y200.238 E2.00998 ; external small perimeter
G1 X210.128 Y201.665 E2.01220 ; external small perimeter
G1 X208.947 Y200.987 E2.01427 ; external small perimeter
G1 X208.525 Y200.779 E2.01499 ; external small perimeter
G1 X208.104 Y200.606 E2.01568 ; external small perimeter
G1 X207.466 Y200.423 E2.01670 ; external small perimeter
G1 X207.042 Y200.359 E2.01735 ; external small perimeter
G1 X205.541 Y200.273 E2.01964 ; external small perimeter
G1 Z19.080 F1800.000 ; move to next layer (1)
G1 X204.746 Y200.845 F1800.000 ; move to first external small perimeter point
G1 F600.000
G1 X205.122 Y200.254 E2.02167 ; external small perimeter
G1 X205.405 Y199.876 E2.02303 ; external small perimeter
G1 X205.705 Y199.525 E2.02436 ; external small perimeter
G1 X206.057 Y199.159 E2.02583 ; external small perimeter
G1 X206.417 Y198.827 E2.02724 ; external small perimeter
G1 X206.770 Y198.540 E2.02855 ; external small perimeter
G1 X207.106 Y198.301 E2.02975 ; external small perimeter
G1 X207.419 Y198.110 E2.03080 ; external small perimeter
G1 X207.701 Y197.967 E2.03171 ; external small perimeter
G1 X207.967 Y197.861 E2.03254 ; external small perimeter
G1 X208.185 Y197.799 E2.03320 ; external small perimeter
G1 X208.372 Y197.768 E2.03374 ; external small perimeter
G1 X208.661 Y197.775 E2.03458 ; external small perimeter
G1 X208.909 Y197.861 E2.03534 ; external small perimeter
G1 X209.031 Y197.938 E2.03575 ; external small perimeter
G1 X209.302 Y198.191 E2.03682 ; external small perimeter
G1 X209.455 Y198.386 E2.03754 ; external small perimeter
G1 X209.612 Y198.631 E2.03837 ; external small perimeter
G1 X209.767 Y198.926 E2.03934 ; external small perimeter
G1 X209.916 Y199.270 E2.04042 ; external small perimeter
G1 X210.065 Y199.704 E2.04174 ; external small perimeter
G1 X210.187 Y200.163 E2.04311 ; external small perimeter
G1 X210.275 Y200.622 E2.04446 ; external small perimeter
G1 X210.327 Y201.051 E2.04571 ; external small perimeter
G1 X210.344 Y201.426 E2.04679 ; external small perimeter
G1 X210.319 Y202.166 E2.04893 ; external small perimeter
G1 X208.787 Y201.288 E2.05403 ; external small perimeter
G1 X208.385 Y201.089 E2.05532 ; external small perimeter
G1 X207.993 Y200.928 E2.05655 ; external small perimeter
G1 X207.393 Y200.756 E2.05834 ; external small perimeter
G1 X207.007 Y200.697 E2.05947 ; external small perimeter
G1 X206.607 Y200.674 E2.06063 ; external small perimeter
G1 X206.165 Y200.685 E2.06191 ; external small perimeter
G1 X204.924 Y200.825 E2.06551 ; external small perimeter
G1 X205.816 Y200.190 F1800.000 ; move to first infill point
G1 F600.000
G1 X206.159 Y200.019 E2.06555 ; infill
G1 X206.310 Y200.039 E2.06557 ; infill
G1 Z20.280 F1800.000 ; move to next layer (2)
G1 X204.746 Y200.845 F1800.000 ; move to first external small perimeter point
G1 F600.000
G1 X205.122 Y200.254 E2.06759 ; external small perimeter
G1 X205.405 Y199.876 E2.06895 ; external small perimeter
G1 X205.705 Y199.525 E2.07029 ; external small perimeter
G1 X206.057 Y199.159 E2.07175 ; external small perimeter
G1 X206.417 Y198.827 E2.07316 ; external small perimeter
G1 X206.770 Y198.540 E2.07448 ; external small perimeter
G1 X207.106 Y198.301 E2.07567 ; external small perimeter
G1 X207.419 Y198.110 E2.07672 ; external small perimeter
G1 X207.701 Y197.967 E2.07764 ; external small perimeter
G1 X207.967 Y197.861 E2.07847 ; external small perimeter
G1 X208.185 Y197.799 E2.07912 ; external small perimeter
G1 X208.372 Y197.768 E2.07967 ; external small perimeter
G1 X208.661 Y197.775 E2.08050 ; external small perimeter
G1 X208.909 Y197.861 E2.08126 ; external small perimeter
G1 X209.031 Y197.938 E2.08167 ; external small perimeter
G1 X209.302 Y198.191 E2.08275 ; external small perimeter
G1 X209.455 Y198.386 E2.08346 ; external small perimeter
G1 X209.612 Y198.631 E2.08430 ; external small perimeter
G1 X209.767 Y198.926 E2.08526 ; external small perimeter
G1 X209.916 Y199.270 E2.08634 ; external small perimeter
G1 X210.065 Y199.704 E2.08767 ; external small perimeter
G1 X210.187 Y200.163 E2.08904 ; external small perimeter
G1 X210.275 Y200.622 E2.09039 ; external small perimeter
G1 X210.327 Y201.051 E2.09163 ; external small perimeter
G1 X210.344 Y201.426 E2.09272 ; external small perimeter
G1 X210.319 Y202.166 E2.09485 ; external small perimeter
G1 X208.787 Y201.288 E2.09995 ; external small perimeter
G1 X208.385 Y201.089 E2.10125 ; external small perimeter
G1 X207.993 Y200.928 E2.10247 ; external small perimeter
G1 X207.393 Y200.756 E2.10427 ; external small perimeter
G1 X207.007 Y200.697 E2.10540 ; external small perimeter
G1 X206.607 Y200.674 E2.10655 ; external small perimeter
G1 X206.165 Y200.685 E2.10783 ; external small perimeter
G1 X204.924 Y200.825 E2.11143 ; external small perimeter
G1 X205.816 Y200.190 F1800.000 ; move to first infill point
G1 F600.000
G1 X206.159 Y200.019 E2.11147 ; infill
G1 X206.310 Y200.039 E2.11149 ; infill
M106 S255 ; enable fan
G1 Z21.480 F1800.000 ; move to next layer (3)
G1 X204.746 Y200.845 F1800.000 ; move to first external small perimeter point
G1 F600.000
G1 X205.122 Y200.254 E2.11351 ; external small perimeter
G1 X205.405 Y199.876 E2.11488 ; external small perimeter
G1 X205.705 Y199.525 E2.11621 ; external small perimeter
G1 X206.057 Y199.159 E2.11768 ; external small perimeter
G1 X206.417 Y198.827 E2.11909 ; external small perimeter
G1 X206.770 Y198.540 E2.12040 ; external small perimeter
G1 X207.106 Y198.301 E2.12159 ; external small perimeter
G1 X207.419 Y198.110 E2.12265 ; external small perimeter
G1 X207.701 Y197.967 E2.12356 ; external small perimeter
G1 X207.967 Y197.861 E2.12439 ; external small perimeter
G1 X208.185 Y197.799 E2.12504 ; external small perimeter
G1 X208.372 Y197.768 E2.12559 ; external small perimeter
G1 X208.661 Y197.775 E2.12642 ; external small perimeter
G1 X208.909 Y197.861 E2.12718 ; external small perimeter
G1 X209.031 Y197.938 E2.12760 ; external small perimeter
G1 X209.302 Y198.191 E2.12867 ; external small perimeter
G1 X209.455 Y198.386 E2.12938 ; external small perimeter
G1 X209.612 Y198.631 E2.13022 ; external small perimeter
G1 X209.767 Y198.926 E2.13119 ; external small perimeter
G1 X209.916 Y199.270 E2.13227 ; external small perimeter
G1 X210.065 Y199.704 E2.13359 ; external small perimeter
G1 X210.187 Y200.163 E2.13496 ; external small perimeter
G1 X210.275 Y200.622 E2.13631 ; external small perimeter
G1 X210.327 Y201.051 E2.13756 ; external small perimeter
G1 X210.344 Y201.426 E2.13864 ; external small perimeter
G1 X210.319 Y202.166 E2.14078 ; external small perimeter
G1 X208.787 Y201.288 E2.14587 ; external small perimeter
G1 X208.385 Y201.089 E2.14717 ; external small perimeter
G1 X207.993 Y200.928 E2.14839 ; external small perimeter
G1 X207.393 Y200.756 E2.15019 ; external small perimeter
G1 X207.007 Y200.697 E2.15132 ; external small perimeter
G1 X206.607 Y200.674 E2.15248 ; external small perimeter
G1 X206.165 Y200.685 E2.15375 ; external small perimeter
G1 X204.924 Y200.825 E2.15736 ; external small perimeter
G1 X205.816 Y200.190 F1800.000 ; move to first infill point
G1 F600.000
G1 X206.159 Y200.019 E2.15740 ; infill
G1 X206.310 Y200.039 E2.15742 ; infill
G1 Z22.680 F1800.000 ; move to next layer (4)
G1 X204.746 Y200.845 F1800.000 ; move to first external small perimeter point
G1 F600.000
G1 X205.122 Y200.254 E2.15944 ; external small perimeter
G1 X205.405 Y199.876 E2.16080 ; external small perimeter
G1 X205.705 Y199.525 E2.16213 ; external small perimeter
G1 X206.057 Y199.159 E2.16360 ; external small perimeter
G1 X206.417 Y198.827 E2.16501 ; external small perimeter
G1 X206.770 Y198.540 E2.16633 ; external small perimeter
G1 X207.106 Y198.301 E2.16752 ; external small perimeter
G1 X207.419 Y198.110 E2.16857 ; external small perimeter
G1 X207.701 Y197.967 E2.16949 ; external small perimeter
G1 X207.967 Y197.861 E2.17031 ; external small perimeter
G1 X208.185 Y197.799 E2.17097 ; external small perimeter
G1 X208.372 Y197.768 E2.17151 ; external small perimeter
G1 X208.661 Y197.775 E2.17235 ; external small perimeter
G1 X208.909 Y197.861 E2.17311 ; external small perimeter
G1 X209.031 Y197.938 E2.17352 ; external small perimeter
G1 X209.302 Y198.191 E2.17459 ; external small perimeter
G1 X209.455 Y198.386 E2.17531 ; external small perimeter
G1 X209.612 Y198.631 E2.17615 ; external small perimeter
G1 X209.767 Y198.926 E2.17711 ; external small perimeter
G1 X209.916 Y199.270 E2.17819 ; external small perimeter
G1 X210.065 Y199.704 E2.17952 ; external small perimeter
G1 X210.187 Y200.163 E2.18088 ; external small perimeter
G1 X210.275 Y200.622 E2.18223 ; external small perimeter
G1 X210.327 Y201.051 E2.18348 ; external small perimeter
G1 X210.344 Y201.426 E2.18456 ; external small perimeter
G1 X210.319 Y202.166 E2.18670 ; external small perimeter
G1 X208.787 Y201.288 E2.19180 ; external small perimeter
G1 X208.385 Y201.089 E2.19309 ; external small perimeter
G1 X207.993 Y200.928 E2.19432 ; external small perimeter
G1 X207.393 Y200.756 E2.19612 ; external small perimeter
G1 X207.007 Y200.697 E2.19724 ; external small perimeter
G1 X206.607 Y200.674 E2.19840 ; external small perimeter
G1 X206.165 Y200.685 E2.19968 ; external small perimeter
G1 X204.924 Y200.825 E2.20328 ; external small perimeter
G1 X205.816 Y200.190 F1800.000 ; move to first infill point
G1 F600.000
G1 X206.159 Y200.019 E2.20332 ; infill
G1 X206.310 Y200.039 E2.20334 ; infill
G1 Z23.880 F1800.000 ; move to next layer (5)
G1 X204.746 Y200.845 F1800.000 ; move to first external small perimeter point
G1 F600.000
G1 X205.122 Y200.254 E2.20536 ; external small perimeter
G1 X205.405 Y199.876 E2.20672 ; external small perimeter
G1 X205.705 Y199.525 E2.20806 ; external small perimeter
G1 X206.057 Y199.159 E2.20952 ; external small perimeter
G1 X206.417 Y198.827 E2.21093 ; external small perimeter
G1 X206.770 Y198.540 E2.21225 ; external small perimeter
G1 X207.106 Y198.301 E2.21344 ; external small perimeter
G1 X207.419 Y198.110 E2.21450 ; external small perimeter
G1 X207.701 Y197.967 E2.21541 ; external small perimeter
G1 X207.967 Y197.861 E2.21624 ; external small perimeter
G1 X208.185 Y197.799 E2.21689 ; external small perimeter
G1 X208.372 Y197.768 E2.21744 ; external small perimeter
G1 X208.661 Y197.775 E2.21827 ; external small perimeter
G1 X208.909 Y197.861 E2.21903 ; external small perimeter
G1 X209.031 Y197.938 E2.21945 ; external small perimeter
G1 X209.302 Y198.191 E2.22052 ; external small perimeter
G1 X209.455 Y198.386 E2.22123 ; external small perimeter
G1 X209.612 Y198.631 E2.22207 ; external small perimeter
G1 X209.767 Y198.926 E2.22303 ; external small perimeter
G1 X209.916 Y199.270 E2.22411 ; external small perimeter
G1 X210.065 Y199.704 E2.22544 ; external small perimeter
G1 X210.187 Y200.163 E2.22681 ; external small perimeter
G1 X210.275 Y200.622 E2.22816 ; external small perimeter
G1 X210.327 Y201.051 E2.22940 ; external small perimeter
G1 X210.344 Y201.426 E2.23049 ; external small perimeter
G1 X210.319 Y202.166 E2.23262 ; external small perimeter
G1 X208.787 Y201.288 E2.23772 ; external small perimeter
G1 X208.385 Y201.089 E2.23902 ; external small perimeter
G1 X207.993 Y200.928 E2.24024 ; external small perimeter
G1 X207.393 Y200.756 E2.24204 ; external small perimeter
G1 X207.007 Y200.697 E2.24317 ; external small perimeter
G1 X206.607 Y200.674 E2.24432 ; external small perimeter
G1 X206.165 Y200.685 E2.24560 ; external small perimeter
G1 X204.924 Y200.825 E2.24920 ; external small perimeter
G1 X205.816 Y200.190 F1800.000 ; move to first infill point
G1 F600.000
G1 X206.159 Y200.019 E2.24925 ; infill
G1 X206.310 Y200.039 E2.24926 ; infill
G1 Z25.080 F1800.000 ; move to next layer (6)
G1 X204.746 Y200.845 F1800.000 ; move to first external small perimeter point
G1 F600.000
G1 X205.122 Y200.254 E2.25128 ; external small perimeter
G1 X205.405 Y199.876 E2.25265 ; external small perimeter
G1 X205.705 Y199.525 E2.25398 ; external small perimeter
G1 X206.057 Y199.159 E2.25545 ; external small perimeter
G1 X206.417 Y198.827 E2.25686 ; external small perimeter
G1 X206.770 Y198.540 E2.25817 ; external small perimeter
G1 X207.106 Y198.301 E2.25936 ; external small perimeter
G1 X207.419 Y198.110 E2.26042 ; external small perimeter
G1 X207.701 Y197.967 E2.26133 ; external small perimeter
G1 X207.967 Y197.861 E2.26216 ; external small perimeter
G1 X208.185 Y197.799 E2.26281 ; external small perimeter
G1 X208.372 Y197.768 E2.26336 ; external small perimeter
G1 X208.661 Y197.775 E2.26419 ; external small perimeter
G1 X208.909 Y197.861 E2.26495 ; external small perimeter
G1 X209.031 Y197.938 E2.26537 ; external small perimeter
G1 X209.302 Y198.191 E2.26644 ; external small perimeter
G1 X209.455 Y198.386 E2.26715 ; external small perimeter
G1 X209.612 Y198.631 E2.26799 ; external small perimeter
G1 X209.767 Y198.926 E2.26896 ; external small perimeter
G1 X209.916 Y199.270 E2.27004 ; external small perimeter
G1 X210.065 Y199.704 E2.27136 ; external small perimeter
G1 X210.187 Y200.163 E2.27273 ; external small perimeter
G1 X210.275 Y200.622 E2.27408 ; external small perimeter
G1 X210.327 Y201.051 E2.27533 ; external small perimeter
G1 X210.344 Y201.426 E2.27641 ; external small perimeter
G1 X210.319 Y202.166 E2.27855 ; external small perimeter
G1 X208.787 Y201.288 E2.28364 ; external small perimeter
G1 X208.385 Y201.089 E2.28494 ; external small perimeter
G1 X207.993 Y200.928 E2.28616 ; external small perimeter
G1 X207.393 Y200.756 E2.28796 ; external small perimeter
G1 X207.007 Y200.697 E2.28909 ; external small perimeter
G1 X206.607 Y200.674 E2.29025 ; external small perimeter
G1 X206.165 Y200.685 E2.29152 ; external small perimeter
G1 X204.924 Y200.825 E2.29513 ; external small perimeter
G1 X205.816 Y200.190 F1800.000 ; move to first infill point
G1 F600.000
G1 X206.159 Y200.019 E2.29517 ; infill
G1 X206.310 Y200.039 E2.29519 ; infill
G1 Z26.280 F1800.000 ; move to next layer (7)
G1 X204.746 Y200.845 F1800.000 ; move to first external small perimeter point
G1 F600.000
G1 X205.122 Y200.254 E2.29721 ; external small perimeter
G1 X205.405 Y199.876 E2.29857 ; external small perimeter
G1 X205.705 Y199.525 E2.29990 ; external small perimeter
G1 X206.057 Y199.159 E2.30137 ; external small perimeter
G1 X206.417 Y198.827 E2.30278 ; external small perimeter
G1 X206.770 Y198.540 E2.30410 ; external small perimeter
