; generated by Slic3r 1.3.1-dev (Build (Unknown revision)) on 2022-12-16 at 11:54:16

; external perimeters extrusion width = 1.32mm (12.75mm^3/s)
; perimeters extrusion width = 1.26mm (12.03mm^3/s)
; infill extrusion width = 2.00mm (20.91mm^3/s)
; solid infill extrusion width = 2.00mm (41.82mm^3/s)
; top infill extrusion width = 1.26mm (18.04mm^3/s)

M107 ; disable fan
G92 E0 ; reset extrusion distance
M104 S200 ; set temperature
G28 ; home all axes
G1 Z5 F5000 ; lift nozzle

; Filament gcode

M109 S200 ; set temperature and wait for it to be reached
G21 ; set units to millimeters
G90 ; use absolute coordinates
M82 ; use absolute distances for extrusion
G92 E0 ; reset extrusion distance
G1 Z5.440 F1800.000 ; move to next layer (0)
G1 E-2.00000 F2400.00000 ; retract extruder 0
G92 E0 ; reset extrusion distance
G1 X162.212 Y217.841 F1800.000 ; move to first perimeter point
G1 E2.00000 F2400.00000 ; unretract extruder 0
G1 F600.000
G1 X162.013 Y217.998 E2.00015 ; perimeter
G1 F600.000
G1 X161.908 Y218.080 E2.00024 ; perimeter
G1 F600.000
G1 X161.857 Y218.123 E2.00029 ; perimeter
G1 F600.000
G1 X161.806 Y218.166 E2.00034 ; perimeter
G1 F600.000
G1 X161.757 Y218.213 E2.00040 ; perimeter
G1 F600.000
G1 X161.710 Y218.262 E2.00047 ; perimeter
G1 F600.000
G1 X161.668 Y218.309 E2.00053 ; perimeter
G1 F600.000
G1 X161.611 Y218.366 E2.00063 ; perimeter
G1 F600.000
G1 X161.555 Y218.422 E2.00072 ; perimeter
G1 F600.000
G1 X161.485 Y218.501 E2.00086 ; perimeter
G1 F600.000
G1 X161.420 Y218.568 E2.00099 ; perimeter
G1 F600.000
G1 X161.346 Y218.650 E2.00115 ; perimeter
G1 F600.000
G1 X161.261 Y218.747 E2.00135 ; perimeter
G1 F600.000
G1 X161.195 Y218.826 E2.00152 ; perimeter
G1 F600.000
G1 X161.099 Y218.941 E2.00178 ; perimeter
G1 F600.000
G1 X161.002 Y219.063 E2.00207 ; perimeter
G1 F600.000
G1 X160.904 Y219.191 E2.00237 ; perimeter
G1 F600.000
G1 X160.779 Y219.370 E2.00281 ; perimeter
G1 F600.000
G1 X160.721 Y219.458 E2.00302 ; perimeter
G1 F600.000
G1 X160.597 Y219.658 E2.00352 ; perimeter
G1 F600.000
G1 X160.415 Y220.056 E2.00446 ; perimeter
G1 F600.000
G1 X160.380 Y220.180 E2.00473 ; perimeter
G1 F600.000
G1 X160.348 Y220.323 E2.00503 ; perimeter
G1 F600.000
G1 X160.331 Y220.429 E2.00524 ; perimeter
G1 F600.000
G1 X160.319 Y220.516 E2.00541 ; perimeter
G1 F600.000
G1 X160.308 Y220.600 E2.00556 ; perimeter
G1 F600.000
G1 X160.297 Y220.687 E2.00571 ; perimeter
G1 F600.000
G1 X160.289 Y220.762 E2.00584 ; perimeter
G1 F600.000
G1 X160.280 Y220.817 E2.00593 ; perimeter
G1 F600.000
G1 X160.272 Y220.895 E2.00605 ; perimeter
G1 F600.000
G1 X160.264 Y220.972 E2.00616 ; perimeter
G1 F600.000
G1 X160.261 Y221.031 E2.00624 ; perimeter
G1 F600.000
G1 X160.261 Y221.078 E2.00630 ; perimeter
G1 F600.000
G1 X160.262 Y221.120 E2.00635 ; perimeter
G1 F600.000
G1 X160.261 Y221.169 E2.00640 ; perimeter
G1 F600.000
G1 X160.254 Y221.218 E2.00646 ; perimeter
G1 F600.000
G1 X160.259 Y221.373 E2.00661 ; perimeter
G1 F600.000
G1 X160.276 Y221.632 E2.00684 ; perimeter
G1 F600.000
G1 X160.284 Y221.761 E2.00694 ; perimeter
G1 Z6.640 F1800.000 ; move to next layer (1)
G1 X160.182 Y221.372 F1800.000 ; move to first external small perimeter point
G1 F600.000
G1 X159.985 Y220.373 E2.01062 ; external small perimeter
G1 X159.979 Y220.010 E2.01193 ; external small perimeter
G1 X160.046 Y219.725 E2.01299 ; external small perimeter
G1 X160.219 Y219.401 E2.01431 ; external small perimeter
G1 X160.339 Y219.244 E2.01502 ; external small perimeter
G1 X160.675 Y218.914 E2.01672 ; external small perimeter
G1 X160.996 Y218.671 E2.01817 ; external small perimeter
G1 X161.382 Y218.965 E2.01992 ; external small perimeter
G1 X161.147 Y219.550 E2.02220 ; external small perimeter
G1 X160.916 Y220.056 E2.02420 ; external small perimeter
G1 X160.269 Y221.215 E2.02899 ; external small perimeter
G1 X162.142 Y218.600 F1800.000 ; move to first perimeter point
G1 F600.000
G1 X162.180 Y218.687 E2.02906 ; perimeter
G1 X162.142 Y218.600 F1800.000 ; move to first perimeter point
G1 F600.000
G1 X162.067 Y218.425 E2.02925 ; perimeter
G1 F600.000
G1 X161.991 Y218.251 E2.02950 ; perimeter
G1 F600.000
G1 X161.915 Y218.075 E2.02982 ; perimeter
G1 X161.841 Y218.047 E2.02995 ; perimeter
G1 F600.000
G1 X161.550 Y217.964 E2.03036 ; perimeter
G1 F600.000
G1 X161.104 Y217.850 E2.03085 ; perimeter
G1 Z7.840 F1800.000 ; move to next layer (2)
G1 E0.03085 F2400.00000 ; retract extruder 0
G92 E0 ; reset extrusion distance
G1 X160.182 Y221.372 F1800.000 ; move to first external small perimeter point
G1 E2.00000 F2400.00000 ; unretract extruder 0
G1 F600.000
G1 X159.985 Y220.373 E2.00368 ; external small perimeter
G1 X159.979 Y220.010 E2.00498 ; external small perimeter
G1 X160.046 Y219.725 E2.00604 ; external small perimeter
G1 X160.219 Y219.401 E2.00737 ; external small perimeter
G1 X160.339 Y219.244 E2.00808 ; external small perimeter
G1 X160.675 Y218.914 E2.00978 ; external small perimeter
G1 X160.996 Y218.671 E2.01123 ; external small perimeter
G1 X161.382 Y218.965 E2.01298 ; external small perimeter
G1 X161.147 Y219.550 E2.01525 ; external small perimeter
G1 X160.916 Y220.056 E2.01726 ; external small perimeter
G1 X160.269 Y221.215 E2.02205 ; external small perimeter
G1 X162.142 Y218.600 F1800.000 ; move to first perimeter point
G1 F600.000
G1 X162.180 Y218.687 E2.02211 ; perimeter
G1 X162.142 Y218.600 F1800.000 ; move to first perimeter point
G1 F600.000
G1 X162.067 Y218.425 E2.02231 ; perimeter
G1 F600.000
G1 X161.991 Y218.251 E2.02256 ; perimeter
G1 F600.000
G1 X161.915 Y218.075 E2.02287 ; perimeter
G1 X161.841 Y218.047 E2.02300 ; perimeter
G1 F600.000
G1 X161.550 Y217.964 E2.02341 ; perimeter
G1 F600.000
G1 X161.104 Y217.850 E2.02391 ; perimeter
M106 S255 ; enable fan
G1 Z9.040 F1800.000 ; move to next layer (3)
G1 E0.02391 F2400.00000 ; retract extruder 0
G92 E0 ; reset extrusion distance
G1 X160.182 Y221.372 F1800.000 ; move to first external small perimeter point
G1 E2.00000 F2400.00000 ; unretract extruder 0
G1 F600.000
G1 X159.985 Y220.373 E2.00368 ; external small perimeter
G1 X159.979 Y220.010 E2.00498 ; external small perimeter
G1 X160.046 Y219.725 E2.00604 ; external small perimeter
G1 X160.219 Y219.401 E2.00737 ; external small perimeter
G1 X160.339 Y219.244 E2.00808 ; external small perimeter
G1 X160.675 Y218.914 E2.00978 ; external small perimeter
G1 X160.996 Y218.671 E2.01123 ; external small perimeter
G1 X161.382 Y218.965 E2.01298 ; external small perimeter
G1 X161.147 Y219.550 E2.01525 ; external small perimeter
G1 X160.916 Y220.056 E2.01726 ; external small perimeter
G1 X160.269 Y221.215 E2.02205 ; external small perimeter
G1 X162.142 Y218.600 F1800.000 ; move to first perimeter point
G1 F600.000
G1 X162.180 Y218.687 E2.02211 ; perimeter
G1 X162.142 Y218.600 F1800.000 ; move to first perimeter point
G1 F600.000
G1 X162.067 Y218.425 E2.02231 ; perimeter
G1 F600.000
G1 X161.991 Y218.251 E2.02256 ; perimeter
G1 F600.000
G1 X161.915 Y218.075 E2.02287 ; perimeter
G1 X161.841 Y218.047 E2.02300 ; perimeter
G1 F600.000
G1 X161.550 Y217.964 E2.02341 ; perimeter
G1 F600.000
G1 X161.104 Y217.850 E2.02391 ; perimeter
G1 Z10.240 F1800.000 ; move to next layer (4)
G1 E0.02391 F2400.00000 ; retract extruder 0
G92 E0 ; reset extrusion distance
G1 X160.182 Y221.372 F1800.000 ; move to first external small perimeter point
G1 E2.00000 F2400.00000 ; unretract extruder 0
G1 F600.000
G1 X159.985 Y220.373 E2.00368 ; external small perimeter
G1 X159.979 Y220.010 E2.00498 ; external small perimeter
G1 X160.046 Y219.725 E2.00604 ; external small perimeter
G1 X160.219 Y219.401 E2.00737 ; external small perimeter
G1 X160.339 Y219.244 E2.00808 ; external small perimeter
G1 X160.675 Y218.914 E2.00978 ; external small perimeter
G1 X160.996 Y218.671 E2.01123 ; external small perimeter
G1 X161.382 Y218.965 E2.01298 ; external small perimeter
G1 X161.147 Y219.550 E2.01525 ; external small perimeter
G1 X160.916 Y220.056 E2.01726 ; external small perimeter
G1 X160.269 Y221.215 E2.02205 ; external small perimeter
G1 X162.142 Y218.600 F1800.000 ; move to first perimeter point
G1 F600.000
G1 X162.180 Y218.687 E2.02211 ; perimeter
G1 X162.142 Y218.600 F1800.000 ; move to first perimeter point
G1 F600.000
G1 X162.067 Y218.425 E2.02231 ; perimeter
G1 F600.000
G1 X161.991 Y218.251 E2.02256 ; perimeter
G1 F600.000
G1 X161.915 Y218.075 E2.02287 ; perimeter
G1 X161.841 Y218.047 E2.02300 ; perimeter
G1 F600.000
G1 X161.550 Y217.964 E2.02341 ; perimeter
G1 F600.000
G1 X161.104 Y217.850 E2.02391 ; perimeter
G1 Z11.440 F1800.000 ; move to next layer (5)
G1 E0.02391 F2400.00000 ; retract extruder 0
G92 E0 ; reset extrusion distance
G1 X160.182 Y221.372 F1800.000 ; move to first external small perimeter point
G1 E2.00000 F2400.00000 ; unretract extruder 0
G1 F600.000
G1 X159.985 Y220.373 E2.00368 ; external small perimeter
G1 X159.979 Y220.010 E2.00498 ; external small perimeter
G1 X160.046 Y219.725 E2.00604 ; external small perimeter
G1 X160.219 Y219.401 E2.00737 ; external small perimeter
G1 X160.339 Y219.244 E2.00808 ; external small perimeter
G1 X160.675 Y218.914 E2.00978 ; external small perimeter
G1 X160.996 Y218.671 E2.01123 ; external small perimeter
G1 X161.382 Y218.965 E2.01298 ; external small perimeter
G1 X161.147 Y219.550 E2.01525 ; external small perimeter
G1 X160.916 Y220.056 E2.01726 ; external small perimeter
G1 X160.269 Y221.215 E2.02205 ; external small perimeter
G1 X162.142 Y218.600 F1800.000 ; move to first perimeter point
G1 F600.000
G1 X162.180 Y218.687 E2.02211 ; perimeter
G1 X162.142 Y218.600 F1800.000 ; move to first perimeter point
G1 F600.000
G1 X162.067 Y218.425 E2.02231 ; perimeter
G1 F600.000
G1 X161.991 Y218.251 E2.02256 ; perimeter
G1 F600.000
G1 X161.915 Y218.075 E2.02287 ; perimeter
G1 X161.841 Y218.047 E2.02300 ; perimeter
G1 F600.000
G1 X161.550 Y217.964 E2.02341 ; perimeter
G1 F600.000
G1 X161.104 Y217.850 E2.02391 ; perimeter
G1 Z12.640 F1800.000 ; move to next layer (6)
G1 E0.02391 F2400.00000 ; retract extruder 0
G92 E0 ; reset extrusion distance
G1 X160.182 Y221.372 F1800.000 ; move to first external small perimeter point
G1 E2.00000 F2400.00000 ; unretract extruder 0
G1 F600.000
G1 X159.985 Y220.373 E2.00368 ; external small perimeter
G1 X159.979 Y220.010 E2.00498 ; external small perimeter
G1 X160.046 Y219.725 E2.00604 ; external small perimeter
G1 X160.219 Y219.401 E2.00737 ; external small perimeter
G1 X160.339 Y219.244 E2.00808 ; external small perimeter
G1 X160.675 Y218.914 E2.00978 ; external small perimeter
G1 X160.996 Y218.671 E2.01123 ; external small perimeter
G1 X161.382 Y218.965 E2.01298 ; external small perimeter
G1 X161.147 Y219.550 E2.01525 ; external small perimeter
G1 X160.916 Y220.056 E2.01726 ; external small perimeter
G1 X160.269 Y221.215 E2.02205 ; external small perimeter
G1 X162.142 Y218.600 F1800.000 ; move to first perimeter point
G1 F600.000
G1 X162.180 Y218.687 E2.02211 ; perimeter
G1 X162.142 Y218.600 F1800.000 ; move to first perimeter point
G1 F600.000
G1 X162.067 Y218.425 E2.02231 ; perimeter
G1 F600.000
G1 X161.991 Y218.251 E2.02256 ; perimeter
G1 F600.000
G1 X161.915 Y218.075 E2.02287 ; perimeter
G1 X161.841 Y218.047 E2.02300 ; perimeter
G1 F600.000
G1 X161.550 Y217.964 E2.02341 ; perimeter
G1 F600.000
G1 X161.104 Y217.850 E2.02391 ; perimeter
G1 Z13.840 F1800.000 ; move to next layer (7)
G1 E0.02391 F2400.00000 ; retract extruder 0
G92 E0 ; reset extrusion distance
G1 X160.182 Y221.372 F1800.000 ; move to first external small perimeter point
G1 E2.00000 F2400.00000 ; unretract extruder 0
G1 F600.000
G1 X159.985 Y220.373 E2.00368 ; external small perimeter
G1 X159.979 Y220.010 E2.00498 ; external small perimeter
G1 X160.046 Y219.725 E2.00604 ; external small perimeter
G1 X160.219 Y219.401 E2.00737 ; external small perimeter
G1 X160.339 Y219.244 E2.00808 ; external small perimeter
G1 X160.675 Y218.914 E2.00978 ; external small perimeter
G1 X160.996 Y218.671 E2.01123 ; external small perimeter
G1 X161.382 Y218.965 E2.01298 ; external small perimeter
G1 X161.147 Y219.550 E2.01525 ; external small perimeter
G1 X160.916 Y220.056 E2.01726 ; external small perimeter
G1 X160.269 Y221.215 E2.02205 ; external small perimeter
G1 X162.142 Y218.600 F1800.000 ; move to first perimeter point
G1 F600.000
G1 X162.180 Y218.687 E2.02211 ; perimeter
G1 X162.142 Y218.600 F1800.000 ; move to first perimeter point
G1 F600.000
G1 X162.067 Y218.425 E2.02231 ; perimeter
G1 F600.000
G1 X161.991 Y218.251 E2.02256 ; perimeter
G1 F600.000
G1 X161.915 Y218.075 E2.02287 ; perimeter
G1 X161.841 Y218.047 E2.02300 ; perimeter
G1 F600.000
G1 X161.550 Y217.964 E2.02341 ; perimeter
G1 F600.000
G1 X161.104 Y217.850 E2.02391 ; perimeter
G1 Z15.040 F1800.000 ; move to next layer (8)
G1 E0.02391 F2400.00000 ; retract extruder 0
G92 E0 ; reset extrusion distance
G1 X160.182 Y221.372 F1800.000 ; move to first external small perimeter point
G1 E2.00000 F2400.00000 ; unretract extruder 0
G1 F600.000
G1 X159.985 Y220.373 E2.00368 ; external small perimeter
G1 X159.979 Y220.010 E2.00498 ; external small perimeter
G1 X160.046 Y219.725 E2.00604 ; external small perimeter
G1 X160.219 Y219.401 E2.00737 ; external small perimeter
G1 X160.339 Y219.244 E2.00808 ; external small perimeter
G1 X160.675 Y218.914 E2.00978 ; external small perimeter
G1 X160.996 Y218.671 E2.01123 ; external small perimeter
G1 X161.382 Y218.965 E2.01298 ; external small perimeter
G1 X161.147 Y219.550 E2.01525 ; external small perimeter
G1 X160.916 Y220.056 E2.01726 ; external small perimeter
G1 X160.269 Y221.215 E2.02205 ; external small perimeter
G1 E0.02205 F2400.00000 ; retract extruder 0
G92 E0 ; reset extrusion distance
G1 X162.142 Y218.600 F1800.000 ; move to first perimeter point
G1 E2.00000 F2400.00000 ; unretract extruder 0
G1 F600.000
G1 X162.180 Y218.687 E2.00007 ; perimeter
G1 X162.142 Y218.600 F1800.000 ; move to first perimeter point
G1 F600.000
G1 X162.067 Y218.425 E2.00026 ; perimeter
G1 F600.000
G1 X161.991 Y218.251 E2.00051 ; perimeter
G1 F600.000
G1 X161.915 Y218.075 E2.00083 ; perimeter
G1 X161.841 Y218.047 E2.00096 ; perimeter
G1 F600.000
G1 X161.550 Y217.964 E2.00136 ; perimeter
G1 F600.000
G1 X161.104 Y217.850 E2.00186 ; perimeter
G1 E0.00186 F2400.00000 ; retract extruder 0
G92 E0 ; reset extrusion distance
M107 ; disable fan
; Filament-specific end gcode 
;END gcode for filament

M104 S0 ; turn off temperature
G28 X0  ; home X axis
M84     ; disable motors

M140 S0 ; set bed temperature
; cog_x = 160.809720
; cog_y = 219.559117
; cog_z = 10.460827
; filament_length_m = 0.0002 
; filament_volume_cm3 = 0.0014
; total_filament_cost = 0.0

; avoid_crossing_perimeters = 0
; bed_shape = 0x0,200x0,200x200,0x200
; bed_temperature = 0
; before_layer_gcode = 
; between_objects_gcode = 
; bridge_acceleration = 0
; bridge_fan_speed = 100
; brim_connections_width = 0
; brim_ears = 0
; brim_ears_max_angle = 125
; brim_width = 0
; complete_objects = 0
; cooling = 1
; default_acceleration = 0
; disable_fan_first_layers = 3
; duplicate_distance = 6
; end_filament_gcode = "; Filament-specific end gcode \n;END gcode for filament\n"
; end_gcode = M104 S0 ; turn off temperature\nG28 X0  ; home X axis\nM84     ; disable motors\n
; extruder_clearance_height = 20
; extruder_clearance_radius = 20
; extruder_offset = 0x0
; extrusion_axis = E
; extrusion_multiplier = 0.02
; fan_always_on = 0
; fan_below_layer_time = 60
; fan_percentage = 0
; filament_colour = #FFFFFF
; filament_cost = 0
; filament_density = 0
; filament_diameter = 3
; filament_max_volumetric_speed = 0
; filament_notes = ""
; first_layer_acceleration = 0
; first_layer_bed_temperature = 0
; first_layer_extrusion_width = 2
; first_layer_speed = 10
; first_layer_temperature = 200
; gcode_arcs = 0
; gcode_comments = 1
; gcode_flavor = reprap
; has_heatbed = 1
; infill_acceleration = 0
; infill_first = 0
; interior_brim_width = 0
; label_printed_objects = 0
; layer_gcode = 
; max_fan_speed = 100
; max_layer_height = 0.3
; max_print_speed = 80
; max_volumetric_speed = 0
; min_fan_speed = 35
; min_layer_height = 0.15
; min_print_speed = 10
