; generated by Slic3r 1.3.1-dev (Build (Unknown revision)) on 2022-12-16 at 11:54:16

; external perimeters extrusion width = 1.32mm (12.75mm^3/s)
; perimeters extrusion width = 1.26mm (12.03mm^3/s)
; infill extrusion width = 2.00mm (20.91mm^3/s)
; solid infill extrusion width = 2.00mm (41.82mm^3/s)
; top infill extrusion width = 1.26mm (18.04mm^3/s)

M107 ; disable fan
G92 E0 ; reset extrusion distance
M104 S200 ; set temperature
G28 ; home all axes
G1 Z5 F5000 ; lift nozzle

; Filament gcode

M109 S200 ; set temperature and wait for it to be reached
G21 ; set units to millimeters
G90 ; use absolute coordinates
M82 ; use absolute distances for extrusion
G92 E0 ; reset extrusion distance
G1 Z10.040 F1800.000 ; move to next layer (0)
G1 E-2.00000 F2400.00000 ; retract extruder 0
G92 E0 ; reset extrusion distance
G1 X167.842 Y219.787 F1800.000 ; move to first external small perimeter point
G1 E2.00000 F2400.00000 ; unretract extruder 0
G1 F600.000
G1 X168.010 Y220.009 E2.00042 ; external small perimeter
G1 X169.166 Y221.797 E2.00367 ; external small perimeter
G1 X169.917 Y222.843 E2.00563 ; external small perimeter
G1 X168.897 Y223.236 E2.00730 ; external small perimeter
G1 X168.349 Y223.409 E2.00818 ; external small perimeter
G1 X167.775 Y223.552 E2.00908 ; external small perimeter
G1 X167.180 Y223.663 E2.01000 ; external small perimeter
G1 X166.579 Y223.740 E2.01093 ; external small perimeter
G1 X165.977 Y223.781 E2.01185 ; external small perimeter
G1 X165.383 Y223.788 E2.01275 ; external small perimeter
G1 X164.790 Y223.760 E2.01366 ; external small perimeter
G1 X163.522 Y223.625 E2.01560 ; external small perimeter
G1 X163.927 Y222.804 E2.01700 ; external small perimeter
G1 X164.193 Y222.348 E2.01781 ; external small perimeter
G1 X164.512 Y221.875 E2.01867 ; external small perimeter
G1 X164.866 Y221.413 E2.01956 ; external small perimeter
G1 X165.237 Y220.982 E2.02043 ; external small perimeter
G1 X165.575 Y220.631 E2.02117 ; external small perimeter
G1 X165.929 Y220.304 E2.02191 ; external small perimeter
G1 X166.257 Y220.039 E2.02255 ; external small perimeter
G1 X166.552 Y219.835 E2.02310 ; external small perimeter
G1 X167.026 Y219.586 E2.02391 ; external small perimeter
G1 X167.508 Y219.424 E2.02469 ; external small perimeter
G1 X167.720 Y219.655 E2.02517 ; external small perimeter
G1 Z11.240 F1800.000 ; move to next layer (1)
G1 X167.546 Y219.164 F1800.000 ; move to first external small perimeter point
G1 F600.000
G1 X167.714 Y219.221 E2.02568 ; external small perimeter
G1 X167.945 Y219.397 E2.02652 ; external small perimeter
G1 X168.289 Y219.813 E2.02807 ; external small perimeter
G1 X169.448 Y221.605 E2.03423 ; external small perimeter
G1 X170.418 Y222.958 E2.03904 ; external small perimeter
G1 X169.545 Y223.351 E2.04180 ; external small perimeter
G1 X169.010 Y223.557 E2.04345 ; external small perimeter
G1 X168.441 Y223.736 E2.04518 ; external small perimeter
G1 X167.847 Y223.884 E2.04694 ; external small perimeter
G1 X167.232 Y223.999 E2.04875 ; external small perimeter
G1 X166.612 Y224.078 E2.05055 ; external small perimeter
G1 X165.991 Y224.121 E2.05235 ; external small perimeter
G1 X165.377 Y224.128 E2.05412 ; external small perimeter
G1 X164.764 Y224.099 E2.05589 ; external small perimeter
G1 X164.181 Y224.037 E2.05758 ; external small perimeter
G1 X163.607 Y223.940 E2.05926 ; external small perimeter
G1 X163.168 Y223.839 E2.06056 ; external small perimeter
G1 X163.321 Y223.323 E2.06212 ; external small perimeter
G1 X163.451 Y223.001 E2.06312 ; external small perimeter
G1 X163.628 Y222.643 E2.06427 ; external small perimeter
G1 X163.905 Y222.167 E2.06586 ; external small perimeter
G1 X164.236 Y221.677 E2.06757 ; external small perimeter
G1 X164.602 Y221.198 E2.06931 ; external small perimeter
G1 X164.985 Y220.753 E2.07100 ; external small perimeter
G1 X165.337 Y220.387 E2.07247 ; external small perimeter
G1 X165.707 Y220.047 E2.07392 ; external small perimeter
G1 X166.053 Y219.767 E2.07520 ; external small perimeter
G1 X166.370 Y219.547 E2.07631 ; external small perimeter
G1 X166.653 Y219.383 E2.07726 ; external small perimeter
G1 X166.901 Y219.270 E2.07805 ; external small perimeter
G1 X167.112 Y219.199 E2.07869 ; external small perimeter
G1 X167.367 Y219.158 E2.07943 ; external small perimeter
G1 X167.727 Y221.208 F1800.000 ; move to first infill point
G1 F600.000
G1 X166.659 Y220.140 E2.08801 ; infill
G1 X166.351 Y220.344 E2.09011 ; infill
G1 X166.080 Y220.564 E2.09209 ; infill
G1 X165.774 Y220.846 E2.09445 ; infill
G1 X165.477 Y221.154 E2.09688 ; infill
G1 X165.126 Y221.564 E2.09995 ; infill
G1 X166.807 Y223.245 E2.11345 ; infill
G1 X166.469 Y223.268 E2.11537 ; infill
G1 X165.732 Y223.264 E2.11955 ; infill
G1 X166.194 Y222.632 E2.12400 ; infill
G1 Z12.440 F1800.000 ; move to next layer (2)
G1 X167.546 Y219.164 F1800.000 ; move to first external small perimeter point
G1 F600.000
G1 X167.714 Y219.221 E2.12451 ; external small perimeter
G1 X167.945 Y219.397 E2.12535 ; external small perimeter
G1 X168.289 Y219.813 E2.12691 ; external small perimeter
G1 X169.448 Y221.605 E2.13307 ; external small perimeter
G1 X170.418 Y222.958 E2.13787 ; external small perimeter
G1 X169.545 Y223.351 E2.14063 ; external small perimeter
G1 X169.010 Y223.557 E2.14229 ; external small perimeter
G1 X168.441 Y223.736 E2.14401 ; external small perimeter
G1 X167.847 Y223.884 E2.14578 ; external small perimeter
G1 X167.232 Y223.999 E2.14758 ; external small perimeter
G1 X166.612 Y224.078 E2.14939 ; external small perimeter
G1 X165.991 Y224.121 E2.15118 ; external small perimeter
G1 X165.377 Y224.128 E2.15295 ; external small perimeter
G1 X164.764 Y224.099 E2.15473 ; external small perimeter
G1 X164.181 Y224.037 E2.15642 ; external small perimeter
G1 X163.607 Y223.940 E2.15810 ; external small perimeter
G1 X163.168 Y223.839 E2.15940 ; external small perimeter
G1 X163.321 Y223.323 E2.16095 ; external small perimeter
G1 X163.451 Y223.001 E2.16195 ; external small perimeter
G1 X163.628 Y222.643 E2.16311 ; external small perimeter
G1 X163.905 Y222.167 E2.16469 ; external small perimeter
G1 X164.236 Y221.677 E2.16640 ; external small perimeter
G1 X164.602 Y221.198 E2.16814 ; external small perimeter
G1 X164.985 Y220.753 E2.16984 ; external small perimeter
G1 X165.337 Y220.387 E2.17130 ; external small perimeter
G1 X165.707 Y220.047 E2.17275 ; external small perimeter
G1 X166.053 Y219.767 E2.17404 ; external small perimeter
G1 X166.370 Y219.547 E2.17515 ; external small perimeter
G1 X166.653 Y219.383 E2.17609 ; external small perimeter
G1 X166.901 Y219.270 E2.17688 ; external small perimeter
G1 X167.112 Y219.199 E2.17752 ; external small perimeter
G1 X167.367 Y219.158 E2.17827 ; external small perimeter
G1 X165.776 Y221.912 F1800.000 ; move to first infill point
G1 F600.000
G1 X166.844 Y220.844 E2.18672 ; infill
G1 X167.148 Y220.564 E2.18904 ; infill
G1 X167.419 Y220.344 E2.19099 ; infill
G1 X167.727 Y220.140 E2.19306 ; infill
G1 X168.802 Y221.802 E2.20415 ; infill
G1 X167.734 Y222.870 E2.21261 ; infill
M106 S255 ; enable fan
G1 Z13.640 F1800.000 ; move to next layer (3)
G1 X167.546 Y219.164 F1800.000 ; move to first external small perimeter point
G1 F600.000
G1 X167.714 Y219.221 E2.21312 ; external small perimeter
G1 X167.945 Y219.397 E2.21396 ; external small perimeter
G1 X168.289 Y219.813 E2.21552 ; external small perimeter
G1 X169.448 Y221.605 E2.22168 ; external small perimeter
G1 X170.418 Y222.958 E2.22648 ; external small perimeter
G1 X169.545 Y223.351 E2.22924 ; external small perimeter
G1 X169.010 Y223.557 E2.23090 ; external small perimeter
G1 X168.441 Y223.736 E2.23262 ; external small perimeter
G1 X167.847 Y223.884 E2.23439 ; external small perimeter
G1 X167.232 Y223.999 E2.23619 ; external small perimeter
G1 X166.612 Y224.078 E2.23799 ; external small perimeter
G1 X165.991 Y224.121 E2.23979 ; external small perimeter
G1 X165.377 Y224.128 E2.24156 ; external small perimeter
G1 X164.764 Y224.099 E2.24333 ; external small perimeter
G1 X164.181 Y224.037 E2.24502 ; external small perimeter
G1 X163.607 Y223.940 E2.24670 ; external small perimeter
G1 X163.168 Y223.839 E2.24801 ; external small perimeter
G1 X163.321 Y223.323 E2.24956 ; external small perimeter
G1 X163.451 Y223.001 E2.25056 ; external small perimeter
G1 X163.628 Y222.643 E2.25171 ; external small perimeter
G1 X163.905 Y222.167 E2.25330 ; external small perimeter
G1 X164.236 Y221.677 E2.25501 ; external small perimeter
G1 X164.602 Y221.198 E2.25675 ; external small perimeter
G1 X164.985 Y220.753 E2.25844 ; external small perimeter
G1 X165.337 Y220.387 E2.25991 ; external small perimeter
G1 X165.707 Y220.047 E2.26136 ; external small perimeter
G1 X166.053 Y219.767 E2.26264 ; external small perimeter
G1 X166.370 Y219.547 E2.26376 ; external small perimeter
G1 X166.653 Y219.383 E2.26470 ; external small perimeter
G1 X166.901 Y219.270 E2.26549 ; external small perimeter
G1 X167.112 Y219.199 E2.26613 ; external small perimeter
G1 X167.367 Y219.158 E2.26688 ; external small perimeter
G1 X167.727 Y221.208 F1800.000 ; move to first infill point
G1 F600.000
G1 X166.659 Y220.140 E2.27545 ; infill
G1 X166.351 Y220.344 E2.27755 ; infill
G1 X166.080 Y220.564 E2.27953 ; infill
G1 X165.774 Y220.846 E2.28190 ; infill
G1 X165.477 Y221.154 E2.28433 ; infill
G1 X165.126 Y221.564 E2.28739 ; infill
G1 X166.807 Y223.245 E2.30089 ; infill
G1 X166.469 Y223.268 E2.30281 ; infill
G1 X165.732 Y223.264 E2.30700 ; infill
G1 X166.194 Y222.632 E2.31144 ; infill
G1 Z14.840 F1800.000 ; move to next layer (4)
G1 X167.546 Y219.164 F1800.000 ; move to first external small perimeter point
G1 F600.000
G1 X167.714 Y219.221 E2.31196 ; external small perimeter
G1 X167.945 Y219.397 E2.31279 ; external small perimeter
G1 X168.289 Y219.813 E2.31435 ; external small perimeter
G1 X169.448 Y221.605 E2.32051 ; external small perimeter
G1 X170.418 Y222.958 E2.32531 ; external small perimeter
G1 X169.545 Y223.351 E2.32807 ; external small perimeter
G1 X169.010 Y223.557 E2.32973 ; external small perimeter
G1 X168.441 Y223.736 E2.33145 ; external small perimeter
G1 X167.847 Y223.884 E2.33322 ; external small perimeter
G1 X167.232 Y223.999 E2.33502 ; external small perimeter
G1 X166.612 Y224.078 E2.33683 ; external small perimeter
G1 X165.991 Y224.121 E2.33862 ; external small perimeter
G1 X165.377 Y224.128 E2.34040 ; external small perimeter
G1 X164.764 Y224.099 E2.34217 ; external small perimeter
G1 X164.181 Y224.037 E2.34386 ; external small perimeter
G1 X163.607 Y223.940 E2.34554 ; external small perimeter
G1 X163.168 Y223.839 E2.34684 ; external small perimeter
G1 X163.321 Y223.323 E2.34839 ; external small perimeter
G1 X163.451 Y223.001 E2.34940 ; external small perimeter
G1 X163.628 Y222.643 E2.35055 ; external small perimeter
G1 X163.905 Y222.167 E2.35214 ; external small perimeter
G1 X164.236 Y221.677 E2.35384 ; external small perimeter
G1 X164.602 Y221.198 E2.35558 ; external small perimeter
G1 X164.985 Y220.753 E2.35728 ; external small perimeter
G1 X165.337 Y220.387 E2.35874 ; external small perimeter
G1 X165.707 Y220.047 E2.36019 ; external small perimeter
G1 X166.053 Y219.767 E2.36148 ; external small perimeter
G1 X166.370 Y219.547 E2.36259 ; external small perimeter
G1 X166.653 Y219.383 E2.36354 ; external small perimeter
G1 X166.901 Y219.270 E2.36432 ; external small perimeter
G1 X167.112 Y219.199 E2.36496 ; external small perimeter
G1 X167.367 Y219.158 E2.36571 ; external small perimeter
G1 X165.776 Y221.912 F1800.000 ; move to first infill point
G1 F600.000
G1 X166.844 Y220.844 E2.37417 ; infill
G1 X167.148 Y220.564 E2.37648 ; infill
G1 X167.419 Y220.344 E2.37844 ; infill
G1 X167.727 Y220.140 E2.38051 ; infill
G1 X168.802 Y221.802 E2.39159 ; infill
G1 X167.734 Y222.870 E2.40005 ; infill
G1 Z16.040 F1800.000 ; move to next layer (5)
G1 X167.546 Y219.164 F1800.000 ; move to first external small perimeter point
G1 F600.000
G1 X167.714 Y219.221 E2.40057 ; external small perimeter
G1 X167.945 Y219.397 E2.40140 ; external small perimeter
G1 X168.289 Y219.813 E2.40296 ; external small perimeter
G1 X169.448 Y221.605 E2.40912 ; external small perimeter
G1 X170.418 Y222.958 E2.41392 ; external small perimeter
G1 X169.545 Y223.351 E2.41668 ; external small perimeter
G1 X169.010 Y223.557 E2.41834 ; external small perimeter
G1 X168.441 Y223.736 E2.42006 ; external small perimeter
G1 X167.847 Y223.884 E2.42183 ; external small perimeter
G1 X167.232 Y223.999 E2.42363 ; external small perimeter
G1 X166.612 Y224.078 E2.42544 ; external small perimeter
G1 X165.991 Y224.121 E2.42723 ; external small perimeter
G1 X165.377 Y224.128 E2.42901 ; external small perimeter
G1 X164.764 Y224.099 E2.43078 ; external small perimeter
G1 X164.181 Y224.037 E2.43247 ; external small perimeter
G1 X163.607 Y223.940 E2.43415 ; external small perimeter
G1 X163.168 Y223.839 E2.43545 ; external small perimeter
G1 X163.321 Y223.323 E2.43700 ; external small perimeter
G1 X163.451 Y223.001 E2.43800 ; external small perimeter
G1 X163.628 Y222.643 E2.43916 ; external small perimeter
G1 X163.905 Y222.167 E2.44074 ; external small perimeter
G1 X164.236 Y221.677 E2.44245 ; external small perimeter
G1 X164.602 Y221.198 E2.44419 ; external small perimeter
G1 X164.985 Y220.753 E2.44589 ; external small perimeter
G1 X165.337 Y220.387 E2.44735 ; external small perimeter
G1 X165.707 Y220.047 E2.44880 ; external small perimeter
G1 X166.053 Y219.767 E2.45009 ; external small perimeter
G1 X166.370 Y219.547 E2.45120 ; external small perimeter
G1 X166.653 Y219.383 E2.45214 ; external small perimeter
G1 X166.901 Y219.270 E2.45293 ; external small perimeter
G1 X167.112 Y219.199 E2.45357 ; external small perimeter
G1 X167.367 Y219.158 E2.45432 ; external small perimeter
G1 X167.727 Y221.208 F1800.000 ; move to first infill point
G1 F600.000
G1 X166.659 Y220.140 E2.46289 ; infill
G1 X166.351 Y220.344 E2.46499 ; infill
G1 X166.080 Y220.564 E2.46697 ; infill
G1 X165.774 Y220.846 E2.46934 ; infill
G1 X165.477 Y221.154 E2.47177 ; infill
G1 X165.126 Y221.564 E2.47483 ; infill
G1 X166.807 Y223.245 E2.48833 ; infill
G1 X166.469 Y223.268 E2.49025 ; infill
G1 X165.732 Y223.264 E2.49444 ; infill
G1 X166.194 Y222.632 E2.49889 ; infill
G1 Z17.240 F1800.000 ; move to next layer (6)
G1 X167.546 Y219.164 F1800.000 ; move to first external small perimeter point
G1 F600.000
G1 X167.714 Y219.221 E2.49940 ; external small perimeter
G1 X167.945 Y219.397 E2.50024 ; external small perimeter
G1 X168.289 Y219.813 E2.50179 ; external small perimeter
G1 X169.448 Y221.605 E2.50795 ; external small perimeter
G1 X170.418 Y222.958 E2.51275 ; external small perimeter
G1 X169.545 Y223.351 E2.51552 ; external small perimeter
G1 X169.010 Y223.557 E2.51717 ; external small perimeter
G1 X168.441 Y223.736 E2.51889 ; external small perimeter
G1 X167.847 Y223.884 E2.52066 ; external small perimeter
G1 X167.232 Y223.999 E2.52246 ; external small perimeter
G1 X166.612 Y224.078 E2.52427 ; external small perimeter
G1 X165.991 Y224.121 E2.52607 ; external small perimeter
G1 X165.377 Y224.128 E2.52784 ; external small perimeter
G1 X164.764 Y224.099 E2.52961 ; external small perimeter
G1 X164.181 Y224.037 E2.53130 ; external small perimeter
G1 X163.607 Y223.940 E2.53298 ; external small perimeter
G1 X163.168 Y223.839 E2.53428 ; external small perimeter
G1 X163.321 Y223.323 E2.53584 ; external small perimeter
G1 X163.451 Y223.001 E2.53684 ; external small perimeter
G1 X163.628 Y222.643 E2.53799 ; external small perimeter
G1 X163.905 Y222.167 E2.53958 ; external small perimeter
G1 X164.236 Y221.677 E2.54128 ; external small perimeter
G1 X164.602 Y221.198 E2.54302 ; external small perimeter
G1 X164.985 Y220.753 E2.54472 ; external small perimeter
G1 X165.337 Y220.387 E2.54618 ; external small perimeter
G1 X165.707 Y220.047 E2.54763 ; external small perimeter
G1 X166.053 Y219.767 E2.54892 ; external small perimeter
G1 X166.370 Y219.547 E2.55003 ; external small perimeter
G1 X166.653 Y219.383 E2.55098 ; external small perimeter
G1 X166.901 Y219.270 E2.55176 ; external small perimeter
