; generated by Slic3r 1.3.1-dev (Build (Unknown revision)) on 2022-12-16 at 11:54:16

; external perimeters extrusion width = 1.32mm (12.75mm^3/s)
; perimeters extrusion width = 1.26mm (12.03mm^3/s)
; infill extrusion width = 2.00mm (20.91mm^3/s)
; solid infill extrusion width = 2.00mm (41.82mm^3/s)
; top infill extrusion width = 1.26mm (18.04mm^3/s)

M107 ; disable fan
G92 E0 ; reset extrusion distance
M104 S200 ; set temperature
G28 ; home all axes
G1 Z5 F5000 ; lift nozzle

; Filament gcode

M109 S200 ; set temperature and wait for it to be reached
G21 ; set units to millimeters
G90 ; use absolute coordinates
M82 ; use absolute distances for extrusion
G92 E0 ; reset extrusion distance
G1 Z6.980 F1800.000 ; move to next layer (0)
G1 E-2.00000 F2400.00000 ; retract extruder 0
G92 E0 ; reset extrusion distance
G1 X167.251 Y230.423 F1800.000 ; move to first external small perimeter point
G1 E2.00000 F2400.00000 ; unretract extruder 0
G1 F600.000
G1 X168.104 Y230.134 E2.00172 ; external small perimeter
G1 X168.404 Y230.063 E2.00230 ; external small perimeter
G1 X168.762 Y230.010 E2.00299 ; external small perimeter
G1 X169.150 Y229.983 E2.00374 ; external small perimeter
G1 X169.552 Y229.984 E2.00450 ; external small perimeter
G1 X169.946 Y230.013 E2.00525 ; external small perimeter
G1 X170.473 Y230.096 E2.00627 ; external small perimeter
G1 X170.818 Y230.181 E2.00695 ; external small perimeter
G1 X171.136 Y230.284 E2.00759 ; external small perimeter
G1 X171.417 Y230.401 E2.00817 ; external small perimeter
G1 X171.867 Y230.659 E2.00915 ; external small perimeter
G1 X172.181 Y230.932 E2.00995 ; external small perimeter
G1 X172.415 Y231.252 E2.01070 ; external small perimeter
G1 X172.509 Y231.439 E2.01110 ; external small perimeter
G1 X172.629 Y231.830 E2.01188 ; external small perimeter
G1 X172.656 Y232.172 E2.01254 ; external small perimeter
G1 X172.611 Y232.593 E2.01334 ; external small perimeter
G1 X172.177 Y232.752 E2.01422 ; external small perimeter
G1 X171.985 Y232.798 E2.01460 ; external small perimeter
G1 X171.734 Y232.829 E2.01508 ; external small perimeter
G1 X171.438 Y232.837 E2.01565 ; external small perimeter
G1 X171.100 Y232.814 E2.01629 ; external small perimeter
G1 X170.733 Y232.759 E2.01700 ; external small perimeter
G1 X170.349 Y232.671 E2.01775 ; external small perimeter
G1 X169.961 Y232.551 E2.01853 ; external small perimeter
G1 X169.581 Y232.404 E2.01930 ; external small perimeter
G1 X169.218 Y232.233 E2.02007 ; external small perimeter
G1 X168.612 Y231.866 E2.02142 ; external small perimeter
G1 X168.327 Y231.648 E2.02210 ; external small perimeter
G1 X168.075 Y231.422 E2.02275 ; external small perimeter
G1 X167.866 Y231.200 E2.02333 ; external small perimeter
G1 X167.363 Y230.565 E2.02487 ; external small perimeter
G1 X169.247 Y231.048 F1800.000 ; move to first infill point
G1 F600.000
G1 X169.809 Y231.196 E2.02509 ; infill
G1 F600.000
G1 X170.066 Y231.275 E2.02521 ; infill
G1 F600.000
G1 X170.893 Y231.525 E2.02565 ; infill
G1 F600.000
G1 X171.053 Y231.580 E2.02573 ; infill
G1 F600.000
G1 X171.181 Y231.628 E2.02578 ; infill
G1 F600.000
G1 X171.278 Y231.667 E2.02582 ; infill
G1 F600.000
G1 X171.351 Y231.699 E2.02584 ; infill
G1 F600.000
G1 X171.661 Y231.859 E2.02592 ; infill
G1 X171.510 Y231.630 F1800.000 ; move to first infill point
G1 F600.000
G1 X169.252 Y231.031 E2.02649 ; infill
G1 Z8.180 F1800.000 ; move to next layer (1)
G1 X167.180 Y230.257 F1800.000 ; move to first external small perimeter point
G1 F600.000
G1 X167.365 Y230.090 E2.02739 ; external small perimeter
G1 X167.720 Y229.905 E2.02884 ; external small perimeter
G1 X168.010 Y229.807 E2.02994 ; external small perimeter
G1 X168.340 Y229.729 E2.03117 ; external small perimeter
G1 X168.725 Y229.671 E2.03257 ; external small perimeter
G1 X169.139 Y229.643 E2.03407 ; external small perimeter
G1 X169.565 Y229.644 E2.03560 ; external small perimeter
G1 X169.985 Y229.675 E2.03712 ; external small perimeter
G1 X170.540 Y229.763 E2.03915 ; external small perimeter
G1 X170.911 Y229.854 E2.04053 ; external small perimeter
G1 X171.254 Y229.965 E2.04183 ; external small perimeter
G1 X171.561 Y230.093 E2.04303 ; external small perimeter
G1 X171.830 Y230.233 E2.04412 ; external small perimeter
G1 X172.064 Y230.382 E2.04512 ; external small perimeter
G1 X172.262 Y230.537 E2.04603 ; external small perimeter
G1 X172.431 Y230.700 E2.04688 ; external small perimeter
G1 X172.578 Y230.878 E2.04771 ; external small perimeter
G1 X172.711 Y231.083 E2.04859 ; external small perimeter
G1 X172.821 Y231.304 E2.04948 ; external small perimeter
G1 X172.906 Y231.535 E2.05037 ; external small perimeter
G1 X172.963 Y231.766 E2.05123 ; external small perimeter
G1 X172.996 Y232.187 E2.05275 ; external small perimeter
G1 X172.978 Y232.357 E2.05337 ; external small perimeter
G1 X172.928 Y232.547 E2.05408 ; external small perimeter
G1 X172.822 Y232.740 E2.05487 ; external small perimeter
G1 X172.712 Y232.854 E2.05544 ; external small perimeter
G1 X172.600 Y232.935 E2.05594 ; external small perimeter
G1 X172.275 Y233.078 E2.05722 ; external small perimeter
G1 X172.046 Y233.133 E2.05807 ; external small perimeter
G1 X171.760 Y233.169 E2.05911 ; external small perimeter
G1 X171.431 Y233.177 E2.06030 ; external small perimeter
G1 X171.064 Y233.153 E2.06163 ; external small perimeter
G1 X170.669 Y233.094 E2.06306 ; external small perimeter
G1 X170.260 Y232.999 E2.06458 ; external small perimeter
G1 X169.849 Y232.872 E2.06613 ; external small perimeter
G1 X169.447 Y232.716 E2.06769 ; external small perimeter
G1 X169.063 Y232.535 E2.06922 ; external small perimeter
G1 X168.748 Y232.360 E2.07052 ; external small perimeter
G1 X168.416 Y232.144 E2.07195 ; external small perimeter
G1 X168.110 Y231.910 E2.07334 ; external small perimeter
G1 X167.838 Y231.665 E2.07466 ; external small perimeter
G1 X167.609 Y231.423 E2.07586 ; external small perimeter
G1 X167.417 Y231.181 E2.07698 ; external small perimeter
G1 X167.191 Y230.792 E2.07860 ; external small perimeter
G1 X167.136 Y230.643 E2.07917 ; external small perimeter
G1 X167.102 Y230.413 E2.08001 ; external small perimeter
G1 Z9.380 F1800.000 ; move to next layer (2)
G1 X167.180 Y230.257 F1800.000 ; move to first external small perimeter point
G1 F600.000
G1 X167.365 Y230.090 E2.08091 ; external small perimeter
G1 X167.720 Y229.905 E2.08236 ; external small perimeter
G1 X168.010 Y229.807 E2.08346 ; external small perimeter
G1 X168.340 Y229.729 E2.08468 ; external small perimeter
G1 X168.725 Y229.671 E2.08609 ; external small perimeter
G1 X169.139 Y229.643 E2.08758 ; external small perimeter
G1 X169.565 Y229.644 E2.08912 ; external small perimeter
G1 X169.985 Y229.675 E2.09064 ; external small perimeter
G1 X170.540 Y229.763 E2.09267 ; external small perimeter
G1 X170.911 Y229.854 E2.09405 ; external small perimeter
G1 X171.254 Y229.965 E2.09535 ; external small perimeter
G1 X171.561 Y230.093 E2.09654 ; external small perimeter
G1 X171.830 Y230.233 E2.09764 ; external small perimeter
G1 X172.064 Y230.382 E2.09864 ; external small perimeter
G1 X172.262 Y230.537 E2.09955 ; external small perimeter
G1 X172.431 Y230.700 E2.10040 ; external small perimeter
G1 X172.578 Y230.878 E2.10123 ; external small perimeter
G1 X172.711 Y231.083 E2.10211 ; external small perimeter
G1 X172.821 Y231.304 E2.10300 ; external small perimeter
G1 X172.906 Y231.535 E2.10389 ; external small perimeter
G1 X172.963 Y231.766 E2.10475 ; external small perimeter
G1 X172.996 Y232.187 E2.10627 ; external small perimeter
G1 X172.978 Y232.357 E2.10688 ; external small perimeter
G1 X172.928 Y232.547 E2.10759 ; external small perimeter
G1 X172.822 Y232.740 E2.10839 ; external small perimeter
G1 X172.712 Y232.854 E2.10896 ; external small perimeter
G1 X172.600 Y232.935 E2.10946 ; external small perimeter
G1 X172.275 Y233.078 E2.11074 ; external small perimeter
G1 X172.046 Y233.133 E2.11159 ; external small perimeter
G1 X171.760 Y233.169 E2.11263 ; external small perimeter
G1 X171.431 Y233.177 E2.11382 ; external small perimeter
G1 X171.064 Y233.153 E2.11514 ; external small perimeter
G1 X170.669 Y233.094 E2.11658 ; external small perimeter
G1 X170.260 Y232.999 E2.11810 ; external small perimeter
G1 X169.849 Y232.872 E2.11965 ; external small perimeter
G1 X169.447 Y232.716 E2.12120 ; external small perimeter
G1 X169.063 Y232.535 E2.12274 ; external small perimeter
G1 X168.748 Y232.360 E2.12404 ; external small perimeter
G1 X168.416 Y232.144 E2.12546 ; external small perimeter
G1 X168.110 Y231.910 E2.12686 ; external small perimeter
G1 X167.838 Y231.665 E2.12818 ; external small perimeter
G1 X167.609 Y231.423 E2.12938 ; external small perimeter
G1 X167.417 Y231.181 E2.13049 ; external small perimeter
G1 X167.191 Y230.792 E2.13212 ; external small perimeter
G1 X167.136 Y230.643 E2.13269 ; external small perimeter
G1 X167.102 Y230.413 E2.13353 ; external small perimeter
G1 X168.752 Y231.589 F1800.000 ; move to first infill point
G1 F600.000
G1 X169.845 Y230.497 E2.14449 ; infill
G1 X170.978 Y232.321 F1800.000 ; move to first infill point
G1 F600.000
G1 X172.045 Y231.253 E2.15521 ; infill
M106 S255 ; enable fan
G1 Z10.580 F1800.000 ; move to next layer (3)
G1 X167.180 Y230.257 F1800.000 ; move to first external small perimeter point
G1 F600.000
G1 X167.365 Y230.090 E2.15611 ; external small perimeter
G1 X167.720 Y229.905 E2.15756 ; external small perimeter
G1 X168.010 Y229.807 E2.15866 ; external small perimeter
G1 X168.340 Y229.729 E2.15988 ; external small perimeter
G1 X168.725 Y229.671 E2.16129 ; external small perimeter
G1 X169.139 Y229.643 E2.16278 ; external small perimeter
G1 X169.565 Y229.644 E2.16432 ; external small perimeter
G1 X169.985 Y229.675 E2.16584 ; external small perimeter
G1 X170.540 Y229.763 E2.16787 ; external small perimeter
G1 X170.911 Y229.854 E2.16925 ; external small perimeter
G1 X171.254 Y229.965 E2.17055 ; external small perimeter
G1 X171.561 Y230.093 E2.17175 ; external small perimeter
G1 X171.830 Y230.233 E2.17284 ; external small perimeter
G1 X172.064 Y230.382 E2.17384 ; external small perimeter
G1 X172.262 Y230.537 E2.17475 ; external small perimeter
G1 X172.431 Y230.700 E2.17560 ; external small perimeter
G1 X172.578 Y230.878 E2.17643 ; external small perimeter
G1 X172.711 Y231.083 E2.17731 ; external small perimeter
G1 X172.821 Y231.304 E2.17820 ; external small perimeter
G1 X172.906 Y231.535 E2.17909 ; external small perimeter
G1 X172.963 Y231.766 E2.17995 ; external small perimeter
G1 X172.996 Y232.187 E2.18147 ; external small perimeter
G1 X172.978 Y232.357 E2.18209 ; external small perimeter
G1 X172.928 Y232.547 E2.18280 ; external small perimeter
G1 X172.822 Y232.740 E2.18359 ; external small perimeter
G1 X172.712 Y232.854 E2.18416 ; external small perimeter
G1 X172.600 Y232.935 E2.18466 ; external small perimeter
G1 X172.275 Y233.078 E2.18594 ; external small perimeter
G1 X172.046 Y233.133 E2.18679 ; external small perimeter
G1 X171.760 Y233.169 E2.18783 ; external small perimeter
G1 X171.431 Y233.177 E2.18902 ; external small perimeter
G1 X171.064 Y233.153 E2.19034 ; external small perimeter
G1 X170.669 Y233.094 E2.19178 ; external small perimeter
G1 X170.260 Y232.999 E2.19330 ; external small perimeter
G1 X169.849 Y232.872 E2.19485 ; external small perimeter
G1 X169.447 Y232.716 E2.19641 ; external small perimeter
G1 X169.063 Y232.535 E2.19794 ; external small perimeter
G1 X168.748 Y232.360 E2.19924 ; external small perimeter
G1 X168.416 Y232.144 E2.20067 ; external small perimeter
G1 X168.110 Y231.910 E2.20206 ; external small perimeter
G1 X167.838 Y231.665 E2.20338 ; external small perimeter
G1 X167.609 Y231.423 E2.20458 ; external small perimeter
G1 X167.417 Y231.181 E2.20569 ; external small perimeter
G1 X167.191 Y230.792 E2.20732 ; external small perimeter
G1 X167.136 Y230.643 E2.20789 ; external small perimeter
G1 X167.102 Y230.413 E2.20873 ; external small perimeter
G1 Z11.780 F1800.000 ; move to next layer (4)
G1 X167.180 Y230.257 F1800.000 ; move to first external small perimeter point
G1 F600.000
G1 X167.365 Y230.090 E2.20963 ; external small perimeter
G1 X167.720 Y229.905 E2.21107 ; external small perimeter
G1 X168.010 Y229.807 E2.21218 ; external small perimeter
G1 X168.340 Y229.729 E2.21340 ; external small perimeter
G1 X168.725 Y229.671 E2.21481 ; external small perimeter
G1 X169.139 Y229.643 E2.21630 ; external small perimeter
G1 X169.565 Y229.644 E2.21784 ; external small perimeter
G1 X169.985 Y229.675 E2.21936 ; external small perimeter
G1 X170.540 Y229.763 E2.22139 ; external small perimeter
G1 X170.911 Y229.854 E2.22276 ; external small perimeter
G1 X171.254 Y229.965 E2.22406 ; external small perimeter
G1 X171.561 Y230.093 E2.22526 ; external small perimeter
G1 X171.830 Y230.233 E2.22636 ; external small perimeter
G1 X172.064 Y230.382 E2.22736 ; external small perimeter
G1 X172.262 Y230.537 E2.22826 ; external small perimeter
G1 X172.431 Y230.700 E2.22911 ; external small perimeter
G1 X172.578 Y230.878 E2.22995 ; external small perimeter
G1 X172.711 Y231.083 E2.23083 ; external small perimeter
G1 X172.821 Y231.304 E2.23172 ; external small perimeter
G1 X172.906 Y231.535 E2.23261 ; external small perimeter
G1 X172.963 Y231.766 E2.23347 ; external small perimeter
G1 X172.996 Y232.187 E2.23499 ; external small perimeter
G1 X172.978 Y232.357 E2.23560 ; external small perimeter
G1 X172.928 Y232.547 E2.23631 ; external small perimeter
G1 X172.822 Y232.740 E2.23711 ; external small perimeter
G1 X172.712 Y232.854 E2.23768 ; external small perimeter
G1 X172.600 Y232.935 E2.23818 ; external small perimeter
G1 X172.275 Y233.078 E2.23946 ; external small perimeter
G1 X172.046 Y233.133 E2.24031 ; external small perimeter
G1 X171.760 Y233.169 E2.24135 ; external small perimeter
G1 X171.431 Y233.177 E2.24254 ; external small perimeter
G1 X171.064 Y233.153 E2.24386 ; external small perimeter
G1 X170.669 Y233.094 E2.24530 ; external small perimeter
G1 X170.260 Y232.999 E2.24682 ; external small perimeter
G1 X169.849 Y232.872 E2.24837 ; external small perimeter
G1 X169.447 Y232.716 E2.24992 ; external small perimeter
G1 X169.063 Y232.535 E2.25145 ; external small perimeter
G1 X168.748 Y232.360 E2.25275 ; external small perimeter
G1 X168.416 Y232.144 E2.25418 ; external small perimeter
G1 X168.110 Y231.910 E2.25557 ; external small perimeter
G1 X167.838 Y231.665 E2.25690 ; external small perimeter
G1 X167.609 Y231.423 E2.25810 ; external small perimeter
G1 X167.417 Y231.181 E2.25921 ; external small perimeter
G1 X167.191 Y230.792 E2.26083 ; external small perimeter
G1 X167.136 Y230.643 E2.26141 ; external small perimeter
G1 X167.102 Y230.413 E2.26225 ; external small perimeter
G1 X168.752 Y231.589 F1800.000 ; move to first infill point
G1 F600.000
G1 X169.845 Y230.497 E2.27321 ; infill
G1 X170.978 Y232.321 F1800.000 ; move to first infill point
G1 F600.000
G1 X172.045 Y231.253 E2.28393 ; infill
G1 Z12.980 F1800.000 ; move to next layer (5)
G1 X167.180 Y230.257 F1800.000 ; move to first external small perimeter point
G1 F600.000
G1 X167.365 Y230.090 E2.28483 ; external small perimeter
G1 X167.720 Y229.905 E2.28628 ; external small perimeter
G1 X168.010 Y229.807 E2.28738 ; external small perimeter
G1 X168.340 Y229.729 E2.28860 ; external small perimeter
G1 X168.725 Y229.671 E2.29001 ; external small perimeter
G1 X169.139 Y229.643 E2.29150 ; external small perimeter
G1 X169.565 Y229.644 E2.29304 ; external small perimeter
G1 X169.985 Y229.675 E2.29456 ; external small perimeter
G1 X170.540 Y229.763 E2.29659 ; external small perimeter
G1 X170.911 Y229.854 E2.29797 ; external small perimeter
G1 X171.254 Y229.965 E2.29927 ; external small perimeter
G1 X171.561 Y230.093 E2.30046 ; external small perimeter
G1 X171.830 Y230.233 E2.30156 ; external small perimeter
G1 X172.064 Y230.382 E2.30256 ; external small perimeter
G1 X172.262 Y230.537 E2.30347 ; external small perimeter
G1 X172.431 Y230.700 E2.30432 ; external small perimeter
G1 X172.578 Y230.878 E2.30515 ; external small perimeter
