; generated by Slic3r 1.3.1-dev (Build (Unknown revision)) on 2022-09-17 at 14:55:47

; external perimeters extrusion width = 1.32mm (12.75mm^3/s)
; perimeters extrusion width = 1.26mm (12.03mm^3/s)
; infill extrusion width = 2.00mm (20.91mm^3/s)
; solid infill extrusion width = 2.00mm (41.82mm^3/s)
; top infill extrusion width = 1.26mm (18.04mm^3/s)

M107 ; disable fan
G92 E0 ; reset extrusion distance
M104 S200 ; set temperature
G28 ; home all axes
G1 Z5 F5000 ; lift nozzle

; Filament gcode

M109 S200 ; set temperature and wait for it to be reached
G21 ; set units to millimeters
G90 ; use absolute coordinates
M82 ; use absolute distances for extrusion
G92 E0 ; reset extrusion distance
G1 Z4.550 F1800.000 ; move to next layer (0)
G1 E-2.00000 F2400.00000 ; retract extruder 0
G92 E0 ; reset extrusion distance
G1 X168.499 Y185.288 F1800.000 ; move to first external perimeter point
G1 E2.00000 F2400.00000 ; unretract extruder 0
G1 F600.000
G1 X185.000 Y179.927 E2.03638 ; external perimeter
G1 X201.501 Y185.288 E2.07276 ; external perimeter
G1 X211.699 Y199.325 E2.10914 ; external perimeter
G1 X211.699 Y216.675 E2.14552 ; external perimeter
G1 X201.501 Y230.712 E2.18190 ; external perimeter
G1 X185.000 Y236.073 E2.21828 ; external perimeter
G1 X168.499 Y230.712 E2.25466 ; external perimeter
G1 X158.301 Y216.675 E2.29104 ; external perimeter
G1 X158.301 Y199.325 E2.32742 ; external perimeter
G1 X168.393 Y185.434 E2.36343 ; external perimeter
G1 E0.36343 F2400.00000 ; retract extruder 0
G92 E0 ; reset extrusion distance
G1 X170.438 Y186.177 F1800.000 ; move to first infill point
G1 E2.00000 F2400.00000 ; unretract extruder 0
G1 F600.000
G1 X168.940 Y187.675 E2.00457 ; infill
G1 X161.503 Y197.910 E2.03184 ; infill
G1 X174.584 Y184.830 E2.07172 ; infill
G1 X178.730 Y183.483 E2.08112 ; infill
G1 X159.477 Y202.735 E2.13982 ; infill
G1 X159.477 Y205.534 E2.14585 ; infill
G1 X182.876 Y182.136 E2.21719 ; infill
G1 X185.749 Y181.202 E2.22371 ; infill
G1 X186.397 Y181.413 E2.22518 ; infill
G1 X159.477 Y208.333 E2.30725 ; infill
G1 X159.477 Y211.132 E2.31329 ; infill
G1 X188.510 Y182.099 E2.40180 ; infill
G1 X190.622 Y182.786 E2.40659 ; infill
G1 X159.477 Y213.931 E2.50155 ; infill
G1 X159.477 Y216.730 E2.50758 ; infill
G1 X192.735 Y183.472 E2.60898 ; infill
G1 X194.847 Y184.158 E2.61377 ; infill
G1 X160.626 Y218.380 E2.71811 ; infill
G1 X161.804 Y220.001 E2.72243 ; infill
G1 X196.960 Y184.845 E2.82961 ; infill
G1 X199.072 Y185.531 E2.83440 ; infill
G1 X162.982 Y221.622 E2.94444 ; infill
G1 X164.159 Y223.243 E2.94876 ; infill
G1 X201.129 Y186.273 E3.06148 ; infill
G1 X202.307 Y187.894 E3.06580 ; infill
G1 X165.337 Y224.864 E3.17852 ; infill
G1 X166.515 Y226.485 E3.18284 ; infill
G1 X203.485 Y189.515 E3.29555 ; infill
G1 X204.663 Y191.136 E3.29987 ; infill
G1 X167.693 Y228.106 E3.41259 ; infill
G1 X168.871 Y229.727 E3.41691 ; infill
G1 X205.841 Y192.757 E3.52963 ; infill
G1 X207.018 Y194.378 E3.53395 ; infill
G1 X170.928 Y230.469 E3.64399 ; infill
G1 X173.040 Y231.155 E3.64877 ; infill
G1 X208.196 Y195.999 E3.75596 ; infill
G1 X209.374 Y197.620 E3.76028 ; infill
G1 X175.153 Y231.842 E3.86462 ; infill
G1 X177.265 Y232.528 E3.86941 ; infill
G1 X210.523 Y199.270 E3.97080 ; infill
G1 X210.523 Y202.069 E3.97684 ; infill
G1 X179.378 Y233.214 E4.07180 ; infill
G1 X181.490 Y233.901 E4.07659 ; infill
G1 X210.523 Y204.868 E4.16510 ; infill
G1 X210.523 Y207.667 E4.17114 ; infill
G1 X183.603 Y234.587 E4.25321 ; infill
G1 X184.251 Y234.798 E4.25468 ; infill
G1 X187.125 Y233.864 E4.26120 ; infill
G1 X210.523 Y210.466 E4.33254 ; infill
G1 X210.523 Y213.265 E4.33857 ; infill
G1 X191.271 Y232.517 E4.39727 ; infill
G1 X195.417 Y231.170 E4.40667 ; infill
G1 X208.497 Y218.090 E4.44655 ; infill
G1 X201.060 Y228.325 E4.47382 ; infill
G1 X199.563 Y229.823 E4.47839 ; infill
G1 Z5.750 F1800.000 ; move to next layer (1)
G1 E2.47839 F2400.00000 ; retract extruder 0
G92 E0 ; reset extrusion distance
G1 X168.224 Y185.088 F1800.000 ; move to first external perimeter point
G1 E2.00000 F2400.00000 ; unretract extruder 0
G1 F600.000
G1 X168.289 Y184.999 E2.00044 ; external perimeter
G1 X185.000 Y179.569 E2.07016 ; external perimeter
G1 X201.711 Y184.999 E2.13989 ; external perimeter
G1 X212.039 Y199.214 E2.20961 ; external perimeter
G1 X212.039 Y216.786 E2.27934 ; external perimeter
G1 X201.711 Y231.001 E2.34906 ; external perimeter
G1 X185.000 Y236.431 E2.41879 ; external perimeter
G1 X168.289 Y231.001 E2.48852 ; external perimeter
G1 X157.961 Y216.786 E2.55824 ; external perimeter
G1 X157.961 Y199.214 E2.62797 ; external perimeter
G1 X168.118 Y185.234 E2.69654 ; external perimeter
G1 X196.730 Y192.783 F1800.000 ; move to first infill point
G1 F900.000
G1 X195.950 Y192.002 E2.70067 ; infill
G1 X193.849 Y191.320 E2.70895 ; infill
G1 X200.498 Y197.969 E2.74417 ; infill
G1 X203.738 Y202.428 E2.76481 ; infill
G1 X203.738 Y202.627 E2.76556 ; infill
G1 X191.748 Y190.637 E2.82907 ; infill
G1 X189.647 Y189.955 E2.83734 ; infill
G1 X203.738 Y204.045 E2.91198 ; infill
G1 X203.738 Y205.464 E2.91729 ; infill
G1 X187.546 Y189.272 E3.00306 ; infill
G1 X185.445 Y188.589 E3.01134 ; infill
G1 X203.738 Y206.882 E3.10823 ; infill
G1 X203.738 Y208.300 E3.11354 ; infill
G1 X183.965 Y188.528 E3.21828 ; infill
G1 X182.895 Y188.875 E3.22249 ; infill
G1 X203.738 Y209.719 E3.33290 ; infill
G1 X203.738 Y211.137 E3.33821 ; infill
G1 X181.824 Y189.223 E3.45429 ; infill
G1 X180.754 Y189.571 E3.45850 ; infill
G1 X203.738 Y212.555 E3.58025 ; infill
G1 X203.738 Y213.973 E3.58556 ; infill
G1 X179.683 Y189.919 E3.71298 ; infill
G1 X178.613 Y190.267 E3.71719 ; infill
G1 X203.300 Y214.954 E3.84796 ; infill
G1 X202.703 Y215.775 E3.85177 ; infill
G1 X177.542 Y190.614 E3.98504 ; infill
G1 X176.472 Y190.962 E3.98926 ; infill
G1 X202.106 Y216.597 E4.12504 ; infill
G1 X201.510 Y217.418 E4.12885 ; infill
G1 X175.401 Y191.310 E4.26714 ; infill
G1 X174.331 Y191.658 E4.27136 ; infill
G1 X200.913 Y218.240 E4.41216 ; infill
G1 X200.316 Y219.061 E4.41596 ; infill
G1 X173.265 Y192.010 E4.55925 ; infill
G1 X172.668 Y192.832 E4.56306 ; infill
G1 X199.719 Y219.883 E4.70635 ; infill
G1 X199.122 Y220.704 E4.71015 ; infill
G1 X172.071 Y193.653 E4.85344 ; infill
G1 X171.475 Y194.474 E4.85724 ; infill
G1 X198.525 Y221.525 E5.00053 ; infill
G1 X197.929 Y222.347 E5.00433 ; infill
G1 X170.878 Y195.296 E5.14762 ; infill
G1 X170.281 Y196.117 E5.15142 ; infill
G1 X197.332 Y223.168 E5.29471 ; infill
G1 X196.735 Y223.990 E5.29852 ; infill
G1 X169.684 Y196.939 E5.44180 ; infill
G1 X169.087 Y197.760 E5.44561 ; infill
G1 X195.669 Y224.342 E5.58641 ; infill
G1 X194.599 Y224.690 E5.59063 ; infill
G1 X168.490 Y198.582 E5.72892 ; infill
G1 X167.894 Y199.403 E5.73272 ; infill
G1 X193.528 Y225.038 E5.86851 ; infill
G1 X192.458 Y225.385 E5.87273 ; infill
G1 X167.297 Y200.225 E6.00600 ; infill
G1 X166.700 Y201.046 E6.00981 ; infill
G1 X191.387 Y225.733 E6.14057 ; infill
G1 X190.317 Y226.081 E6.14479 ; infill
G1 X166.262 Y202.027 E6.27221 ; infill
G1 X166.262 Y203.445 E6.27752 ; infill
G1 X189.246 Y226.429 E6.39926 ; infill
G1 X188.176 Y226.777 E6.40348 ; infill
G1 X166.262 Y204.863 E6.51956 ; infill
G1 X166.262 Y206.281 E6.52487 ; infill
G1 X187.105 Y227.125 E6.63527 ; infill
G1 X186.035 Y227.472 E6.63949 ; infill
G1 X166.262 Y207.700 E6.74423 ; infill
G1 X166.262 Y209.118 E6.74954 ; infill
G1 X184.555 Y227.411 E6.84643 ; infill
G1 X182.454 Y226.728 E6.85471 ; infill
G1 X166.262 Y210.536 E6.94048 ; infill
G1 X166.262 Y211.955 E6.94579 ; infill
G1 X180.353 Y226.045 E7.02043 ; infill
G1 X178.252 Y225.363 E7.02870 ; infill
G1 X166.262 Y213.373 E7.09221 ; infill
G1 X166.262 Y213.572 E7.09296 ; infill
G1 X169.502 Y218.031 E7.11360 ; infill
G1 X176.151 Y224.680 E7.14882 ; infill
G1 X174.051 Y223.998 E7.15710 ; infill
G1 X173.270 Y223.217 E7.16123 ; infill
G1 X174.256 Y224.884 F1800.000 ; move to first infill point
G1 F1200.000
G1 X184.562 Y235.190 E7.25791 ; infill
G1 X185.534 Y235.506 E7.26468 ; infill
G1 X186.934 Y235.050 E7.27445 ; infill
G1 X177.977 Y226.093 E7.35848 ; infill
G1 X181.697 Y227.302 E7.38442 ; infill
G1 X188.830 Y234.435 E7.45133 ; infill
G1 X190.726 Y233.819 E7.46455 ; infill
G1 X184.951 Y228.044 E7.51872 ; infill
G1 X186.847 Y227.428 E7.53194 ; infill
G1 X192.621 Y233.203 E7.58611 ; infill
G1 X194.517 Y232.587 E7.59933 ; infill
G1 X188.742 Y226.812 E7.65350 ; infill
G1 X190.638 Y226.196 E7.66672 ; infill
G1 X196.413 Y231.971 E7.72089 ; infill
G1 X198.308 Y231.355 E7.73411 ; infill
G1 X192.534 Y225.580 E7.78828 ; infill
G1 X194.429 Y224.964 E7.80150 ; infill
G1 X200.204 Y230.739 E7.85567 ; infill
G1 X201.387 Y230.354 E7.86392 ; infill
G1 X201.785 Y229.808 E7.86841 ; infill
G1 X196.325 Y224.348 E7.91962 ; infill
G1 X196.654 Y224.241 E7.92191 ; infill
G1 X197.528 Y223.039 E7.93177 ; infill
G1 X202.841 Y228.353 E7.98162 ; infill
G1 X203.898 Y226.898 E7.99354 ; infill
G1 X198.584 Y221.584 E8.04339 ; infill
G1 X199.641 Y220.130 E8.05532 ; infill
G1 X204.955 Y225.444 E8.10516 ; infill
G1 X206.012 Y223.989 E8.11709 ; infill
G1 X200.698 Y218.675 E8.16694 ; infill
G1 X201.755 Y217.220 E8.17886 ; infill
G1 X207.069 Y222.534 E8.22871 ; infill
G1 X208.126 Y221.080 E8.24064 ; infill
G1 X202.812 Y215.766 E8.29049 ; infill
G1 X203.869 Y214.311 E8.30241 ; infill
G1 X209.183 Y219.625 E8.35226 ; infill
G1 X210.240 Y218.170 E8.36419 ; infill
G1 X204.187 Y212.117 E8.42097 ; infill
G1 X204.187 Y209.605 E8.43763 ; infill
G1 X211.185 Y216.604 E8.50328 ; infill
G1 X211.185 Y214.093 E8.51994 ; infill
G1 X204.187 Y207.094 E8.58559 ; infill
G1 X204.187 Y204.582 E8.60225 ; infill
G1 X211.185 Y211.581 E8.66790 ; infill
G1 X211.185 Y209.069 E8.68456 ; infill
G1 X204.187 Y202.070 E8.75022 ; infill
G1 X204.187 Y201.059 E8.75693 ; infill
G1 X200.202 Y195.574 E8.80189 ; infill
G1 X211.185 Y206.558 E8.90493 ; infill
G1 X211.185 Y204.046 E8.92159 ; infill
G1 X189.158 Y182.019 E9.12821 ; infill
G1 X192.879 Y183.228 E9.15416 ; infill
G1 X211.185 Y201.535 E9.32588 ; infill
G1 X211.185 Y200.199 E9.33474 ; infill
G1 X208.061 Y195.898 E9.37000 ; infill
G1 X196.599 Y184.437 E9.47752 ; infill
G1 X200.320 Y185.646 E9.50346 ; infill
G1 X201.388 Y186.714 E9.51348 ; infill
G1 X195.744 Y191.116 F1800.000 ; move to first infill point
G1 F1200.000
G1 X185.438 Y180.810 E9.61016 ; infill
G1 X184.466 Y180.494 E9.61693 ; infill
G1 X183.066 Y180.950 E9.62670 ; infill
G1 X192.023 Y189.907 E9.71073 ; infill
G1 X188.303 Y188.698 E9.73668 ; infill
G1 X181.170 Y181.565 E9.80358 ; infill
G1 X179.274 Y182.181 E9.81680 ; infill
G1 X185.049 Y187.956 E9.87097 ; infill
G1 X183.153 Y188.572 E9.88419 ; infill
G1 X177.379 Y182.797 E9.93836 ; infill
G1 X175.483 Y183.413 E9.95158 ; infill
G1 X181.258 Y189.188 E10.00575 ; infill
G1 X179.362 Y189.804 E10.01897 ; infill
G1 X173.587 Y184.029 E10.07314 ; infill
G1 X171.692 Y184.645 E10.08636 ; infill
G1 X177.466 Y190.420 E10.14053 ; infill
G1 X175.571 Y191.036 E10.15375 ; infill
G1 X169.796 Y185.261 E10.20792 ; infill
G1 X168.613 Y185.646 E10.21618 ; infill
G1 X168.215 Y186.192 E10.22066 ; infill
G1 X173.675 Y191.652 E10.27187 ; infill
G1 X173.346 Y191.759 E10.27417 ; infill
G1 X172.472 Y192.961 E10.28402 ; infill
G1 X167.159 Y187.647 E10.33387 ; infill
G1 X166.102 Y189.102 E10.34580 ; infill
G1 X171.416 Y194.416 E10.39564 ; infill
G1 X170.359 Y195.870 E10.40757 ; infill
G1 X165.045 Y190.556 E10.45742 ; infill
G1 X163.988 Y192.011 E10.46934 ; infill
G1 X169.302 Y197.325 E10.51919 ; infill
G1 X168.245 Y198.780 E10.53112 ; infill
G1 X162.931 Y193.466 E10.58096 ; infill
G1 X161.874 Y194.920 E10.59289 ; infill
G1 X167.188 Y200.234 E10.64274 ; infill
G1 X166.131 Y201.689 E10.65466 ; infill
G1 X160.817 Y196.375 E10.70451 ; infill
G1 X159.760 Y197.830 E10.71644 ; infill
G1 X165.813 Y203.883 E10.77322 ; infill
G1 X165.813 Y206.395 E10.78988 ; infill
G1 X158.815 Y199.396 E10.85553 ; infill
G1 X158.815 Y201.907 E10.87219 ; infill
G1 X165.813 Y208.906 E10.93784 ; infill
G1 X165.813 Y211.418 E10.95450 ; infill
G1 X158.815 Y204.419 E11.02016 ; infill
G1 X158.815 Y206.931 E11.03682 ; infill
G1 X165.813 Y213.929 E11.10247 ; infill
G1 X165.813 Y214.941 E11.10918 ; infill
G1 X169.798 Y220.426 E11.15415 ; infill
G1 X158.815 Y209.442 E11.25718 ; infill
G1 X158.815 Y211.954 E11.27384 ; infill
G1 X180.842 Y233.981 E11.48046 ; infill
G1 X177.121 Y232.772 E11.50641 ; infill
G1 X158.815 Y214.465 E11.67813 ; infill
G1 X158.815 Y215.801 E11.68699 ; infill
G1 X161.939 Y220.102 E11.72225 ; infill
G1 X173.401 Y231.563 E11.82977 ; infill
G1 X169.680 Y230.354 E11.85572 ; infill
G1 X168.612 Y229.286 E11.86574 ; infill
G1 Z6.950 F1800.000 ; move to next layer (2)
G1 E9.86574 F2400.00000 ; retract extruder 0
G92 E0 ; reset extrusion distance
G1 X174.159 Y193.078 F1800.000 ; move to first perimeter point
G1 E2.00000 F2400.00000 ; unretract extruder 0
G1 F600.000
G1 X185.000 Y189.556 E2.04268 ; perimeter
G1 X195.841 Y193.078 E2.08536 ; perimeter
G1 X202.542 Y202.300 E2.12804 ; perimeter
G1 X202.542 Y213.700 E2.17072 ; perimeter
G1 X195.841 Y222.922 E2.21340 ; perimeter
G1 X185.000 Y226.444 E2.25608 ; perimeter
G1 X174.159 Y222.922 E2.29876 ; perimeter
G1 X167.458 Y213.700 E2.34144 ; perimeter
G1 X167.458 Y202.300 E2.38412 ; perimeter
G1 X174.053 Y193.224 E2.42612 ; perimeter
G1 X174.797 Y193.956 F1800.000 ; move to first external perimeter point
G1 F600.000
G1 X185.000 Y190.641 E2.46870 ; external perimeter
G1 X195.203 Y193.956 E2.51127 ; external perimeter
G1 X201.509 Y202.636 E2.55384 ; external perimeter
G1 X201.509 Y213.364 E2.59641 ; external perimeter
G1 X195.203 Y222.044 E2.63898 ; external perimeter
G1 X185.000 Y225.359 E2.68155 ; external perimeter
G1 X174.797 Y222.044 E2.72413 ; external perimeter
G1 X168.491 Y213.364 E2.76670 ; external perimeter
G1 X168.491 Y202.636 E2.80927 ; external perimeter
G1 X174.691 Y194.102 E2.85113 ; external perimeter
G1 E0.85113 F2400.00000 ; retract extruder 0
G92 E0 ; reset extrusion distance
G1 X167.113 Y188.374 F1800.000 ; move to first perimeter point
G1 E2.00000 F2400.00000 ; unretract extruder 0
G1 F600.000
G1 X168.927 Y185.877 E2.01155 ; perimeter
G1 X185.000 Y180.655 E2.07483 ; perimeter
G1 X201.073 Y185.877 E2.13811 ; perimeter
G1 X211.007 Y199.550 E2.20138 ; perimeter
G1 X211.007 Y216.450 E2.26466 ; perimeter
G1 X201.073 Y230.123 E2.32793 ; perimeter
G1 X185.000 Y235.345 E2.39121 ; perimeter
G1 X168.927 Y230.123 E2.45448 ; perimeter
G1 X158.993 Y216.450 E2.51776 ; perimeter
G1 X158.993 Y199.550 E2.58104 ; perimeter
G1 X167.007 Y188.520 E2.63208 ; perimeter
G1 X166.278 Y187.767 F1800.000 ; move to first external perimeter point
G1 F600.000
G1 X168.289 Y184.999 E2.64566 ; external perimeter
G1 X185.000 Y179.569 E2.71539 ; external perimeter
G1 X201.711 Y184.999 E2.78511 ; external perimeter
G1 X212.039 Y199.214 E2.85484 ; external perimeter
G1 X212.039 Y216.786 E2.92456 ; external perimeter
G1 X201.711 Y231.001 E2.99429 ; external perimeter
G1 X185.000 Y236.431 E3.06401 ; external perimeter
G1 X168.289 Y231.001 E3.13374 ; external perimeter
G1 X157.961 Y216.786 E3.20346 ; external perimeter
G1 X157.961 Y199.214 E3.27319 ; external perimeter
G1 X166.172 Y187.913 E3.32862 ; external perimeter
G1 X169.242 Y187.579 F1800.000 ; move to first infill point
G1 F1200.000
G1 X170.309 Y186.511 E3.33857 ; infill
G1 X174.005 Y185.310 E3.36418 ; infill
G1 X162.612 Y196.704 E3.47036 ; infill
G1 X159.832 Y200.530 E3.50152 ; infill
G1 X159.832 Y201.979 E3.51107 ; infill
G1 X177.701 Y184.109 E3.67759 ; infill
G1 X181.397 Y182.908 E3.70320 ; infill
G1 X159.832 Y204.474 E3.90417 ; infill
G1 X159.832 Y206.969 E3.92061 ; infill
G1 X169.647 Y197.154 E4.01208 ; infill
G1 X166.620 Y201.321 E4.04602 ; infill
G1 X166.620 Y202.676 E4.05495 ; infill
G1 X159.832 Y209.464 E4.11821 ; infill
G1 X159.832 Y211.959 E4.13465 ; infill
G1 X166.620 Y205.172 E4.19790 ; infill
G1 X166.620 Y207.667 E4.21434 ; infill
G1 X159.832 Y214.454 E4.27760 ; infill
G1 X159.832 Y216.538 E4.29133 ; infill
G1 X160.005 Y216.776 E4.29327 ; infill
G1 X166.620 Y210.162 E4.35491 ; infill
G1 X166.620 Y212.657 E4.37135 ; infill
G1 X161.055 Y218.221 E4.42321 ; infill
