; generated by Slic3r 1.3.1-dev (Build (Unknown revision)) on 2022-09-17 at 14:55:48

; external perimeters extrusion width = 1.32mm (12.75mm^3/s)
; perimeters extrusion width = 1.26mm (12.03mm^3/s)
; infill extrusion width = 2.00mm (20.91mm^3/s)
; solid infill extrusion width = 2.00mm (41.82mm^3/s)
; top infill extrusion width = 1.26mm (18.04mm^3/s)

M107 ; disable fan
G92 E0 ; reset extrusion distance
M104 S200 ; set temperature
G28 ; home all axes
G1 Z5 F5000 ; lift nozzle

; Filament gcode

M109 S200 ; set temperature and wait for it to be reached
G21 ; set units to millimeters
G90 ; use absolute coordinates
M82 ; use absolute distances for extrusion
G92 E0 ; reset extrusion distance
G1 Z4.550 F1800.000 ; move to next layer (0)
G1 E-2.00000 F2400.00000 ; retract extruder 0
G92 E0 ; reset extrusion distance
G1 X168.327 Y232.757 F1800.000 ; move to first external perimeter point
G1 E2.00000 F2400.00000 ; unretract extruder 0
G1 F600.000
G1 X183.921 Y237.824 E2.03438 ; external perimeter
G1 X183.839 Y238.625 E2.03607 ; external perimeter
G1 X183.599 Y240.221 E2.03945 ; external perimeter
G1 X183.276 Y241.853 E2.04294 ; external perimeter
G1 X182.874 Y243.490 E2.04648 ; external perimeter
G1 X182.402 Y245.106 E2.05001 ; external perimeter
G1 X181.856 Y246.714 E2.05357 ; external perimeter
G1 X181.248 Y248.274 E2.05708 ; external perimeter
G1 X180.564 Y249.822 E2.06063 ; external perimeter
G1 X179.849 Y251.264 E2.06400 ; external perimeter
G1 X179.064 Y252.672 E2.06738 ; external perimeter
G1 X178.240 Y253.993 E2.07065 ; external perimeter
G1 X177.393 Y255.203 E2.07374 ; external perimeter
G1 X176.501 Y256.335 E2.07677 ; external perimeter
G1 X175.583 Y257.362 E2.07966 ; external perimeter
G1 X174.678 Y258.246 E2.08231 ; external perimeter
G1 X173.760 Y259.017 E2.08482 ; external perimeter
G1 X172.843 Y259.661 E2.08717 ; external perimeter
G1 X171.956 Y260.165 E2.08931 ; external perimeter
G1 X171.092 Y260.537 E2.09128 ; external perimeter
G1 X170.251 Y260.780 E2.09312 ; external perimeter
G1 X169.480 Y260.889 E2.09475 ; external perimeter
G1 X168.744 Y260.879 E2.09629 ; external perimeter
G1 X168.051 Y260.752 E2.09777 ; external perimeter
G1 X167.405 Y260.513 E2.09922 ; external perimeter
G1 X166.773 Y260.146 E2.10075 ; external perimeter
G1 X166.195 Y259.670 E2.10232 ; external perimeter
G1 X165.646 Y259.061 E2.10404 ; external perimeter
G1 X165.135 Y258.315 E2.10593 ; external perimeter
G1 X164.677 Y257.437 E2.10801 ; external perimeter
G1 X164.283 Y256.448 E2.11024 ; external perimeter
G1 X163.959 Y255.354 E2.11263 ; external perimeter
G1 X163.700 Y254.130 E2.11526 ; external perimeter
G1 X163.522 Y252.824 E2.11802 ; external perimeter
G1 X163.423 Y251.433 E2.12095 ; external perimeter
G1 X163.406 Y249.983 E2.12399 ; external perimeter
G1 X163.471 Y248.453 E2.12720 ; external perimeter
G1 X163.620 Y246.879 E2.13051 ; external perimeter
G1 X163.851 Y245.274 E2.13391 ; external perimeter
G1 X164.159 Y243.659 E2.13736 ; external perimeter
G1 X164.544 Y242.041 E2.14085 ; external perimeter
G1 X165.012 Y240.397 E2.14443 ; external perimeter
G1 X165.550 Y238.782 E2.14800 ; external perimeter
G1 X166.147 Y237.218 E2.15151 ; external perimeter
G1 X166.807 Y235.695 E2.15499 ; external perimeter
G1 X167.534 Y234.204 E2.15847 ; external perimeter
G1 X168.240 Y232.915 E2.16155 ; external perimeter
G1 E0.16155 F2400.00000 ; retract extruder 0
G92 E0 ; reset extrusion distance
G1 X168.500 Y235.829 F1800.000 ; move to first infill point
G1 E2.00000 F2400.00000 ; unretract extruder 0
G1 F600.000
G1 X169.998 Y234.332 E2.00469 ; infill
G1 X172.169 Y235.037 E2.00975 ; infill
G1 X166.408 Y240.799 E2.02781 ; infill
G1 X166.103 Y241.714 E2.02994 ; infill
G1 X165.658 Y243.276 E2.03354 ; infill
G1 X165.300 Y244.784 E2.03698 ; infill
G1 X174.340 Y235.743 E2.06531 ; infill
G1 X176.512 Y236.448 E2.07037 ; infill
G1 X164.750 Y248.211 E2.10723 ; infill
G1 X164.644 Y249.333 E2.10973 ; infill
G1 X164.583 Y250.761 E2.11290 ; infill
G1 X164.588 Y251.249 E2.11398 ; infill
G1 X178.683 Y237.154 E2.15815 ; infill
G1 X180.855 Y237.860 E2.16321 ; infill
G1 X164.767 Y253.947 E2.21362 ; infill
G1 X164.849 Y254.549 E2.21497 ; infill
G1 X165.077 Y255.629 E2.21742 ; infill
G1 X165.280 Y256.311 E2.21899 ; infill
G1 X182.451 Y239.140 E2.27281 ; infill
G1 X182.144 Y240.688 E2.27630 ; infill
G1 X181.763 Y242.242 E2.27985 ; infill
G1 X181.572 Y242.895 E2.28136 ; infill
G1 X166.185 Y258.283 E2.32958 ; infill
G1 X166.413 Y258.616 E2.33047 ; infill
G1 X166.781 Y259.023 E2.33169 ; infill
G1 X167.127 Y259.309 E2.33268 ; infill
G1 X167.480 Y259.514 E2.33359 ; infill
G1 X167.736 Y259.608 E2.33419 ; infill
G1 X179.950 Y247.394 E2.37247 ; infill
G1 X179.570 Y248.256 E2.37456 ; infill
G1 X178.893 Y249.618 E2.37793 ; infill
G1 X178.154 Y250.945 E2.38130 ; infill
G1 X177.382 Y252.182 E2.38453 ; infill
G1 X176.596 Y253.306 E2.38757 ; infill
G1 X175.775 Y254.348 E2.39051 ; infill
G1 X174.941 Y255.281 E2.39328 ; infill
G1 X173.436 Y256.785 E2.39799 ; infill
G1 Z5.750 F1800.000 ; move to next layer (1)
G1 E0.39799 F2400.00000 ; retract extruder 0
G92 E0 ; reset extrusion distance
G1 X168.176 Y232.350 F1800.000 ; move to first external perimeter point
G1 E2.00000 F2400.00000 ; unretract extruder 0
G1 F600.000
G1 X184.287 Y237.585 E2.06722 ; external perimeter
G1 X184.177 Y238.663 E2.07152 ; external perimeter
G1 X183.938 Y240.255 E2.07791 ; external perimeter
G1 X183.606 Y241.934 E2.08470 ; external perimeter
G1 X183.205 Y243.571 E2.09139 ; external perimeter
G1 X182.727 Y245.208 E2.09816 ; external perimeter
G1 X182.134 Y246.936 E2.10541 ; external perimeter
G1 X181.560 Y248.410 E2.11169 ; external perimeter
G1 X180.881 Y249.949 E2.11836 ; external perimeter
G1 X180.145 Y251.430 E2.12492 ; external perimeter
G1 X179.401 Y252.768 E2.13100 ; external perimeter
G1 X178.472 Y254.256 E2.13796 ; external perimeter
G1 X177.660 Y255.414 E2.14357 ; external perimeter
G1 X176.763 Y256.553 E2.14932 ; external perimeter
G1 X175.771 Y257.655 E2.15521 ; external perimeter
G1 X174.907 Y258.498 E2.16000 ; external perimeter
G1 X173.967 Y259.286 E2.16486 ; external perimeter
G1 X173.002 Y259.963 E2.16954 ; external perimeter
G1 X172.108 Y260.470 E2.17362 ; external perimeter
G1 X171.208 Y260.857 E2.17751 ; external perimeter
G1 X170.263 Y261.123 E2.18140 ; external perimeter
G1 X169.503 Y261.230 E2.18445 ; external perimeter
G1 X168.710 Y261.218 E2.18759 ; external perimeter
G1 X167.960 Y261.081 E2.19062 ; external perimeter
G1 X167.290 Y260.834 E2.19345 ; external perimeter
G1 X166.553 Y260.406 E2.19684 ; external perimeter
G1 X165.957 Y259.914 E2.19991 ; external perimeter
G1 X165.398 Y259.295 E2.20321 ; external perimeter
G1 X164.843 Y258.490 E2.20709 ; external perimeter
G1 X164.352 Y257.544 E2.21132 ; external perimeter
G1 X163.963 Y256.565 E2.21550 ; external perimeter
G1 X163.637 Y255.468 E2.22004 ; external perimeter
G1 X163.366 Y254.192 E2.22522 ; external perimeter
G1 X163.182 Y252.841 E2.23063 ; external perimeter
G1 X163.083 Y251.451 E2.23616 ; external perimeter
G1 X163.066 Y250.014 E2.24187 ; external perimeter
G1 X163.132 Y248.429 E2.24816 ; external perimeter
G1 X163.285 Y246.815 E2.25459 ; external perimeter
G1 X163.514 Y245.226 E2.26096 ; external perimeter
G1 X163.806 Y243.691 E2.26716 ; external perimeter
G1 X164.218 Y241.942 E2.27429 ; external perimeter
G1 X164.695 Y240.273 E2.28118 ; external perimeter
G1 X165.251 Y238.610 E2.28814 ; external perimeter
G1 X165.834 Y237.084 E2.29462 ; external perimeter
G1 X166.482 Y235.587 E2.30110 ; external perimeter
G1 X167.248 Y234.018 E2.30802 ; external perimeter
G1 X168.083 Y232.505 E2.31488 ; external perimeter
G1 X182.962 Y239.169 F1800.000 ; move to first infill point
G1 F900.000
G1 X182.182 Y238.389 E2.31918 ; infill
G1 X179.997 Y237.680 E2.32813 ; infill
G1 X182.704 Y240.387 E2.34304 ; infill
G1 X182.447 Y241.604 E2.34789 ; infill
G1 X177.812 Y236.970 E2.37342 ; infill
G1 X175.627 Y236.260 E2.38236 ; infill
G1 X182.166 Y242.798 E2.41838 ; infill
G1 X182.007 Y243.451 E2.42100 ; infill
G1 X181.858 Y243.965 E2.42308 ; infill
G1 X173.443 Y235.550 E2.46944 ; infill
G1 X171.258 Y234.840 E2.47839 ; infill
G1 X181.525 Y245.107 E2.53494 ; infill
G1 X181.150 Y246.207 E2.53947 ; infill
G1 X169.073 Y234.130 E2.60600 ; infill
G1 X168.449 Y233.927 E2.60855 ; infill
G1 X168.132 Y234.664 E2.61168 ; infill
G1 X180.753 Y247.285 E2.68120 ; infill
G1 X180.336 Y248.342 E2.68563 ; infill
G1 X167.688 Y235.695 E2.75530 ; infill
G1 X167.244 Y236.726 E2.75967 ; infill
G1 X179.879 Y249.361 E2.82927 ; infill
G1 X179.668 Y249.834 E2.83129 ; infill
G1 X179.402 Y250.359 E2.83358 ; infill
G1 X166.815 Y237.772 E2.90292 ; infill
G1 X166.409 Y238.840 E2.90737 ; infill
G1 X178.905 Y251.337 E2.97621 ; infill
G1 X178.371 Y252.277 E2.98042 ; infill
G1 X166.040 Y239.947 E3.04834 ; infill
G1 X165.841 Y240.551 E3.05082 ; infill
G1 X165.694 Y241.076 E3.05294 ; infill
G1 X177.812 Y253.193 E3.11969 ; infill
G1 X177.227 Y254.083 E3.12384 ; infill
G1 X165.374 Y242.230 E3.18913 ; infill
G1 X165.097 Y243.428 E3.19392 ; infill
G1 X176.613 Y254.944 E3.25736 ; infill
G1 X175.961 Y255.767 E3.26145 ; infill
G1 X164.854 Y244.660 E3.32263 ; infill
G1 X164.729 Y245.340 E3.32532 ; infill
G1 X164.647 Y245.928 E3.32763 ; infill
G1 X175.273 Y256.554 E3.38616 ; infill
G1 X174.545 Y257.301 E3.39023 ; infill
G1 X164.486 Y247.242 E3.44563 ; infill
G1 X164.380 Y248.611 E3.45098 ; infill
G1 X173.772 Y258.002 E3.50271 ; infill
G1 X173.504 Y258.229 E3.50408 ; infill
G1 X172.942 Y258.648 E3.50681 ; infill
G1 X164.344 Y250.049 E3.55417 ; infill
G1 X164.356 Y250.952 E3.55769 ; infill
G1 X164.396 Y251.577 E3.56013 ; infill
G1 X172.038 Y259.219 E3.60223 ; infill
G1 X171.470 Y259.506 E3.60471 ; infill
G1 X171.026 Y259.682 E3.60656 ; infill
G1 X164.569 Y253.224 E3.64214 ; infill
G1 X164.754 Y254.223 E3.64609 ; infill
G1 X164.990 Y255.121 E3.64971 ; infill
G1 X169.828 Y259.958 E3.67636 ; infill
G1 X169.527 Y259.970 E3.67753 ; infill
G1 X169.189 Y259.949 E3.67885 ; infill
G1 X168.861 Y259.890 E3.68015 ; infill
G1 X168.538 Y259.789 E3.68147 ; infill
G1 X168.244 Y259.654 E3.68273 ; infill
G1 X167.964 Y259.486 E3.68400 ; infill
G1 X167.668 Y259.261 E3.68545 ; infill
G1 X166.621 Y258.226 E3.69118 ; infill
G1 Z6.950 F1800.000 ; move to next layer (2)
G1 E1.69118 F2400.00000 ; retract extruder 0
G92 E0 ; reset extrusion distance
G1 X169.865 Y236.584 F1800.000 ; move to first external perimeter point
G1 E2.00000 F2400.00000 ; unretract extruder 0
G1 F600.000
G1 X180.444 Y240.021 E2.04414 ; external perimeter
G1 X179.836 Y242.602 E2.05466 ; external perimeter
G1 X179.387 Y244.146 E2.06104 ; external perimeter
G1 X178.860 Y245.693 E2.06753 ; external perimeter
G1 X178.266 Y247.204 E2.07397 ; external perimeter
G1 X177.608 Y248.674 E2.08036 ; external perimeter
G1 X176.885 Y250.098 E2.08670 ; external perimeter
G1 X176.192 Y251.312 E2.09224 ; external perimeter
G1 X175.488 Y252.417 E2.09744 ; external perimeter
G1 X174.765 Y253.435 E2.10240 ; external perimeter
G1 X174.043 Y254.343 E2.10700 ; external perimeter
G1 X173.353 Y255.117 E2.11112 ; external perimeter
G1 X172.653 Y255.811 E2.11503 ; external perimeter
G1 X171.999 Y256.377 E2.11846 ; external perimeter
G1 X171.394 Y256.828 E2.12146 ; external perimeter
G1 X170.844 Y257.174 E2.12403 ; external perimeter
G1 X170.352 Y257.427 E2.12623 ; external perimeter
G1 X169.922 Y257.597 E2.12806 ; external perimeter
G1 X169.536 Y257.701 E2.12965 ; external perimeter
G1 X169.125 Y257.746 E2.13129 ; external perimeter
G1 X168.722 Y257.661 E2.13292 ; external perimeter
G1 X168.318 Y257.326 E2.13501 ; external perimeter
G1 X168.058 Y257.010 E2.13663 ; external perimeter
G1 X167.792 Y256.594 E2.13859 ; external perimeter
G1 X167.519 Y256.047 E2.14102 ; external perimeter
G1 X167.260 Y255.379 E2.14386 ; external perimeter
G1 X167.053 Y254.684 E2.14674 ; external perimeter
G1 X166.945 Y254.239 E2.14856 ; external perimeter
G1 X166.778 Y253.348 E2.15215 ; external perimeter
G1 X166.658 Y252.385 E2.15600 ; external perimeter
G1 X166.584 Y251.291 E2.16035 ; external perimeter
G1 X166.569 Y250.098 E2.16509 ; external perimeter
G1 X166.617 Y248.835 E2.17010 ; external perimeter
G1 X166.735 Y247.484 E2.17549 ; external perimeter
G1 X166.927 Y246.069 E2.18115 ; external perimeter
G1 X167.208 Y244.535 E2.18734 ; external perimeter
G1 X167.561 Y243.011 E2.19355 ; external perimeter
G1 X167.988 Y241.484 E2.19984 ; external perimeter
G1 X168.500 Y239.930 E2.20633 ; external perimeter
G1 X169.182 Y238.171 E2.21382 ; external perimeter
G1 X169.794 Y236.749 E2.21996 ; external perimeter
G1 X168.176 Y232.350 F1800.000 ; move to first external perimeter point
G1 F600.000
G1 X184.287 Y237.585 E2.28718 ; external perimeter
G1 X184.177 Y238.663 E2.29148 ; external perimeter
G1 X183.945 Y240.217 E2.29772 ; external perimeter
G1 X183.604 Y241.945 E2.30470 ; external perimeter
G1 X183.205 Y243.571 E2.31135 ; external perimeter
G1 X182.727 Y245.207 E2.31811 ; external perimeter
G1 X182.081 Y247.075 E2.32596 ; external perimeter
G1 X181.560 Y248.410 E2.33164 ; external perimeter
G1 X180.881 Y249.949 E2.33832 ; external perimeter
G1 X180.145 Y251.431 E2.34488 ; external perimeter
G1 X179.454 Y252.676 E2.35053 ; external perimeter
G1 X178.471 Y254.259 E2.35793 ; external perimeter
G1 X177.660 Y255.414 E2.36353 ; external perimeter
G1 X176.763 Y256.552 E2.36928 ; external perimeter
G1 X175.682 Y257.744 E2.37566 ; external perimeter
G1 X174.907 Y258.497 E2.37995 ; external perimeter
G1 X173.968 Y259.286 E2.38482 ; external perimeter
G1 X172.966 Y259.985 E2.38967 ; external perimeter
G1 X172.108 Y260.469 E2.39358 ; external perimeter
G1 X171.206 Y260.858 E2.39747 ; external perimeter
G1 X170.327 Y261.113 E2.40111 ; external perimeter
G1 X169.472 Y261.231 E2.40453 ; external perimeter
G1 X168.711 Y261.219 E2.40755 ; external perimeter
G1 X167.959 Y261.080 E2.41059 ; external perimeter
G1 X167.314 Y260.846 E2.41331 ; external perimeter
G1 X167.174 Y260.778 E2.41393 ; external perimeter
G1 X166.517 Y260.381 E2.41697 ; external perimeter
G1 X165.957 Y259.914 E2.41987 ; external perimeter
G1 X165.428 Y259.332 E2.42299 ; external perimeter
G1 X164.843 Y258.490 E2.42705 ; external perimeter
G1 X164.328 Y257.488 E2.43153 ; external perimeter
G1 X163.963 Y256.565 E2.43546 ; external perimeter
G1 X163.650 Y255.516 E2.43981 ; external perimeter
G1 X163.366 Y254.192 E2.44518 ; external perimeter
G1 X163.179 Y252.813 E2.45070 ; external perimeter
G1 X163.083 Y251.451 E2.45612 ; external perimeter
G1 X163.065 Y250.069 E2.46160 ; external perimeter
G1 X163.132 Y248.428 E2.46812 ; external perimeter
G1 X163.290 Y246.778 E2.47470 ; external perimeter
G1 X163.514 Y245.226 E2.48092 ; external perimeter
G1 X163.780 Y243.821 E2.48660 ; external perimeter
G1 X164.219 Y241.941 E2.49426 ; external perimeter
G1 X164.706 Y240.237 E2.50129 ; external perimeter
G1 X165.285 Y238.519 E2.50848 ; external perimeter
G1 X165.831 Y237.091 E2.51455 ; external perimeter
G1 X166.459 Y235.639 E2.52083 ; external perimeter
G1 X167.272 Y233.971 E2.52819 ; external perimeter
G1 X168.084 Y232.505 E2.53484 ; external perimeter
G1 X168.299 Y234.556 F1800.000 ; move to first infill point
G1 F1200.000
G1 X169.366 Y233.489 E2.54521 ; infill
G1 X171.329 Y234.127 E2.55939 ; infill
G1 X169.683 Y235.773 E2.57538 ; infill
G1 X171.646 Y236.411 E2.58956 ; infill
G1 X173.292 Y234.764 E2.60555 ; infill
G1 X175.255 Y235.402 E2.61972 ; infill
G1 X173.608 Y237.049 E2.63572 ; infill
G1 X175.571 Y237.686 E2.64989 ; infill
G1 X177.218 Y236.040 E2.66589 ; infill
G1 X179.181 Y236.678 E2.68006 ; infill
G1 X177.534 Y238.324 E2.69605 ; infill
G1 X179.497 Y238.962 E2.71023 ; infill
G1 X181.144 Y237.316 E2.72622 ; infill
G1 X183.107 Y237.953 E2.74040 ; infill
G1 X181.460 Y239.600 E2.75639 ; infill
G1 X181.553 Y239.630 E2.75706 ; infill
G1 X180.790 Y242.870 E2.77993 ; infill
G1 X182.839 Y240.821 E2.79983 ; infill
G1 X182.398 Y242.677 E2.81293 ; infill
G1 X181.901 Y244.361 E2.82499 ; infill
G1 X179.666 Y246.595 E2.84669 ; infill
