; generated by Slic3r 1.3.1-dev (Build (Unknown revision)) on 2022-09-17 at 14:55:48

; external perimeters extrusion width = 1.32mm (12.75mm^3/s)
; perimeters extrusion width = 1.26mm (12.03mm^3/s)
; infill extrusion width = 2.00mm (20.91mm^3/s)
; solid infill extrusion width = 2.00mm (41.82mm^3/s)
; top infill extrusion width = 1.26mm (18.04mm^3/s)

M107 ; disable fan
G92 E0 ; reset extrusion distance
M104 S200 ; set temperature
G28 ; home all axes
G1 Z5 F5000 ; lift nozzle

; Filament gcode

M109 S200 ; set temperature and wait for it to be reached
G21 ; set units to millimeters
G90 ; use absolute coordinates
M82 ; use absolute distances for extrusion
G92 E0 ; reset extrusion distance
G1 Z4.550 F1800.000 ; move to next layer (0)
G1 E-2.00000 F2400.00000 ; retract extruder 0
G92 E0 ; reset extrusion distance
G1 X186.079 Y178.176 F1800.000 ; move to first external perimeter point
G1 E2.00000 F2400.00000 ; unretract extruder 0
G1 F600.000
G1 X186.161 Y177.375 E2.00169 ; external perimeter
G1 X186.401 Y175.779 E2.00507 ; external perimeter
G1 X186.724 Y174.147 E2.00856 ; external perimeter
G1 X187.126 Y172.510 E2.01210 ; external perimeter
G1 X187.603 Y170.880 E2.01566 ; external perimeter
G1 X188.144 Y169.286 E2.01919 ; external perimeter
G1 X188.752 Y167.726 E2.02270 ; external perimeter
G1 X189.428 Y166.194 E2.02621 ; external perimeter
G1 X190.162 Y164.717 E2.02967 ; external perimeter
G1 X190.936 Y163.328 E2.03300 ; external perimeter
G1 X191.751 Y162.022 E2.03623 ; external perimeter
G1 X192.617 Y160.784 E2.03940 ; external perimeter
G1 X193.508 Y159.653 E2.04242 ; external perimeter
G1 X194.405 Y158.651 E2.04524 ; external perimeter
G1 X195.322 Y157.754 E2.04792 ; external perimeter
G1 X196.240 Y156.983 E2.05044 ; external perimeter
G1 X197.157 Y156.339 E2.05279 ; external perimeter
G1 X198.044 Y155.835 E2.05493 ; external perimeter
G1 X198.909 Y155.462 E2.05690 ; external perimeter
G1 X199.736 Y155.223 E2.05871 ; external perimeter
G1 X200.533 Y155.111 E2.06040 ; external perimeter
G1 X201.256 Y155.121 E2.06191 ; external perimeter
G1 X201.949 Y155.248 E2.06339 ; external perimeter
G1 X202.603 Y155.491 E2.06485 ; external perimeter
G1 X203.213 Y155.845 E2.06633 ; external perimeter
G1 X203.811 Y156.337 E2.06796 ; external perimeter
G1 X204.359 Y156.946 E2.06967 ; external perimeter
G1 X204.859 Y157.676 E2.07153 ; external perimeter
G1 X205.323 Y158.563 E2.07363 ; external perimeter
G1 X205.717 Y159.551 E2.07586 ; external perimeter
G1 X206.044 Y160.658 E2.07828 ; external perimeter
G1 X206.300 Y161.870 E2.08088 ; external perimeter
G1 X206.478 Y163.176 E2.08364 ; external perimeter
G1 X206.576 Y164.554 E2.08654 ; external perimeter
G1 X206.594 Y166.033 E2.08964 ; external perimeter
G1 X206.529 Y167.547 E2.09281 ; external perimeter
G1 X206.380 Y169.121 E2.09613 ; external perimeter
G1 X206.152 Y170.711 E2.09950 ; external perimeter
G1 X205.841 Y172.341 E2.10298 ; external perimeter
G1 X205.452 Y173.976 E2.10650 ; external perimeter
G1 X204.988 Y175.603 E2.11005 ; external perimeter
G1 X204.455 Y177.204 E2.11359 ; external perimeter
G1 X203.853 Y178.782 E2.11713 ; external perimeter
G1 X203.186 Y180.320 E2.12064 ; external perimeter
G1 X202.469 Y181.789 E2.12407 ; external perimeter
G1 X201.673 Y183.243 E2.12755 ; external perimeter
G1 X186.250 Y178.232 E2.16155 ; external perimeter
G1 E0.16155 F2400.00000 ; retract extruder 0
G92 E0 ; reset extrusion distance
G1 X200.002 Y181.668 F1800.000 ; move to first infill point
G1 E2.00000 F2400.00000 ; unretract extruder 0
G1 F600.000
G1 X201.500 Y180.171 E2.00469 ; infill
G1 X202.186 Y178.766 E2.00816 ; infill
G1 X202.819 Y177.307 E2.01168 ; infill
G1 X203.390 Y175.809 E2.01524 ; infill
G1 X203.593 Y175.201 E2.01665 ; infill
G1 X197.831 Y180.963 E2.03471 ; infill
G1 X195.660 Y180.257 E2.03977 ; infill
G1 X204.700 Y171.216 E2.06810 ; infill
G1 X205.002 Y169.645 E2.07165 ; infill
G1 X205.217 Y168.145 E2.07501 ; infill
G1 X205.250 Y167.789 E2.07580 ; infill
G1 X193.488 Y179.551 E2.11266 ; infill
G1 X191.317 Y178.846 E2.11772 ; infill
G1 X205.411 Y164.752 E2.16189 ; infill
G1 X205.401 Y163.885 E2.16381 ; infill
G1 X205.311 Y162.627 E2.16660 ; infill
G1 X205.233 Y162.053 E2.16789 ; infill
G1 X189.145 Y178.140 E2.21830 ; infill
G1 X187.440 Y177.586 E2.22228 ; infill
G1 X187.549 Y176.860 E2.22391 ; infill
G1 X204.720 Y159.689 E2.27772 ; infill
G1 X204.644 Y159.433 E2.27831 ; infill
G1 X204.321 Y158.619 E2.28025 ; infill
G1 X203.955 Y157.921 E2.28200 ; infill
G1 X203.815 Y157.717 E2.28254 ; infill
G1 X188.428 Y173.104 E2.33077 ; infill
G1 X188.690 Y172.208 E2.33283 ; infill
G1 X189.205 Y170.694 E2.33638 ; infill
G1 X189.782 Y169.212 E2.33990 ; infill
G1 X190.049 Y168.606 E2.34137 ; infill
G1 X202.263 Y156.392 E2.37965 ; infill
G1 X201.816 Y156.295 E2.38067 ; infill
G1 X201.402 Y156.289 E2.38158 ; infill
G1 X200.888 Y156.361 E2.38273 ; infill
G1 X200.309 Y156.529 E2.38407 ; infill
G1 X199.652 Y156.812 E2.38565 ; infill
G1 X198.937 Y157.219 E2.38748 ; infill
G1 X198.163 Y157.762 E2.38957 ; infill
G1 X197.363 Y158.434 E2.39189 ; infill
G1 X195.054 Y160.724 E2.39909 ; infill
G1 Z5.750 F1800.000 ; move to next layer (1)
G1 X185.713 Y178.415 F1800.000 ; move to first external perimeter point
G1 F600.000
G1 X185.823 Y177.337 E2.40339 ; external perimeter
G1 X186.062 Y175.745 E2.40978 ; external perimeter
G1 X186.392 Y174.074 E2.41654 ; external perimeter
G1 X186.795 Y172.429 E2.42326 ; external perimeter
G1 X187.289 Y170.745 E2.43022 ; external perimeter
G1 X187.823 Y169.174 E2.43681 ; external perimeter
G1 X188.427 Y167.622 E2.44342 ; external perimeter
G1 X189.119 Y166.051 E2.45023 ; external perimeter
G1 X189.888 Y164.508 E2.45707 ; external perimeter
G1 X190.641 Y163.158 E2.46320 ; external perimeter
G1 X191.445 Y161.868 E2.46923 ; external perimeter
G1 X192.340 Y160.586 E2.47544 ; external perimeter
G1 X193.291 Y159.385 E2.48152 ; external perimeter
G1 X194.158 Y158.416 E2.48668 ; external perimeter
G1 X195.093 Y157.502 E2.49187 ; external perimeter
G1 X196.033 Y156.714 E2.49673 ; external perimeter
G1 X196.998 Y156.037 E2.50141 ; external perimeter
G1 X197.892 Y155.530 E2.50549 ; external perimeter
G1 X198.794 Y155.142 E2.50939 ; external perimeter
G1 X199.662 Y154.890 E2.51297 ; external perimeter
G1 X200.571 Y154.769 E2.51661 ; external perimeter
G1 X201.289 Y154.781 E2.51946 ; external perimeter
G1 X202.039 Y154.919 E2.52249 ; external perimeter
G1 X202.748 Y155.182 E2.52549 ; external perimeter
G1 X203.371 Y155.541 E2.52834 ; external perimeter
G1 X204.064 Y156.107 E2.53189 ; external perimeter
G1 X204.626 Y156.734 E2.53523 ; external perimeter
G1 X205.125 Y157.460 E2.53873 ; external perimeter
G1 X205.649 Y158.458 E2.54320 ; external perimeter
G1 X206.036 Y159.435 E2.54737 ; external perimeter
G1 X206.373 Y160.569 E2.55207 ; external perimeter
G1 X206.639 Y161.834 E2.55720 ; external perimeter
G1 X206.816 Y163.137 E2.56241 ; external perimeter
G1 X206.914 Y164.499 E2.56783 ; external perimeter
G1 X206.933 Y166.073 E2.57408 ; external perimeter
G1 X206.868 Y167.571 E2.58003 ; external perimeter
G1 X206.718 Y169.155 E2.58634 ; external perimeter
G1 X206.486 Y170.774 E2.59283 ; external perimeter
G1 X206.194 Y172.309 E2.59903 ; external perimeter
G1 X205.775 Y174.083 E2.60626 ; external perimeter
G1 X205.315 Y175.697 E2.61293 ; external perimeter
G1 X204.810 Y177.216 E2.61928 ; external perimeter
G1 X204.165 Y178.917 E2.62649 ; external perimeter
G1 X203.499 Y180.455 E2.63315 ; external perimeter
G1 X202.776 Y181.937 E2.63969 ; external perimeter
G1 X201.824 Y183.650 E2.64747 ; external perimeter
G1 X185.884 Y178.470 E2.71397 ; external perimeter
G1 X187.818 Y177.610 F1800.000 ; move to first infill point
G1 F900.000
G1 X187.038 Y176.831 E2.71827 ; infill
G1 X187.296 Y175.613 E2.72312 ; infill
G1 X190.003 Y178.320 E2.73803 ; infill
G1 X192.188 Y179.030 E2.74698 ; infill
G1 X187.553 Y174.396 E2.77251 ; infill
G1 X187.834 Y173.202 E2.77729 ; infill
G1 X194.373 Y179.740 E2.81330 ; infill
G1 X196.557 Y180.450 E2.82225 ; infill
G1 X188.142 Y172.035 E2.86861 ; infill
G1 X188.475 Y170.893 E2.87324 ; infill
G1 X198.742 Y181.160 E2.92979 ; infill
G1 X200.927 Y181.870 E2.93874 ; infill
G1 X188.850 Y169.793 E3.00527 ; infill
G1 X189.012 Y169.317 E3.00723 ; infill
G1 X189.247 Y168.715 E3.00974 ; infill
G1 X201.868 Y181.336 E3.07927 ; infill
G1 X202.312 Y180.305 E3.08364 ; infill
G1 X189.664 Y167.658 E3.15331 ; infill
G1 X190.121 Y166.639 E3.15766 ; infill
G1 X202.756 Y179.274 E3.22726 ; infill
G1 X203.185 Y178.228 E3.23166 ; infill
G1 X190.598 Y165.641 E3.30100 ; infill
G1 X191.095 Y164.663 E3.30527 ; infill
G1 X203.591 Y177.160 E3.37411 ; infill
G1 X203.960 Y176.053 E3.37865 ; infill
G1 X191.629 Y163.723 E3.44657 ; infill
G1 X192.188 Y162.807 E3.45075 ; infill
G1 X204.306 Y174.924 E3.51750 ; infill
G1 X204.626 Y173.770 E3.52217 ; infill
G1 X192.773 Y161.917 E3.58746 ; infill
G1 X193.387 Y161.056 E3.59158 ; infill
G1 X204.903 Y172.572 E3.65501 ; infill
G1 X205.146 Y171.340 E3.65991 ; infill
G1 X194.039 Y160.233 E3.72109 ; infill
G1 X194.727 Y159.446 E3.72516 ; infill
G1 X205.353 Y170.072 E3.78369 ; infill
G1 X205.514 Y168.758 E3.78884 ; infill
G1 X195.455 Y158.699 E3.84425 ; infill
G1 X195.710 Y158.448 E3.84565 ; infill
G1 X196.228 Y157.998 E3.84832 ; infill
G1 X205.620 Y167.389 E3.90005 ; infill
G1 X205.659 Y166.363 E3.90405 ; infill
G1 X205.656 Y165.951 E3.90566 ; infill
G1 X197.058 Y157.352 E3.95302 ; infill
G1 X197.962 Y156.781 E3.95719 ; infill
G1 X205.604 Y164.423 E3.99928 ; infill
G1 X205.559 Y163.798 E4.00173 ; infill
G1 X205.431 Y162.776 E4.00574 ; infill
G1 X198.974 Y156.318 E4.04131 ; infill
G1 X199.112 Y156.264 E4.04189 ; infill
G1 X199.683 Y156.110 E4.04419 ; infill
G1 X200.172 Y156.042 E4.04612 ; infill
G1 X205.010 Y160.879 E4.07276 ; infill
G1 X203.379 Y157.773 F1800.000 ; move to first infill point
G1 F900.000
G1 X202.599 Y156.994 E4.07706 ; infill
G1 Z6.950 F1800.000 ; move to next layer (2)
G1 E2.07706 F2400.00000 ; retract extruder 0
G92 E0 ; reset extrusion distance
G1 X189.556 Y175.979 F1800.000 ; move to first external perimeter point
G1 E2.00000 F2400.00000 ; unretract extruder 0
G1 F600.000
G1 X190.164 Y173.398 E2.01052 ; external perimeter
G1 X190.613 Y171.854 E2.01690 ; external perimeter
G1 X191.140 Y170.307 E2.02339 ; external perimeter
G1 X191.734 Y168.796 E2.02983 ; external perimeter
G1 X192.392 Y167.326 E2.03622 ; external perimeter
G1 X193.115 Y165.902 E2.04256 ; external perimeter
G1 X193.808 Y164.688 E2.04810 ; external perimeter
G1 X194.512 Y163.583 E2.05330 ; external perimeter
G1 X195.235 Y162.565 E2.05826 ; external perimeter
G1 X195.957 Y161.657 E2.06286 ; external perimeter
G1 X196.647 Y160.883 E2.06698 ; external perimeter
G1 X197.347 Y160.189 E2.07089 ; external perimeter
G1 X198.001 Y159.623 E2.07432 ; external perimeter
G1 X198.606 Y159.172 E2.07732 ; external perimeter
G1 X199.156 Y158.826 E2.07989 ; external perimeter
G1 X199.648 Y158.573 E2.08209 ; external perimeter
G1 X200.078 Y158.403 E2.08392 ; external perimeter
G1 X200.453 Y158.302 E2.08546 ; external perimeter
G1 X200.711 Y158.265 E2.08650 ; external perimeter
G1 X201.130 Y158.277 E2.08816 ; external perimeter
G1 X201.509 Y158.512 E2.08993 ; external perimeter
G1 X201.715 Y158.711 E2.09107 ; external perimeter
G1 X201.942 Y158.989 E2.09249 ; external perimeter
G1 X202.213 Y159.415 E2.09450 ; external perimeter
G1 X202.482 Y159.953 E2.09688 ; external perimeter
G1 X202.740 Y160.621 E2.09972 ; external perimeter
G1 X202.947 Y161.316 E2.10260 ; external perimeter
G1 X203.055 Y161.761 E2.10442 ; external perimeter
G1 X203.222 Y162.652 E2.10802 ; external perimeter
G1 X203.342 Y163.615 E2.11187 ; external perimeter
G1 X203.415 Y164.690 E2.11614 ; external perimeter
G1 X203.432 Y165.883 E2.12088 ; external perimeter
G1 X203.384 Y167.151 E2.12591 ; external perimeter
G1 X203.265 Y168.516 E2.13135 ; external perimeter
G1 X203.070 Y169.950 E2.13709 ; external perimeter
G1 X202.792 Y171.465 E2.14320 ; external perimeter
G1 X202.439 Y172.989 E2.14941 ; external perimeter
G1 X202.012 Y174.516 E2.15570 ; external perimeter
G1 X201.501 Y176.068 E2.16219 ; external perimeter
G1 X200.921 Y177.593 E2.16866 ; external perimeter
G1 X200.135 Y179.416 E2.17654 ; external perimeter
G1 X189.727 Y176.034 E2.21996 ; external perimeter
G1 X185.713 Y178.415 F1800.000 ; move to first external perimeter point
G1 F600.000
G1 X185.823 Y177.337 E2.22426 ; external perimeter
G1 X186.055 Y175.783 E2.23050 ; external perimeter
G1 X186.392 Y174.074 E2.23741 ; external perimeter
G1 X186.795 Y172.430 E2.24413 ; external perimeter
G1 X187.330 Y170.619 E2.25162 ; external perimeter
G1 X187.823 Y169.174 E2.25768 ; external perimeter
G1 X188.410 Y167.663 E2.26411 ; external perimeter
G1 X189.119 Y166.051 E2.27110 ; external perimeter
G1 X189.931 Y164.430 E2.27829 ; external perimeter
G1 X190.641 Y163.158 E2.28407 ; external perimeter
G1 X191.411 Y161.921 E2.28986 ; external perimeter
G1 X192.340 Y160.587 E2.29631 ; external perimeter
G1 X193.334 Y159.335 E2.30265 ; external perimeter
G1 X194.158 Y158.416 E2.30755 ; external perimeter
G1 X195.093 Y157.502 E2.31274 ; external perimeter
G1 X196.032 Y156.714 E2.31760 ; external perimeter
G1 X197.034 Y156.015 E2.32245 ; external perimeter
G1 X197.892 Y155.531 E2.32636 ; external perimeter
G1 X198.793 Y155.142 E2.33025 ; external perimeter
G1 X199.707 Y154.881 E2.33402 ; external perimeter
G1 X200.506 Y154.769 E2.33722 ; external perimeter
G1 X200.625 Y154.768 E2.33770 ; external perimeter
G1 X201.317 Y154.784 E2.34044 ; external perimeter
G1 X202.038 Y154.919 E2.34336 ; external perimeter
G1 X202.749 Y155.182 E2.34637 ; external perimeter
G1 X203.467 Y155.607 E2.34968 ; external perimeter
G1 X204.085 Y156.128 E2.35288 ; external perimeter
G1 X204.626 Y156.734 E2.35611 ; external perimeter
G1 X205.211 Y157.605 E2.36027 ; external perimeter
G1 X205.672 Y158.510 E2.36430 ; external perimeter
G1 X206.036 Y159.434 E2.36824 ; external perimeter
G1 X206.373 Y160.570 E2.37294 ; external perimeter
G1 X206.634 Y161.808 E2.37796 ; external perimeter
G1 X206.803 Y163.027 E2.38285 ; external perimeter
G1 X206.917 Y164.550 E2.38891 ; external perimeter
G1 X206.934 Y166.031 E2.39478 ; external perimeter
G1 X206.879 Y167.361 E2.40007 ; external perimeter
G1 X206.718 Y169.157 E2.40722 ; external perimeter
G1 X206.486 Y170.774 E2.41370 ; external perimeter
G1 X206.220 Y172.179 E2.41938 ; external perimeter
G1 X205.767 Y174.115 E2.42727 ; external perimeter
G1 X205.315 Y175.698 E2.43380 ; external perimeter
G1 X204.854 Y177.086 E2.43960 ; external perimeter
G1 X204.161 Y178.926 E2.44741 ; external perimeter
G1 X203.499 Y180.455 E2.45402 ; external perimeter
G1 X202.781 Y181.926 E2.46051 ; external perimeter
G1 X201.824 Y183.650 E2.46834 ; external perimeter
G1 X185.884 Y178.470 E2.53485 ; external perimeter
G1 X198.669 Y181.873 F1800.000 ; move to first infill point
G1 F1200.000
G1 X200.316 Y180.226 E2.55084 ; infill
G1 X198.353 Y179.589 E2.56501 ; infill
G1 X196.707 Y181.235 E2.58100 ; infill
G1 X194.744 Y180.597 E2.59518 ; infill
G1 X196.390 Y178.951 E2.61117 ; infill
G1 X194.428 Y178.313 E2.62534 ; infill
G1 X192.781 Y179.960 E2.64133 ; infill
G1 X190.818 Y179.322 E2.65551 ; infill
G1 X192.465 Y177.675 E2.67150 ; infill
G1 X190.502 Y177.038 E2.68567 ; infill
G1 X188.855 Y178.684 E2.70166 ; infill
G1 X186.893 Y178.046 E2.71584 ; infill
G1 X188.539 Y176.400 E2.73183 ; infill
G1 X188.447 Y176.370 E2.73250 ; infill
G1 X189.210 Y173.129 E2.75537 ; infill
G1 X187.160 Y175.178 E2.77527 ; infill
G1 X187.601 Y173.326 E2.78835 ; infill
G1 X188.100 Y171.638 E2.80044 ; infill
G1 X190.334 Y169.404 E2.82214 ; infill
G1 X190.988 Y167.725 E2.83451 ; infill
G1 X191.674 Y166.194 E2.84603 ; infill
G1 X192.427 Y164.710 E2.85746 ; infill
G1 X189.746 Y167.391 E2.88350 ; infill
G1 X190.623 Y165.613 E2.89712 ; infill
G1 X191.303 Y164.397 E2.90668 ; infill
G1 X192.036 Y163.218 E2.91622 ; infill
G1 X192.920 Y161.949 E2.92684 ; infill
G1 X193.860 Y160.765 E2.93722 ; infill
