; generated by Slic3r 1.3.1-dev (Build (Unknown revision)) on 2022-09-17 at 14:55:48

; external perimeters extrusion width = 1.32mm (12.75mm^3/s)
; perimeters extrusion width = 1.26mm (12.03mm^3/s)
; infill extrusion width = 2.00mm (20.91mm^3/s)
; solid infill extrusion width = 2.00mm (41.82mm^3/s)
; top infill extrusion width = 1.26mm (18.04mm^3/s)

M107 ; disable fan
G92 E0 ; reset extrusion distance
M104 S200 ; set temperature
G28 ; home all axes
G1 Z5 F5000 ; lift nozzle

; Filament gcode

M109 S200 ; set temperature and wait for it to be reached
G21 ; set units to millimeters
G90 ; use absolute coordinates
M82 ; use absolute distances for extrusion
G92 E0 ; reset extrusion distance
G1 Z6.520 F1800.000 ; move to next layer (0)
G1 E-2.00000 F2400.00000 ; retract extruder 0
G92 E0 ; reset extrusion distance
G1 X215.977 Y228.033 F1800.000 ; move to first external small perimeter point
G1 E2.00000 F2400.00000 ; unretract extruder 0
G1 F600.000
G1 X216.982 Y228.731 E2.00187 ; external small perimeter
G1 X217.612 Y229.205 E2.00307 ; external small perimeter
G1 X218.221 Y229.703 E2.00427 ; external small perimeter
G1 X218.807 Y230.223 E2.00546 ; external small perimeter
G1 X219.360 Y230.756 E2.00663 ; external small perimeter
G1 X219.872 Y231.294 E2.00777 ; external small perimeter
G1 X220.337 Y231.830 E2.00885 ; external small perimeter
G1 X220.713 Y232.304 E2.00977 ; external small perimeter
G1 X221.044 Y232.762 E2.01063 ; external small perimeter
G1 X221.331 Y233.201 E2.01143 ; external small perimeter
G1 X221.769 Y233.994 E2.01281 ; external small perimeter
G1 X222.266 Y235.117 E2.01469 ; external small perimeter
G1 X220.900 Y234.939 E2.01679 ; external small perimeter
G1 X219.996 Y234.746 E2.01820 ; external small perimeter
G1 X219.483 Y234.597 E2.01901 ; external small perimeter
G1 X218.939 Y234.412 E2.01989 ; external small perimeter
G1 X218.364 Y234.189 E2.02083 ; external small perimeter
G1 X217.733 Y233.911 E2.02188 ; external small perimeter
G1 X217.108 Y233.605 E2.02294 ; external small perimeter
G1 X216.471 Y233.259 E2.02405 ; external small perimeter
G1 X215.822 Y232.874 E2.02520 ; external small perimeter
G1 X215.175 Y232.455 E2.02637 ; external small perimeter
G1 X214.536 Y232.005 E2.02756 ; external small perimeter
G1 X213.606 Y231.293 E2.02935 ; external small perimeter
G1 X215.871 Y228.179 E2.03522 ; external small perimeter
G1 E0.03522 F2400.00000 ; retract extruder 0
G92 E0 ; reset extrusion distance
G1 X215.416 Y230.441 F1800.000 ; move to first infill point
G1 E2.00000 F2400.00000 ; unretract extruder 0
G1 F600.000
G1 X215.476 Y230.465 E2.00019 ; infill
G1 F600.000
G1 X215.535 Y230.489 E2.00038 ; infill
G1 F600.000
G1 X215.595 Y230.514 E2.00056 ; infill
G1 F600.000
G1 X215.655 Y230.538 E2.00073 ; infill
G1 F600.000
G1 X215.714 Y230.562 E2.00090 ; infill
G1 F600.000
G1 X215.774 Y230.587 E2.00107 ; infill
G1 F600.000
G1 X215.833 Y230.611 E2.00123 ; infill
G1 F600.000
G1 X215.893 Y230.635 E2.00138 ; infill
G1 F600.000
G1 X215.953 Y230.660 E2.00153 ; infill
G1 F600.000
G1 X216.012 Y230.684 E2.00168 ; infill
G1 F600.000
G1 X216.072 Y230.708 E2.00182 ; infill
G1 F600.000
G1 X216.131 Y230.733 E2.00195 ; infill
G1 F600.000
G1 X216.191 Y230.757 E2.00208 ; infill
G1 F600.000
G1 X216.251 Y230.781 E2.00221 ; infill
G1 F600.000
G1 X216.310 Y230.806 E2.00233 ; infill
G1 F600.000
G1 X216.370 Y230.830 E2.00244 ; infill
G1 F600.000
G1 X216.430 Y230.854 E2.00255 ; infill
G1 F600.000
G1 X216.874 Y231.179 E2.00344 ; infill
G1 F600.000
G1 X217.260 Y231.459 E2.00419 ; infill
G1 F600.000
G1 X217.502 Y231.633 E2.00464 ; infill
G1 F600.000
G1 X217.728 Y231.799 E2.00505 ; infill
G1 F600.000
G1 X217.955 Y231.964 E2.00545 ; infill
G1 F600.000
G1 X218.165 Y232.116 E2.00579 ; infill
G1 F600.000
G1 X218.365 Y232.262 E2.00611 ; infill
G1 F600.000
G1 X219.529 Y233.083 E2.00782 ; infill
G1 F600.000
G1 X220.593 Y233.830 E2.00930 ; infill
G1 Z7.720 F1800.000 ; move to next layer (1)
G1 X215.828 Y227.333 F1800.000 ; move to first external small perimeter point
G1 F600.000
G1 X216.640 Y227.845 E2.01207 ; external small perimeter
G1 X217.295 Y228.299 E2.01437 ; external small perimeter
G1 X217.941 Y228.785 E2.01671 ; external small perimeter
G1 X218.567 Y229.297 E2.01904 ; external small perimeter
G1 X219.169 Y229.831 E2.02136 ; external small perimeter
G1 X219.739 Y230.381 E2.02365 ; external small perimeter
G1 X220.266 Y230.936 E2.02586 ; external small perimeter
G1 X220.748 Y231.490 E2.02797 ; external small perimeter
G1 X221.138 Y231.982 E2.02979 ; external small perimeter
G1 X221.483 Y232.459 E2.03149 ; external small perimeter
G1 X221.784 Y232.920 E2.03308 ; external small perimeter
G1 X222.040 Y233.357 E2.03454 ; external small perimeter
G1 X222.250 Y233.764 E2.03586 ; external small perimeter
G1 X222.434 Y234.179 E2.03717 ; external small perimeter
G1 X222.557 Y234.515 E2.03820 ; external small perimeter
G1 X222.638 Y234.795 E2.03904 ; external small perimeter
G1 X222.745 Y235.415 E2.04086 ; external small perimeter
G1 X222.430 Y235.502 E2.04180 ; external small perimeter
G1 X221.912 Y235.549 E2.04330 ; external small perimeter
G1 X221.224 Y235.519 E2.04529 ; external small perimeter
G1 X220.817 Y235.466 E2.04648 ; external small perimeter
G1 X219.860 Y235.262 E2.04930 ; external small perimeter
G1 X219.323 Y235.106 E2.05091 ; external small perimeter
G1 X218.756 Y234.913 E2.05264 ; external small perimeter
G1 X218.160 Y234.681 E2.05449 ; external small perimeter
G1 X217.508 Y234.395 E2.05654 ; external small perimeter
G1 X216.864 Y234.079 E2.05861 ; external small perimeter
G1 X216.208 Y233.723 E2.06077 ; external small perimeter
G1 X215.541 Y233.327 E2.06300 ; external small perimeter
G1 X214.877 Y232.897 E2.06529 ; external small perimeter
G1 X214.221 Y232.435 E2.06761 ; external small perimeter
G1 X213.578 Y231.943 E2.06994 ; external small perimeter
G1 X212.889 Y231.373 E2.07252 ; external small perimeter
G1 X215.722 Y227.479 E2.08642 ; external small perimeter
G1 X214.579 Y230.141 F1800.000 ; move to first infill point
G1 F710.061
G1 X217.561 Y233.123 E2.11037 ; infill
G1 X219.290 Y231.895 F1800.000 ; move to first infill point
G1 F710.061
G1 X218.223 Y230.827 E2.11895 ; infill
G1 Z8.920 F1800.000 ; move to next layer (2)
G1 X215.935 Y227.096 F1800.000 ; move to first external small perimeter point
G1 F600.000
G1 X216.077 Y227.138 E2.11938 ; external small perimeter
G1 X216.807 Y227.596 E2.12186 ; external small perimeter
G1 X217.470 Y228.056 E2.12419 ; external small perimeter
G1 X218.126 Y228.550 E2.12656 ; external small perimeter
G1 X218.761 Y229.069 E2.12893 ; external small perimeter
G1 X219.372 Y229.611 E2.13129 ; external small perimeter
G1 X219.951 Y230.170 E2.13361 ; external small perimeter
G1 X220.488 Y230.734 E2.13586 ; external small perimeter
G1 X220.978 Y231.299 E2.13801 ; external small perimeter
G1 X221.377 Y231.801 E2.13987 ; external small perimeter
G1 X221.730 Y232.290 E2.14160 ; external small perimeter
G1 X222.039 Y232.762 E2.14323 ; external small perimeter
G1 X222.302 Y233.212 E2.14474 ; external small perimeter
G1 X222.520 Y233.634 E2.14611 ; external small perimeter
G1 X222.711 Y234.067 E2.14747 ; external small perimeter
G1 X222.932 Y234.734 E2.14950 ; external small perimeter
G1 X222.986 Y234.988 E2.15025 ; external small perimeter
G1 X223.022 Y235.416 E2.15149 ; external small perimeter
G1 X222.997 Y235.650 E2.15217 ; external small perimeter
G1 X222.707 Y235.748 E2.15305 ; external small perimeter
G1 X222.485 Y235.798 E2.15371 ; external small perimeter
G1 X221.931 Y235.849 E2.15531 ; external small perimeter
G1 X221.194 Y235.817 E2.15744 ; external small perimeter
G1 X220.770 Y235.761 E2.15868 ; external small perimeter
G1 X220.298 Y235.674 E2.16006 ; external small perimeter
G1 X219.783 Y235.551 E2.16159 ; external small perimeter
G1 X219.233 Y235.391 E2.16324 ; external small perimeter
G1 X218.654 Y235.194 E2.16501 ; external small perimeter
G1 X218.046 Y234.958 E2.16689 ; external small perimeter
G1 X217.382 Y234.666 E2.16898 ; external small perimeter
G1 X216.727 Y234.344 E2.17109 ; external small perimeter
G1 X216.060 Y233.984 E2.17328 ; external small perimeter
G1 X215.383 Y233.582 E2.17555 ; external small perimeter
G1 X214.709 Y233.145 E2.17787 ; external small perimeter
G1 X214.044 Y232.676 E2.18022 ; external small perimeter
G1 X213.391 Y232.177 E2.18259 ; external small perimeter
G1 X212.847 Y231.726 E2.18463 ; external small perimeter
G1 X212.733 Y231.600 E2.18512 ; external small perimeter
G1 X212.674 Y231.474 E2.18552 ; external small perimeter
G1 X212.656 Y231.320 E2.18597 ; external small perimeter
G1 X212.684 Y231.183 E2.18637 ; external small perimeter
G1 X212.769 Y231.029 E2.18688 ; external small perimeter
G1 X215.518 Y227.252 E2.20036 ; external small perimeter
G1 X215.636 Y227.156 E2.20080 ; external small perimeter
G1 X215.757 Y227.108 E2.20117 ; external small perimeter
G1 X216.642 Y228.266 F1800.000 ; move to first infill point
G1 F985.127
G1 X215.574 Y229.334 E2.20907 ; infill
G1 X213.840 Y231.715 E2.22446 ; infill
G1 X214.331 Y232.091 E2.22769 ; infill
G1 X215.042 Y232.587 E2.23222 ; infill
G1 X218.198 Y229.431 E2.25555 ; infill
G1 X218.963 Y230.096 E2.26085 ; infill
G1 X219.615 Y230.735 E2.26562 ; infill
G1 X216.748 Y233.601 E2.28680 ; infill
G1 X217.433 Y233.941 E2.29080 ; infill
G1 X218.043 Y234.209 E2.29428 ; infill
G1 X218.633 Y234.437 E2.29758 ; infill
G1 X220.872 Y232.199 E2.31413 ; infill
G1 X221.392 Y232.959 E2.31894 ; infill
G1 X221.620 Y233.348 E2.32130 ; infill
G1 X221.891 Y233.901 E2.32452 ; infill
G1 X220.823 Y234.969 E2.33241 ; infill
M106 S255 ; enable fan
G1 Z10.120 F1800.000 ; move to next layer (3)
G1 X215.974 Y226.799 F1800.000 ; move to first external small perimeter point
G1 F600.000
G1 X216.209 Y226.870 E2.33312 ; external small perimeter
G1 X216.973 Y227.347 E2.33571 ; external small perimeter
G1 X217.645 Y227.814 E2.33808 ; external small perimeter
G1 X218.310 Y228.314 E2.34048 ; external small perimeter
G1 X218.955 Y228.842 E2.34288 ; external small perimeter
G1 X219.575 Y229.392 E2.34527 ; external small perimeter
G1 X220.163 Y229.959 E2.34763 ; external small perimeter
G1 X220.709 Y230.533 E2.34992 ; external small perimeter
G1 X221.208 Y231.108 E2.35212 ; external small perimeter
G1 X221.615 Y231.621 E2.35400 ; external small perimeter
G1 X221.976 Y232.120 E2.35578 ; external small perimeter
G1 X222.293 Y232.605 E2.35745 ; external small perimeter
G1 X222.564 Y233.068 E2.35900 ; external small perimeter
G1 X222.789 Y233.504 E2.36042 ; external small perimeter
G1 X222.989 Y233.955 E2.36184 ; external small perimeter
G1 X223.125 Y234.328 E2.36299 ; external small perimeter
G1 X223.284 Y234.952 E2.36485 ; external small perimeter
G1 X223.323 Y235.418 E2.36620 ; external small perimeter
G1 X223.313 Y235.568 E2.36663 ; external small perimeter
G1 X223.254 Y235.825 E2.36739 ; external small perimeter
G1 X222.967 Y235.975 E2.36833 ; external small perimeter
G1 X222.537 Y236.093 E2.36961 ; external small perimeter
G1 X222.241 Y236.131 E2.37047 ; external small perimeter
G1 X221.571 Y236.144 E2.37241 ; external small perimeter
G1 X221.173 Y236.115 E2.37356 ; external small perimeter
G1 X220.723 Y236.057 E2.37487 ; external small perimeter
G1 X220.236 Y235.966 E2.37630 ; external small perimeter
G1 X219.707 Y235.840 E2.37787 ; external small perimeter
G1 X219.144 Y235.677 E2.37956 ; external small perimeter
G1 X218.551 Y235.475 E2.38137 ; external small perimeter
G1 X217.931 Y235.234 E2.38329 ; external small perimeter
G1 X217.256 Y234.937 E2.38542 ; external small perimeter
G1 X216.590 Y234.610 E2.38756 ; external small perimeter
G1 X215.913 Y234.244 E2.38978 ; external small perimeter
G1 X215.226 Y233.836 E2.39208 ; external small perimeter
G1 X214.542 Y233.393 E2.39444 ; external small perimeter
G1 X213.866 Y232.917 E2.39682 ; external small perimeter
G1 X213.205 Y232.411 E2.39922 ; external small perimeter
G1 X212.652 Y231.953 E2.40130 ; external small perimeter
G1 X212.487 Y231.771 E2.40200 ; external small perimeter
G1 X212.386 Y231.556 E2.40269 ; external small perimeter
G1 X212.357 Y231.306 E2.40342 ; external small perimeter
G1 X212.406 Y231.074 E2.40410 ; external small perimeter
G1 X212.527 Y230.853 E2.40483 ; external small perimeter
G1 X215.293 Y227.056 E2.41839 ; external small perimeter
G1 X215.486 Y226.897 E2.41911 ; external small perimeter
G1 X215.600 Y226.842 E2.41947 ; external small perimeter
G1 X215.794 Y226.799 E2.42005 ; external small perimeter
G1 X218.647 Y230.406 F1800.000 ; move to first infill point
G1 F888.740
G1 X219.715 Y231.473 E2.42804 ; infill
G1 X220.483 Y235.000 F1800.000 ; move to first infill point
G1 F888.740
G1 X214.592 Y229.108 E2.47218 ; infill
G1 X213.430 Y230.704 E2.48263 ; infill
G1 X214.497 Y231.771 E2.49063 ; infill
M106 S247.35 ; enable fan
G1 Z11.320 F1800.000 ; move to next layer (4)
G1 E0.49063 F2400.00000 ; retract extruder 0
G92 E0 ; reset extrusion distance
G1 X216.013 Y226.502 F1800.000 ; move to first external small perimeter point
G1 E2.00000 F2400.00000 ; unretract extruder 0
G1 F600.000
G1 X216.184 Y226.539 E2.00051 ; external small perimeter
G1 X216.342 Y226.602 E2.00100 ; external small perimeter
G1 X217.139 Y227.098 E2.00371 ; external small perimeter
G1 X217.821 Y227.571 E2.00610 ; external small perimeter
G1 X218.495 Y228.079 E2.00854 ; external small perimeter
G1 X219.149 Y228.614 E2.01098 ; external small perimeter
G1 X219.778 Y229.172 E2.01340 ; external small perimeter
G1 X220.375 Y229.748 E2.01580 ; external small perimeter
G1 X220.930 Y230.332 E2.01812 ; external small perimeter
G1 X221.439 Y230.917 E2.02036 ; external small perimeter
G1 X221.853 Y231.440 E2.02228 ; external small perimeter
G1 X222.223 Y231.951 E2.02410 ; external small perimeter
G1 X222.547 Y232.447 E2.02582 ; external small perimeter
G1 X222.826 Y232.924 E2.02741 ; external small perimeter
G1 X223.059 Y233.375 E2.02887 ; external small perimeter
G1 X223.266 Y233.844 E2.03035 ; external small perimeter
G1 X223.409 Y234.234 E2.03155 ; external small perimeter
G1 X223.512 Y234.587 E2.03261 ; external small perimeter
G1 X223.579 Y234.902 E2.03354 ; external small perimeter
G1 X223.622 Y235.409 E2.03501 ; external small perimeter
G1 X223.585 Y235.738 E2.03597 ; external small perimeter
G1 X223.542 Y235.875 E2.03638 ; external small perimeter
G1 X223.485 Y235.975 E2.03671 ; external small perimeter
G1 X223.373 Y236.098 E2.03719 ; external small perimeter
G1 X223.078 Y236.253 E2.03815 ; external small perimeter
G1 X222.868 Y236.324 E2.03880 ; external small perimeter
G1 X222.589 Y236.387 E2.03962 ; external small perimeter
G1 X222.267 Y236.429 E2.04056 ; external small perimeter
G1 X221.558 Y236.443 E2.04260 ; external small perimeter
G1 X221.143 Y236.413 E2.04381 ; external small perimeter
G1 X220.676 Y236.352 E2.04516 ; external small perimeter
G1 X220.174 Y236.259 E2.04664 ; external small perimeter
G1 X219.631 Y236.129 E2.04825 ; external small perimeter
G1 X219.054 Y235.962 E2.04998 ; external small perimeter
G1 X218.449 Y235.757 E2.05183 ; external small perimeter
G1 X217.817 Y235.511 E2.05378 ; external small perimeter
G1 X217.130 Y235.208 E2.05595 ; external small perimeter
G1 X216.452 Y234.876 E2.05813 ; external small perimeter
G1 X215.765 Y234.504 E2.06038 ; external small perimeter
G1 X215.068 Y234.090 E2.06272 ; external small perimeter
G1 X214.374 Y233.641 E2.06511 ; external small perimeter
G1 X213.689 Y233.158 E2.06753 ; external small perimeter
G1 X213.018 Y232.645 E2.06997 ; external small perimeter
G1 X212.436 Y232.163 E2.07215 ; external small perimeter
G1 X212.249 Y231.955 E2.07295 ; external small perimeter
G1 X212.161 Y231.803 E2.07346 ; external small perimeter
G1 X212.099 Y231.639 E2.07397 ; external small perimeter
G1 X212.064 Y231.467 E2.07447 ; external small perimeter
G1 X212.058 Y231.292 E2.07498 ; external small perimeter
G1 X212.081 Y231.118 E2.07549 ; external small perimeter
G1 X212.132 Y230.950 E2.07599 ; external small perimeter
