; generated by Slic3r 1.3.1-dev (Build (Unknown revision)) on 2022-09-17 at 14:55:49

; external perimeters extrusion width = 1.32mm (12.75mm^3/s)
; perimeters extrusion width = 1.26mm (12.03mm^3/s)
; infill extrusion width = 2.00mm (20.91mm^3/s)
; solid infill extrusion width = 2.00mm (41.82mm^3/s)
; top infill extrusion width = 1.26mm (18.04mm^3/s)

M107 ; disable fan
G92 E0 ; reset extrusion distance
M104 S200 ; set temperature
G28 ; home all axes
G1 Z5 F5000 ; lift nozzle

; Filament gcode

M109 S200 ; set temperature and wait for it to be reached
G21 ; set units to millimeters
G90 ; use absolute coordinates
M82 ; use absolute distances for extrusion
G92 E0 ; reset extrusion distance
G1 Z6.520 F1800.000 ; move to next layer (0)
G1 E-2.00000 F2400.00000 ; retract extruder 0
G92 E0 ; reset extrusion distance
G1 X194.462 Y243.656 F1800.000 ; move to first external small perimeter point
G1 E2.00000 F2400.00000 ; unretract extruder 0
G1 F600.000
G1 X198.295 Y242.408 E2.00960 ; external small perimeter
G1 X198.699 Y243.565 E2.01253 ; external small perimeter
G1 X198.929 Y244.319 E2.01440 ; external small perimeter
G1 X199.130 Y245.080 E2.01628 ; external small perimeter
G1 X199.298 Y245.844 E2.01814 ; external small perimeter
G1 X199.432 Y246.602 E2.01998 ; external small perimeter
G1 X199.530 Y247.338 E2.02174 ; external small perimeter
G1 X199.591 Y248.045 E2.02344 ; external small perimeter
G1 X199.617 Y248.649 E2.02488 ; external small perimeter
G1 X199.616 Y249.214 E2.02622 ; external small perimeter
G1 X199.590 Y249.737 E2.02747 ; external small perimeter
G1 X199.478 Y250.637 E2.02963 ; external small perimeter
G1 X199.219 Y251.837 E2.03256 ; external small perimeter
G1 X198.220 Y250.891 E2.03584 ; external small perimeter
G1 X197.919 Y250.574 E2.03688 ; external small perimeter
G1 X197.274 Y249.782 E2.03931 ; external small perimeter
G1 X196.942 Y249.312 E2.04068 ; external small perimeter
G1 X196.609 Y248.793 E2.04215 ; external small perimeter
G1 X196.261 Y248.198 E2.04380 ; external small perimeter
G1 X195.936 Y247.582 E2.04545 ; external small perimeter
G1 X195.623 Y246.929 E2.04718 ; external small perimeter
G1 X195.325 Y246.236 E2.04898 ; external small perimeter
G1 X195.048 Y245.516 E2.05082 ; external small perimeter
G1 X194.796 Y244.776 E2.05268 ; external small perimeter
G1 X194.513 Y243.828 E2.05504 ; external small perimeter
G1 X196.426 Y244.029 F1800.000 ; move to first infill point
G1 F600.000
G1 X196.460 Y244.083 E2.05533 ; infill
G1 F600.000
G1 X196.494 Y244.138 E2.05562 ; infill
G1 F600.000
G1 X196.528 Y244.193 E2.05590 ; infill
G1 F600.000
G1 X196.562 Y244.247 E2.05618 ; infill
G1 F600.000
G1 X196.596 Y244.302 E2.05644 ; infill
G1 F600.000
G1 X196.630 Y244.357 E2.05670 ; infill
G1 F600.000
G1 X196.664 Y244.412 E2.05695 ; infill
G1 F600.000
G1 X196.698 Y244.466 E2.05719 ; infill
G1 F600.000
G1 X196.732 Y244.521 E2.05743 ; infill
G1 F600.000
G1 X196.766 Y244.576 E2.05765 ; infill
G1 F600.000
G1 X196.800 Y244.630 E2.05787 ; infill
G1 F600.000
G1 X196.834 Y244.685 E2.05808 ; infill
G1 F600.000
G1 X196.868 Y244.740 E2.05829 ; infill
G1 F600.000
G1 X196.902 Y244.794 E2.05848 ; infill
G1 F600.000
G1 X196.936 Y244.849 E2.05867 ; infill
G1 F600.000
G1 X196.969 Y244.904 E2.05885 ; infill
G1 F600.000
G1 X197.003 Y244.959 E2.05902 ; infill
G1 F600.000
G1 X197.173 Y245.482 E2.06042 ; infill
G1 F600.000
G1 X197.320 Y245.935 E2.06159 ; infill
G1 F600.000
G1 X197.413 Y246.219 E2.06229 ; infill
G1 F600.000
G1 X197.499 Y246.486 E2.06293 ; infill
G1 F600.000
G1 X197.585 Y246.753 E2.06355 ; infill
G1 F600.000
G1 X197.667 Y246.999 E2.06409 ; infill
G1 F600.000
G1 X197.742 Y247.236 E2.06458 ; infill
G1 F600.000
G1 X198.201 Y248.583 E2.06726 ; infill
G1 F600.000
G1 X198.622 Y249.813 E2.06957 ; infill
G1 Z7.720 F1800.000 ; move to next layer (1)
G1 X193.840 Y243.298 F1800.000 ; move to first external small perimeter point
G1 F600.000
G1 X198.585 Y241.753 E2.09207 ; external small perimeter
G1 X198.943 Y242.647 E2.09642 ; external small perimeter
G1 X199.206 Y243.399 E2.10001 ; external small perimeter
G1 X199.442 Y244.173 E2.10366 ; external small perimeter
G1 X199.648 Y244.955 E2.10730 ; external small perimeter
G1 X199.821 Y245.741 E2.11093 ; external small perimeter
G1 X199.959 Y246.520 E2.11450 ; external small perimeter
G1 X200.060 Y247.279 E2.11796 ; external small perimeter
G1 X200.123 Y248.010 E2.12126 ; external small perimeter
G1 X200.150 Y248.638 E2.12410 ; external small perimeter
G1 X200.149 Y249.227 E2.12675 ; external small perimeter
G1 X200.122 Y249.777 E2.12924 ; external small perimeter
G1 X200.072 Y250.280 E2.13152 ; external small perimeter
G1 X200.002 Y250.733 E2.13358 ; external small perimeter
G1 X199.907 Y251.177 E2.13563 ; external small perimeter
G1 X199.809 Y251.521 E2.13724 ; external small perimeter
G1 X199.710 Y251.796 E2.13856 ; external small perimeter
G1 X199.432 Y252.361 E2.14140 ; external small perimeter
G1 X199.126 Y252.245 E2.14287 ; external small perimeter
G1 X198.680 Y251.979 E2.14522 ; external small perimeter
G1 X198.141 Y251.550 E2.14832 ; external small perimeter
G1 X197.842 Y251.268 E2.15018 ; external small perimeter
G1 X197.188 Y250.540 E2.15459 ; external small perimeter
G1 X196.845 Y250.099 E2.15711 ; external small perimeter
G1 X196.500 Y249.610 E2.15981 ; external small perimeter
G1 X196.154 Y249.072 E2.16269 ; external small perimeter
G1 X195.795 Y248.457 E2.16590 ; external small perimeter
G1 X195.460 Y247.822 E2.16914 ; external small perimeter
G1 X195.138 Y247.149 E2.17250 ; external small perimeter
G1 X194.831 Y246.437 E2.17600 ; external small perimeter
G1 X194.547 Y245.698 E2.17957 ; external small perimeter
G1 X194.288 Y244.939 E2.18319 ; external small perimeter
G1 X194.057 Y244.164 E2.18683 ; external small perimeter
G1 X193.884 Y243.473 E2.19005 ; external small perimeter
G1 X198.298 Y244.013 F1800.000 ; move to first infill point
G1 F809.547
G1 X197.230 Y242.946 E2.20303 ; infill
G1 X195.069 Y243.650 E2.22257 ; infill
G1 X199.188 Y247.768 E2.27265 ; infill
G1 X199.272 Y248.634 E2.28013 ; infill
G1 X199.296 Y249.200 E2.28500 ; infill
G1 X199.295 Y249.725 E2.28952 ; infill
G1 X199.224 Y250.669 E2.29765 ; infill
G1 X198.155 Y249.600 E2.31065 ; infill
G1 Z8.920 F1800.000 ; move to next layer (2)
G1 X193.577 Y243.475 F1800.000 ; move to first external small perimeter point
G1 F600.000
G1 X193.581 Y243.327 E2.31132 ; external small perimeter
G1 X193.634 Y243.181 E2.31202 ; external small perimeter
G1 X193.730 Y243.061 E2.31271 ; external small perimeter
G1 X193.859 Y242.979 E2.31340 ; external small perimeter
G1 X198.300 Y241.531 E2.33447 ; external small perimeter
G1 X198.473 Y241.498 E2.33526 ; external small perimeter
G1 X198.612 Y241.514 E2.33589 ; external small perimeter
G1 X198.752 Y241.578 E2.33659 ; external small perimeter
G1 X198.855 Y241.674 E2.33722 ; external small perimeter
G1 X198.939 Y241.820 E2.33798 ; external small perimeter
G1 X199.223 Y242.542 E2.34148 ; external small perimeter
G1 X199.490 Y243.306 E2.34513 ; external small perimeter
G1 X199.730 Y244.091 E2.34883 ; external small perimeter
G1 X199.939 Y244.885 E2.35253 ; external small perimeter
G1 X200.115 Y245.682 E2.35621 ; external small perimeter
G1 X200.255 Y246.474 E2.35984 ; external small perimeter
G1 X200.357 Y247.247 E2.36335 ; external small perimeter
G1 X200.422 Y247.991 E2.36672 ; external small perimeter
G1 X200.449 Y248.632 E2.36962 ; external small perimeter
G1 X200.448 Y249.235 E2.37233 ; external small perimeter
G1 X200.420 Y249.799 E2.37488 ; external small perimeter
G1 X200.369 Y250.318 E2.37723 ; external small perimeter
G1 X200.297 Y250.787 E2.37937 ; external small perimeter
G1 X200.197 Y251.250 E2.38151 ; external small perimeter
G1 X199.984 Y251.919 E2.38467 ; external small perimeter
G1 X199.763 Y252.369 E2.38694 ; external small perimeter
G1 X199.666 Y252.512 E2.38771 ; external small perimeter
G1 X199.498 Y252.698 E2.38884 ; external small perimeter
G1 X199.205 Y252.607 E2.39022 ; external small perimeter
G1 X198.757 Y252.387 E2.39248 ; external small perimeter
G1 X198.239 Y252.025 E2.39533 ; external small perimeter
G1 X197.948 Y251.780 E2.39704 ; external small perimeter
G1 X197.301 Y251.131 E2.40117 ; external small perimeter
G1 X196.956 Y250.729 E2.40356 ; external small perimeter
G1 X196.605 Y250.277 E2.40614 ; external small perimeter
G1 X196.252 Y249.777 E2.40890 ; external small perimeter
G1 X195.899 Y249.228 E2.41185 ; external small perimeter
G1 X195.534 Y248.602 E2.41511 ; external small perimeter
G1 X195.193 Y247.957 E2.41841 ; external small perimeter
G1 X194.866 Y247.273 E2.42182 ; external small perimeter
G1 X194.554 Y246.550 E2.42537 ; external small perimeter
G1 X194.265 Y245.800 E2.42900 ; external small perimeter
G1 X194.003 Y245.030 E2.43267 ; external small perimeter
G1 X193.769 Y244.245 E2.43636 ; external small perimeter
G1 X193.621 Y243.650 E2.43912 ; external small perimeter
G1 X195.683 Y243.484 F1800.000 ; move to first infill point
G1 F978.178
G1 X194.615 Y244.551 E2.45098 ; infill
G1 X194.791 Y245.141 E2.45581 ; infill
G1 X195.036 Y245.861 E2.46177 ; infill
G1 X195.282 Y246.500 E2.46715 ; infill
G1 X198.672 Y243.110 E2.50479 ; infill
G1 X198.705 Y243.204 E2.50557 ; infill
G1 X198.929 Y243.937 E2.51158 ; infill
G1 X199.232 Y245.166 E2.52152 ; infill
G1 X196.117 Y248.281 E2.55610 ; infill
G1 X196.549 Y249.037 E2.56293 ; infill
G1 X197.121 Y249.892 E2.57101 ; infill
G1 X199.563 Y247.451 E2.59811 ; infill
G1 X199.595 Y248.126 E2.60342 ; infill
G1 X199.570 Y249.163 E2.61156 ; infill
G1 X199.525 Y249.611 E2.61509 ; infill
G1 X199.421 Y250.208 E2.61985 ; infill
G1 X198.353 Y251.276 E2.63171 ; infill
M106 S255 ; enable fan
G1 Z10.120 F1800.000 ; move to next layer (3)
G1 X193.281 Y243.519 F1800.000 ; move to first external small perimeter point
G1 F600.000
G1 X193.287 Y243.272 E2.63282 ; external small perimeter
G1 X193.373 Y243.035 E2.63396 ; external small perimeter
G1 X193.530 Y242.838 E2.63509 ; external small perimeter
G1 X193.741 Y242.704 E2.63622 ; external small perimeter
G1 X198.208 Y241.246 E2.65741 ; external small perimeter
G1 X198.455 Y241.200 E2.65854 ; external small perimeter
G1 X198.691 Y241.225 E2.65961 ; external small perimeter
G1 X198.920 Y241.330 E2.66075 ; external small perimeter
G1 X199.093 Y241.493 E2.66182 ; external small perimeter
G1 X199.215 Y241.705 E2.66292 ; external small perimeter
G1 X199.504 Y242.437 E2.66647 ; external small perimeter
G1 X199.775 Y243.213 E2.67018 ; external small perimeter
G1 X200.018 Y244.009 E2.67393 ; external small perimeter
G1 X200.230 Y244.815 E2.67768 ; external small perimeter
G1 X200.408 Y245.624 E2.68142 ; external small perimeter
G1 X200.550 Y246.429 E2.68511 ; external small perimeter
G1 X200.655 Y247.214 E2.68868 ; external small perimeter
G1 X200.721 Y247.972 E2.69211 ; external small perimeter
G1 X200.748 Y248.626 E2.69506 ; external small perimeter
G1 X200.747 Y249.243 E2.69784 ; external small perimeter
G1 X200.718 Y249.821 E2.70045 ; external small perimeter
G1 X200.665 Y250.355 E2.70287 ; external small perimeter
G1 X200.591 Y250.841 E2.70509 ; external small perimeter
G1 X200.487 Y251.323 E2.70731 ; external small perimeter
G1 X200.379 Y251.704 E2.70910 ; external small perimeter
G1 X200.140 Y252.302 E2.71200 ; external small perimeter
G1 X199.898 Y252.702 E2.71411 ; external small perimeter
G1 X199.801 Y252.817 E2.71479 ; external small perimeter
G1 X199.618 Y252.977 E2.71589 ; external small perimeter
G1 X199.297 Y252.948 E2.71734 ; external small perimeter
G1 X198.865 Y252.786 E2.71942 ; external small perimeter
G1 X198.603 Y252.643 E2.72077 ; external small perimeter
G1 X198.054 Y252.260 E2.72379 ; external small perimeter
G1 X197.419 Y251.691 E2.72763 ; external small perimeter
G1 X197.078 Y251.331 E2.72987 ; external small perimeter
G1 X196.725 Y250.918 E2.73232 ; external small perimeter
G1 X196.365 Y250.455 E2.73496 ; external small perimeter
G1 X196.004 Y249.944 E2.73779 ; external small perimeter
G1 X195.644 Y249.384 E2.74078 ; external small perimeter
G1 X195.272 Y248.747 E2.74411 ; external small perimeter
G1 X194.925 Y248.091 E2.74746 ; external small perimeter
G1 X194.593 Y247.397 E2.75093 ; external small perimeter
G1 X194.277 Y246.663 E2.75453 ; external small perimeter
G1 X193.984 Y245.902 E2.75821 ; external small perimeter
G1 X193.718 Y245.121 E2.76193 ; external small perimeter
G1 X193.481 Y244.325 E2.76568 ; external small perimeter
G1 X193.324 Y243.693 E2.76861 ; external small perimeter
G1 X198.662 Y243.266 F1800.000 ; move to first infill point
G1 F1063.216
G1 X197.594 Y242.198 E2.78025 ; infill
G1 X195.658 Y242.830 E2.79594 ; infill
G1 X199.650 Y246.822 E2.83946 ; infill
G1 X199.809 Y247.899 E2.84785 ; infill
G1 X199.869 Y248.596 E2.85324 ; infill
G1 X199.893 Y249.633 E2.86124 ; infill
G1 X194.547 Y244.287 E2.91950 ; infill
G1 X194.755 Y244.895 E2.92445 ; infill
G1 X195.028 Y245.605 E2.93032 ; infill
G1 X195.323 Y246.289 E2.93606 ; infill
G1 X195.631 Y246.934 E2.94156 ; infill
G1 X195.951 Y247.539 E2.94684 ; infill
G1 X196.294 Y248.126 E2.95208 ; infill
G1 X196.621 Y248.635 E2.95674 ; infill
G1 X197.266 Y249.507 E2.96510 ; infill
G1 X197.851 Y250.159 E2.97185 ; infill
G1 X198.919 Y251.226 E2.98349 ; infill
M106 S247.35 ; enable fan
G1 Z11.320 F1800.000 ; move to next layer (4)
G1 E0.98349 F2400.00000 ; retract extruder 0
G92 E0 ; reset extrusion distance
G1 X198.597 Y240.904 F1800.000 ; move to first external small perimeter point
G1 E2.00000 F2400.00000 ; unretract extruder 0
G1 F600.000
G1 X198.770 Y240.937 E2.00079 ; external small perimeter
G1 X198.934 Y240.997 E2.00158 ; external small perimeter
G1 X199.087 Y241.083 E2.00237 ; external small perimeter
G1 X199.224 Y241.192 E2.00317 ; external small perimeter
G1 X199.341 Y241.323 E2.00396 ; external small perimeter
G1 X199.432 Y241.466 E2.00472 ; external small perimeter
G1 X199.785 Y242.336 E2.00896 ; external small perimeter
G1 X200.059 Y243.120 E2.01270 ; external small perimeter
G1 X200.306 Y243.927 E2.01650 ; external small perimeter
G1 X200.521 Y244.744 E2.02031 ; external small perimeter
G1 X200.701 Y245.566 E2.02411 ; external small perimeter
G1 X200.846 Y246.383 E2.02785 ; external small perimeter
G1 X200.952 Y247.181 E2.03148 ; external small perimeter
G1 X201.019 Y247.953 E2.03498 ; external small perimeter
G1 X201.047 Y248.620 E2.03799 ; external small perimeter
G1 X201.046 Y249.250 E2.04083 ; external small perimeter
G1 X201.017 Y249.843 E2.04350 ; external small perimeter
G1 X200.962 Y250.392 E2.04599 ; external small perimeter
G1 X200.886 Y250.894 E2.04828 ; external small perimeter
G1 X200.778 Y251.395 E2.05059 ; external small perimeter
G1 X200.664 Y251.795 E2.05247 ; external small perimeter
G1 X200.539 Y252.141 E2.05413 ; external small perimeter
G1 X200.274 Y252.680 E2.05684 ; external small perimeter
G1 X200.020 Y253.022 E2.05876 ; external small perimeter
G1 X199.833 Y253.185 E2.05987 ; external small perimeter
G1 X199.734 Y253.242 E2.06039 ; external small perimeter
G1 X199.579 Y253.273 E2.06110 ; external small perimeter
G1 X199.373 Y253.267 E2.06203 ; external small perimeter
G1 X199.224 Y253.238 E2.06271 ; external small perimeter
G1 X198.997 Y253.168 E2.06379 ; external small perimeter
G1 X198.734 Y253.055 E2.06508 ; external small perimeter
G1 X198.439 Y252.894 E2.06659 ; external small perimeter
G1 X197.876 Y252.501 E2.06969 ; external small perimeter
G1 X197.550 Y252.226 E2.07161 ; external small perimeter
G1 X197.208 Y251.903 E2.07374 ; external small perimeter
G1 X196.856 Y251.532 E2.07604 ; external small perimeter
G1 X196.493 Y251.108 E2.07856 ; external small perimeter
G1 X196.124 Y250.633 E2.08127 ; external small perimeter
G1 X195.756 Y250.111 E2.08415 ; external small perimeter
G1 X195.389 Y249.541 E2.08721 ; external small perimeter
G1 X195.011 Y248.892 E2.09059 ; external small perimeter
G1 X194.658 Y248.226 E2.09399 ; external small perimeter
G1 X194.321 Y247.521 E2.09752 ; external small perimeter
