; generated by Slic3r 1.3.1-dev (Build (Unknown revision)) on 2022-09-17 at 14:55:49

; external perimeters extrusion width = 1.32mm (12.75mm^3/s)
; perimeters extrusion width = 1.26mm (12.03mm^3/s)
; infill extrusion width = 2.00mm (20.91mm^3/s)
; solid infill extrusion width = 2.00mm (41.82mm^3/s)
; top infill extrusion width = 1.26mm (18.04mm^3/s)

M107 ; disable fan
G92 E0 ; reset extrusion distance
M104 S200 ; set temperature
G28 ; home all axes
G1 Z5 F5000 ; lift nozzle

; Filament gcode

M109 S200 ; set temperature and wait for it to be reached
G21 ; set units to millimeters
G90 ; use absolute coordinates
M82 ; use absolute distances for extrusion
G92 E0 ; reset extrusion distance
G1 Z6.520 F1800.000 ; move to next layer (0)
G1 E-2.00000 F2400.00000 ; retract extruder 0
G92 E0 ; reset extrusion distance
G1 X171.708 Y242.401 F1800.000 ; move to first external small perimeter point
G1 E2.00000 F2400.00000 ; unretract extruder 0
G1 F600.000
G1 X175.542 Y243.647 E2.00960 ; external small perimeter
G1 X175.189 Y244.818 E2.01252 ; external small perimeter
G1 X174.933 Y245.563 E2.01440 ; external small perimeter
G1 X174.647 Y246.297 E2.01627 ; external small perimeter
G1 X174.334 Y247.014 E2.01814 ; external small perimeter
G1 X173.997 Y247.706 E2.01997 ; external small perimeter
G1 X173.644 Y248.358 E2.02174 ; external small perimeter
G1 X173.278 Y248.967 E2.02343 ; external small perimeter
G1 X172.943 Y249.471 E2.02487 ; external small perimeter
G1 X172.610 Y249.927 E2.02622 ; external small perimeter
G1 X172.282 Y250.335 E2.02747 ; external small perimeter
G1 X171.662 Y250.997 E2.02963 ; external small perimeter
G1 X170.781 Y251.787 E2.03245 ; external small perimeter
G1 X170.494 Y250.449 E2.03571 ; external small perimeter
G1 X170.439 Y250.030 E2.03671 ; external small perimeter
G1 X170.382 Y249.010 E2.03915 ; external small perimeter
G1 X170.390 Y248.434 E2.04052 ; external small perimeter
G1 X170.425 Y247.819 E2.04199 ; external small perimeter
G1 X170.494 Y247.133 E2.04363 ; external small perimeter
G1 X170.593 Y246.444 E2.04529 ; external small perimeter
G1 X170.724 Y245.731 E2.04701 ; external small perimeter
G1 X170.890 Y244.995 E2.04881 ; external small perimeter
G1 X171.088 Y244.250 E2.05065 ; external small perimeter
G1 X171.319 Y243.504 E2.05251 ; external small perimeter
G1 X171.648 Y242.571 E2.05487 ; external small perimeter
G1 X173.080 Y243.859 F1800.000 ; move to first infill point
G1 F600.000
G1 X173.078 Y243.891 E2.05502 ; infill
G1 F600.000
G1 X173.073 Y243.955 E2.05531 ; infill
G1 F600.000
G1 X173.068 Y244.019 E2.05559 ; infill
G1 F600.000
G1 X173.063 Y244.084 E2.05586 ; infill
G1 F600.000
G1 X173.059 Y244.148 E2.05613 ; infill
G1 F600.000
G1 X173.054 Y244.212 E2.05638 ; infill
G1 F600.000
G1 X173.049 Y244.276 E2.05663 ; infill
G1 F600.000
G1 X173.044 Y244.340 E2.05687 ; infill
G1 F600.000
G1 X173.039 Y244.404 E2.05711 ; infill
G1 F600.000
G1 X173.034 Y244.469 E2.05733 ; infill
G1 F600.000
G1 X173.029 Y244.533 E2.05755 ; infill
G1 F600.000
G1 X173.025 Y244.597 E2.05776 ; infill
G1 F600.000
G1 X173.020 Y244.661 E2.05797 ; infill
G1 F600.000
G1 X173.015 Y244.725 E2.05816 ; infill
G1 F600.000
G1 X173.010 Y244.789 E2.05835 ; infill
G1 F600.000
G1 X173.005 Y244.854 E2.05853 ; infill
G1 F600.000
G1 X173.000 Y244.918 E2.05870 ; infill
G1 F600.000
G1 X172.913 Y245.211 E2.05947 ; infill
G1 F600.000
G1 X172.744 Y245.731 E2.06081 ; infill
G1 F600.000
G1 X172.617 Y246.119 E2.06177 ; infill
G1 F600.000
G1 X172.546 Y246.342 E2.06231 ; infill
G1 F600.000
G1 X172.458 Y246.609 E2.06292 ; infill
G1 F600.000
G1 X172.374 Y246.871 E2.06350 ; infill
G1 F600.000
G1 X172.296 Y247.107 E2.06399 ; infill
G1 F600.000
G1 X172.219 Y247.343 E2.06446 ; infill
G1 F600.000
G1 X171.455 Y249.828 E2.06909 ; infill
G1 Z7.720 F1800.000 ; move to next layer (1)
G1 X171.410 Y241.744 F1800.000 ; move to first external small perimeter point
G1 F600.000
G1 X176.161 Y243.288 E2.09162 ; external small perimeter
G1 X175.926 Y244.219 E2.09595 ; external small perimeter
G1 X175.697 Y244.982 E2.09954 ; external small perimeter
G1 X175.433 Y245.747 E2.10318 ; external small perimeter
G1 X175.140 Y246.500 E2.10683 ; external small perimeter
G1 X174.818 Y247.238 E2.11046 ; external small perimeter
G1 X174.472 Y247.949 E2.11403 ; external small perimeter
G1 X174.107 Y248.623 E2.11748 ; external small perimeter
G1 X173.729 Y249.252 E2.12079 ; external small perimeter
G1 X173.381 Y249.775 E2.12363 ; external small perimeter
G1 X173.034 Y250.251 E2.12628 ; external small perimeter
G1 X172.689 Y250.680 E2.12876 ; external small perimeter
G1 X172.352 Y251.058 E2.13104 ; external small perimeter
G1 X172.030 Y251.384 E2.13311 ; external small perimeter
G1 X171.692 Y251.686 E2.13516 ; external small perimeter
G1 X171.420 Y251.900 E2.13672 ; external small perimeter
G1 X170.942 Y252.202 E2.13927 ; external small perimeter
G1 X170.551 Y252.366 E2.14118 ; external small perimeter
G1 X170.228 Y251.614 E2.14487 ; external small perimeter
G1 X170.044 Y250.950 E2.14798 ; external small perimeter
G1 X169.969 Y250.546 E2.14983 ; external small perimeter
G1 X169.867 Y249.573 E2.15425 ; external small perimeter
G1 X169.849 Y249.015 E2.15676 ; external small perimeter
G1 X169.857 Y248.416 E2.15947 ; external small perimeter
G1 X169.894 Y247.777 E2.16235 ; external small perimeter
G1 X169.965 Y247.069 E2.16556 ; external small perimeter
G1 X170.066 Y246.358 E2.16880 ; external small perimeter
G1 X170.202 Y245.624 E2.17216 ; external small perimeter
G1 X170.372 Y244.868 E2.17566 ; external small perimeter
G1 X170.576 Y244.103 E2.17923 ; external small perimeter
G1 X170.813 Y243.336 E2.18285 ; external small perimeter
G1 X171.082 Y242.573 E2.18650 ; external small perimeter
G1 X171.344 Y241.912 E2.18970 ; external small perimeter
G1 X175.016 Y244.736 F1800.000 ; move to first infill point
G1 F877.054
G1 X173.949 Y243.668 E2.20310 ; infill
G1 X171.702 Y242.938 E2.22406 ; infill
G1 X171.355 Y244.031 E2.23424 ; infill
G1 X174.220 Y246.896 E2.27020 ; infill
G1 X173.771 Y247.849 E2.27954 ; infill
G1 X173.210 Y248.843 E2.28968 ; infill
G1 X170.841 Y246.475 E2.31940 ; infill
G1 X170.743 Y247.352 E2.32724 ; infill
G1 X170.710 Y247.931 E2.33238 ; infill
G1 X170.718 Y248.945 E2.34138 ; infill
G1 X170.761 Y249.351 E2.34501 ; infill
G1 X171.957 Y250.548 E2.36003 ; infill
G1 X171.854 Y250.662 E2.36140 ; infill
G1 X171.828 Y250.419 E2.36357 ; infill
G1 Z8.920 F1800.000 ; move to next layer (2)
G1 X171.618 Y241.499 F1800.000 ; move to first external small perimeter point
G1 F600.000
G1 X176.143 Y242.969 E2.38502 ; external small perimeter
G1 X176.271 Y243.051 E2.38571 ; external small perimeter
G1 X176.368 Y243.171 E2.38641 ; external small perimeter
G1 X176.420 Y243.317 E2.38710 ; external small perimeter
G1 X176.424 Y243.465 E2.38777 ; external small perimeter
G1 X176.214 Y244.300 E2.39166 ; external small perimeter
G1 X175.981 Y245.074 E2.39530 ; external small perimeter
G1 X175.714 Y245.850 E2.39900 ; external small perimeter
G1 X175.417 Y246.615 E2.40270 ; external small perimeter
G1 X175.090 Y247.363 E2.40638 ; external small perimeter
G1 X174.738 Y248.086 E2.41001 ; external small perimeter
G1 X174.367 Y248.771 E2.41352 ; external small perimeter
G1 X173.981 Y249.412 E2.41689 ; external small perimeter
G1 X173.627 Y249.946 E2.41979 ; external small perimeter
G1 X173.271 Y250.433 E2.42250 ; external small perimeter
G1 X172.917 Y250.873 E2.42505 ; external small perimeter
G1 X172.571 Y251.262 E2.42740 ; external small perimeter
G1 X172.237 Y251.600 E2.42954 ; external small perimeter
G1 X171.884 Y251.916 E2.43168 ; external small perimeter
G1 X171.319 Y252.332 E2.43484 ; external small perimeter
G1 X171.093 Y252.462 E2.43602 ; external small perimeter
G1 X170.697 Y252.628 E2.43795 ; external small perimeter
G1 X170.467 Y252.676 E2.43901 ; external small perimeter
G1 X170.284 Y252.431 E2.44039 ; external small perimeter
G1 X170.168 Y252.235 E2.44142 ; external small perimeter
G1 X169.949 Y251.724 E2.44393 ; external small perimeter
G1 X169.752 Y251.014 E2.44725 ; external small perimeter
G1 X169.673 Y250.593 E2.44918 ; external small perimeter
G1 X169.611 Y250.117 E2.45135 ; external small perimeter
G1 X169.568 Y249.590 E2.45373 ; external small perimeter
G1 X169.550 Y249.017 E2.45631 ; external small perimeter
G1 X169.558 Y248.405 E2.45907 ; external small perimeter
G1 X169.595 Y247.754 E2.46202 ; external small perimeter
G1 X169.668 Y247.032 E2.46528 ; external small perimeter
G1 X169.771 Y246.310 E2.46858 ; external small perimeter
G1 X169.908 Y245.565 E2.47199 ; external small perimeter
G1 X170.081 Y244.796 E2.47554 ; external small perimeter
G1 X170.288 Y244.020 E2.47917 ; external small perimeter
G1 X170.529 Y243.242 E2.48284 ; external small perimeter
G1 X170.802 Y242.468 E2.48654 ; external small perimeter
G1 X171.062 Y241.811 E2.48973 ; external small perimeter
G1 X171.189 Y241.617 E2.49077 ; external small perimeter
G1 X171.317 Y241.530 E2.49147 ; external small perimeter
G1 X171.439 Y241.495 E2.49204 ; external small perimeter
G1 X173.197 Y242.763 F1800.000 ; move to first infill point
G1 F955.024
G1 X171.118 Y244.842 E2.51813 ; infill
G1 X170.895 Y245.662 E2.52567 ; infill
G1 X170.734 Y246.376 E2.53217 ; infill
G1 X170.607 Y247.068 E2.53841 ; infill
G1 X170.512 Y247.734 E2.54438 ; infill
G1 X170.441 Y248.476 E2.55100 ; infill
G1 X175.363 Y243.554 E2.61278 ; infill
G1 X175.194 Y244.114 E2.61797 ; infill
G1 X174.945 Y244.838 E2.62476 ; infill
G1 X174.668 Y245.551 E2.63155 ; infill
G1 X174.364 Y246.248 E2.63830 ; infill
G1 X174.037 Y246.918 E2.64491 ; infill
G1 X173.695 Y247.549 E2.65128 ; infill
G1 X173.342 Y248.136 E2.65737 ; infill
G1 X173.022 Y248.619 E2.66251 ; infill
G1 X172.392 Y249.443 E2.67171 ; infill
G1 X172.092 Y249.779 E2.67570 ; infill
G1 X170.745 Y251.129 E2.69263 ; infill
M106 S255 ; enable fan
G1 Z10.120 F1800.000 ; move to next layer (3)
G1 X171.685 Y241.207 F1800.000 ; move to first external small perimeter point
G1 F600.000
G1 X176.155 Y242.653 E2.71382 ; external small perimeter
G1 X176.382 Y242.761 E2.71495 ; external small perimeter
G1 X176.471 Y242.828 E2.71546 ; external small perimeter
G1 X176.629 Y243.025 E2.71659 ; external small perimeter
G1 X176.715 Y243.262 E2.71773 ; external small perimeter
G1 X176.720 Y243.508 E2.71884 ; external small perimeter
G1 X176.502 Y244.381 E2.72290 ; external small perimeter
G1 X176.266 Y245.165 E2.72659 ; external small perimeter
G1 X175.995 Y245.952 E2.73034 ; external small perimeter
G1 X175.693 Y246.729 E2.73410 ; external small perimeter
G1 X175.362 Y247.488 E2.73784 ; external small perimeter
G1 X175.004 Y248.223 E2.74152 ; external small perimeter
G1 X174.626 Y248.919 E2.74509 ; external small perimeter
G1 X174.234 Y249.572 E2.74853 ; external small perimeter
G1 X173.872 Y250.117 E2.75148 ; external small perimeter
G1 X173.509 Y250.615 E2.75426 ; external small perimeter
G1 X173.146 Y251.066 E2.75687 ; external small perimeter
G1 X172.789 Y251.467 E2.75929 ; external small perimeter
G1 X172.443 Y251.816 E2.76150 ; external small perimeter
G1 X172.076 Y252.145 E2.76373 ; external small perimeter
G1 X171.764 Y252.390 E2.76551 ; external small perimeter
G1 X171.220 Y252.734 E2.76842 ; external small perimeter
G1 X170.789 Y252.915 E2.77053 ; external small perimeter
G1 X170.652 Y252.949 E2.77116 ; external small perimeter
G1 X170.371 Y252.966 E2.77243 ; external small perimeter
G1 X170.149 Y252.748 E2.77384 ; external small perimeter
G1 X169.904 Y252.376 E2.77585 ; external small perimeter
G1 X169.776 Y252.106 E2.77719 ; external small perimeter
G1 X169.556 Y251.473 E2.78022 ; external small perimeter
G1 X169.461 Y251.086 E2.78201 ; external small perimeter
G1 X169.378 Y250.640 E2.78406 ; external small perimeter
G1 X169.313 Y250.148 E2.78629 ; external small perimeter
G1 X169.270 Y249.606 E2.78874 ; external small perimeter
G1 X169.251 Y249.020 E2.79139 ; external small perimeter
G1 X169.259 Y248.394 E2.79421 ; external small perimeter
G1 X169.297 Y247.730 E2.79721 ; external small perimeter
G1 X169.371 Y246.996 E2.80054 ; external small perimeter
G1 X169.476 Y246.262 E2.80388 ; external small perimeter
G1 X169.615 Y245.505 E2.80736 ; external small perimeter
G1 X169.791 Y244.725 E2.81096 ; external small perimeter
G1 X170.001 Y243.938 E2.81463 ; external small perimeter
G1 X170.245 Y243.148 E2.81836 ; external small perimeter
G1 X170.521 Y242.365 E2.82210 ; external small perimeter
G1 X170.833 Y241.596 E2.82585 ; external small perimeter
G1 X170.898 Y241.494 E2.82639 ; external small perimeter
G1 X171.081 Y241.320 E2.82753 ; external small perimeter
G1 X171.192 Y241.258 E2.82810 ; external small perimeter
G1 X171.311 Y241.215 E2.82867 ; external small perimeter
G1 X171.506 Y241.190 E2.82956 ; external small perimeter
G1 X175.749 Y244.342 F1800.000 ; move to first infill point
G1 F1069.481
G1 X174.681 Y243.274 E2.84283 ; infill
G1 X171.338 Y242.192 E2.87372 ; infill
G1 X171.159 Y242.681 E2.87830 ; infill
G1 X175.019 Y246.541 E2.92629 ; infill
G1 X174.635 Y247.440 E2.93489 ; infill
G1 X174.303 Y248.122 E2.94155 ; infill
G1 X174.081 Y248.532 E2.94565 ; infill
G1 X170.507 Y244.958 E2.99009 ; infill
G1 X170.312 Y245.952 E2.99900 ; infill
G1 X170.215 Y246.630 E3.00502 ; infill
G1 X170.135 Y247.515 E3.01284 ; infill
G1 X172.933 Y250.314 E3.04763 ; infill
G1 X172.311 Y251.051 E3.05611 ; infill
G1 X172.020 Y251.344 E3.05974 ; infill
G1 X171.486 Y251.796 E3.06589 ; infill
G1 X170.418 Y250.728 E3.07916 ; infill
M106 S247.35 ; enable fan
G1 Z11.320 F1800.000 ; move to next layer (4)
G1 E1.07916 F2400.00000 ; retract extruder 0
G92 E0 ; reset extrusion distance
G1 X170.422 Y253.264 F1800.000 ; move to first external small perimeter point
G1 E2.00000 F2400.00000 ; unretract extruder 0
G1 F600.000
G1 X170.308 Y253.241 E2.00052 ; external small perimeter
G1 X170.195 Y253.190 E2.00108 ; external small perimeter
G1 X170.032 Y253.064 E2.00201 ; external small perimeter
G1 X169.786 Y252.762 E2.00377 ; external small perimeter
G1 X169.640 Y252.516 E2.00506 ; external small perimeter
G1 X169.500 Y252.223 E2.00652 ; external small perimeter
G1 X169.268 Y251.553 E2.00972 ; external small perimeter
G1 X169.168 Y251.149 E2.01159 ; external small perimeter
G1 X169.082 Y250.687 E2.01372 ; external small perimeter
G1 X169.016 Y250.180 E2.01602 ; external small perimeter
G1 X168.971 Y249.623 E2.01854 ; external small perimeter
G1 X168.952 Y249.023 E2.02125 ; external small perimeter
G1 X168.960 Y248.384 E2.02413 ; external small perimeter
G1 X168.999 Y247.707 E2.02719 ; external small perimeter
G1 X169.074 Y246.960 E2.03057 ; external small perimeter
G1 X169.181 Y246.213 E2.03397 ; external small perimeter
G1 X169.322 Y245.445 E2.03750 ; external small perimeter
G1 X169.500 Y244.654 E2.04115 ; external small perimeter
G1 X169.713 Y243.855 E2.04488 ; external small perimeter
G1 X169.961 Y243.055 E2.04866 ; external small perimeter
G1 X170.241 Y242.261 E2.05245 ; external small perimeter
G1 X170.568 Y241.457 E2.05637 ; external small perimeter
G1 X170.660 Y241.313 E2.05714 ; external small perimeter
G1 X170.777 Y241.182 E2.05793 ; external small perimeter
G1 X170.914 Y241.073 E2.05872 ; external small perimeter
G1 X171.067 Y240.987 E2.05951 ; external small perimeter
G1 X171.232 Y240.927 E2.06030 ; external small perimeter
G1 X171.404 Y240.894 E2.06109 ; external small perimeter
G1 X171.580 Y240.891 E2.06189 ; external small perimeter
G1 X171.751 Y240.915 E2.06267 ; external small perimeter
G1 X176.365 Y242.412 E2.08454 ; external small perimeter
G1 X176.531 Y242.499 E2.08538 ; external small perimeter
G1 X176.671 Y242.605 E2.08618 ; external small perimeter
G1 X176.791 Y242.733 E2.08697 ; external small perimeter
G1 X176.889 Y242.878 E2.08776 ; external small perimeter
G1 X176.963 Y243.038 E2.08855 ; external small perimeter
G1 X177.009 Y243.207 E2.08934 ; external small perimeter
G1 X177.027 Y243.382 E2.09013 ; external small perimeter
G1 X177.016 Y243.551 E2.09090 ; external small perimeter
