; generated by Slic3r 1.3.1-dev (Build (Unknown revision)) on 2022-09-17 at 14:55:49

; external perimeters extrusion width = 1.32mm (12.75mm^3/s)
; perimeters extrusion width = 1.26mm (12.03mm^3/s)
; infill extrusion width = 2.00mm (20.91mm^3/s)
; solid infill extrusion width = 2.00mm (41.82mm^3/s)
; top infill extrusion width = 1.26mm (18.04mm^3/s)

M107 ; disable fan
G92 E0 ; reset extrusion distance
M104 S200 ; set temperature
G28 ; home all axes
G1 Z5 F5000 ; lift nozzle

; Filament gcode

M109 S200 ; set temperature and wait for it to be reached
G21 ; set units to millimeters
G90 ; use absolute coordinates
M82 ; use absolute distances for extrusion
G92 E0 ; reset extrusion distance
G1 Z6.520 F1800.000 ; move to next layer (0)
G1 E-2.00000 F2400.00000 ; retract extruder 0
G92 E0 ; reset extrusion distance
G1 X154.015 Y228.013 F1800.000 ; move to first external small perimeter point
G1 E2.00000 F2400.00000 ; unretract extruder 0
G1 F600.000
G1 X156.383 Y231.276 E2.00615 ; external small perimeter
G1 X155.409 Y232.016 E2.00801 ; external small perimeter
G1 X154.764 Y232.468 E2.00921 ; external small perimeter
G1 X154.101 Y232.894 E2.01042 ; external small perimeter
G1 X153.426 Y233.290 E2.01161 ; external small perimeter
G1 X152.747 Y233.652 E2.01278 ; external small perimeter
G1 X152.078 Y233.972 E2.01391 ; external small perimeter
G1 X151.424 Y234.249 E2.01500 ; external small perimeter
G1 X150.857 Y234.460 E2.01592 ; external small perimeter
G1 X150.320 Y234.633 E2.01678 ; external small perimeter
G1 X149.814 Y234.771 E2.01758 ; external small perimeter
G1 X148.923 Y234.942 E2.01896 ; external small perimeter
G1 X147.702 Y235.068 E2.02083 ; external small perimeter
G1 X148.294 Y233.824 E2.02293 ; external small perimeter
G1 X148.502 Y233.440 E2.02360 ; external small perimeter
G1 X149.056 Y232.582 E2.02516 ; external small perimeter
G1 X149.401 Y232.121 E2.02603 ; external small perimeter
G1 X149.791 Y231.644 E2.02697 ; external small perimeter
G1 X150.250 Y231.130 E2.02803 ; external small perimeter
G1 X150.734 Y230.630 E2.02909 ; external small perimeter
G1 X151.260 Y230.131 E2.03019 ; external small perimeter
G1 X151.826 Y229.633 E2.03134 ; external small perimeter
G1 X152.425 Y229.147 E2.03252 ; external small perimeter
G1 X153.051 Y228.678 E2.03371 ; external small perimeter
G1 X153.867 Y228.116 E2.03522 ; external small perimeter
G1 X154.266 Y229.998 F1800.000 ; move to first infill point
G1 F600.000
G1 X154.246 Y230.023 E2.03532 ; infill
G1 F600.000
G1 X154.204 Y230.072 E2.03550 ; infill
G1 F600.000
G1 X154.162 Y230.121 E2.03568 ; infill
G1 F600.000
G1 X154.121 Y230.171 E2.03586 ; infill
G1 F600.000
G1 X154.079 Y230.220 E2.03603 ; infill
G1 F600.000
G1 X154.038 Y230.269 E2.03619 ; infill
G1 F600.000
G1 X153.996 Y230.318 E2.03635 ; infill
G1 F600.000
G1 X153.955 Y230.367 E2.03651 ; infill
G1 F600.000
G1 X153.913 Y230.416 E2.03666 ; infill
G1 F600.000
G1 X153.871 Y230.466 E2.03680 ; infill
G1 F600.000
G1 X153.830 Y230.515 E2.03694 ; infill
G1 F600.000
G1 X153.788 Y230.564 E2.03708 ; infill
G1 F600.000
G1 X153.747 Y230.613 E2.03721 ; infill
G1 F600.000
G1 X153.705 Y230.662 E2.03733 ; infill
G1 F600.000
G1 X153.664 Y230.711 E2.03745 ; infill
G1 F600.000
G1 X153.622 Y230.761 E2.03757 ; infill
G1 F600.000
G1 X153.580 Y230.810 E2.03768 ; infill
G1 F600.000
G1 X153.337 Y230.996 E2.03817 ; infill
G1 F600.000
G1 X152.894 Y231.318 E2.03903 ; infill
G1 F600.000
G1 X152.563 Y231.557 E2.03965 ; infill
G1 F600.000
G1 X152.374 Y231.696 E2.03999 ; infill
G1 F600.000
G1 X152.147 Y231.860 E2.04038 ; infill
G1 F600.000
G1 X151.925 Y232.023 E2.04075 ; infill
G1 F600.000
G1 X151.723 Y232.168 E2.04107 ; infill
G1 F600.000
G1 X151.522 Y232.313 E2.04137 ; infill
G1 F600.000
G1 X149.443 Y233.874 E2.04433 ; infill
G1 Z7.720 F1800.000 ; move to next layer (1)
G1 X154.161 Y227.307 F1800.000 ; move to first external small perimeter point
G1 F600.000
G1 X157.098 Y231.355 E2.05876 ; external small perimeter
G1 X156.359 Y231.964 E2.06153 ; external small perimeter
G1 X155.723 Y232.447 E2.06383 ; external small perimeter
G1 X155.061 Y232.911 E2.06616 ; external small perimeter
G1 X154.380 Y233.349 E2.06850 ; external small perimeter
G1 X153.687 Y233.756 E2.07082 ; external small perimeter
G1 X152.988 Y234.128 E2.07310 ; external small perimeter
G1 X152.297 Y234.458 E2.07531 ; external small perimeter
G1 X151.621 Y234.745 E2.07743 ; external small perimeter
G1 X151.032 Y234.964 E2.07925 ; external small perimeter
G1 X150.472 Y235.145 E2.08095 ; external small perimeter
G1 X149.941 Y235.289 E2.08253 ; external small perimeter
G1 X149.446 Y235.397 E2.08399 ; external small perimeter
G1 X148.994 Y235.471 E2.08532 ; external small perimeter
G1 X148.543 Y235.517 E2.08663 ; external small perimeter
G1 X148.197 Y235.530 E2.08763 ; external small perimeter
G1 X147.633 Y235.493 E2.08926 ; external small perimeter
G1 X147.219 Y235.397 E2.09048 ; external small perimeter
G1 X147.401 Y234.598 E2.09285 ; external small perimeter
G1 X147.642 Y233.953 E2.09483 ; external small perimeter
G1 X147.818 Y233.582 E2.09602 ; external small perimeter
G1 X148.308 Y232.735 E2.09884 ; external small perimeter
G1 X148.622 Y232.273 E2.10045 ; external small perimeter
G1 X148.981 Y231.793 E2.10218 ; external small perimeter
G1 X149.385 Y231.298 E2.10403 ; external small perimeter
G1 X149.859 Y230.766 E2.10608 ; external small perimeter
G1 X150.359 Y230.251 E2.10816 ; external small perimeter
G1 X150.900 Y229.737 E2.11031 ; external small perimeter
G1 X151.482 Y229.225 E2.11255 ; external small perimeter
G1 X152.097 Y228.726 E2.11483 ; external small perimeter
G1 X152.739 Y228.245 E2.11715 ; external small perimeter
G1 X153.406 Y227.786 E2.11948 ; external small perimeter
G1 X154.009 Y227.403 E2.12154 ; external small perimeter
G1 X154.347 Y229.724 F1800.000 ; move to first infill point
G1 F855.701
G1 X153.279 Y228.656 E2.13012 ; infill
G1 X152.417 Y229.287 E2.13619 ; infill
G1 X151.617 Y229.951 E2.14210 ; infill
G1 X154.296 Y232.630 E2.16362 ; infill
G1 X153.543 Y233.078 E2.16859 ; infill
G1 X152.896 Y233.423 E2.17276 ; infill
G1 X152.379 Y233.670 E2.17601 ; infill
G1 X150.127 Y231.418 E2.19410 ; infill
G1 X149.540 Y232.114 E2.19927 ; infill
G1 X149.219 Y232.544 E2.20232 ; infill
G1 X148.855 Y233.104 E2.20611 ; infill
G1 X150.209 Y234.457 E2.21698 ; infill
G1 X149.691 Y234.572 E2.21999 ; infill
G1 X149.923 Y234.171 E2.22262 ; infill
G1 Z8.920 F1800.000 ; move to next layer (2)
G1 X154.208 Y227.080 F1800.000 ; move to first external small perimeter point
G1 F600.000
G1 X154.353 Y227.135 E2.22307 ; external small perimeter
G1 X154.471 Y227.232 E2.22351 ; external small perimeter
G1 X157.267 Y231.081 E2.23724 ; external small perimeter
G1 X157.323 Y231.223 E2.23768 ; external small perimeter
G1 X157.333 Y231.299 E2.23790 ; external small perimeter
G1 X157.315 Y231.453 E2.23835 ; external small perimeter
G1 X157.256 Y231.580 E2.23875 ; external small perimeter
G1 X157.142 Y231.705 E2.23924 ; external small perimeter
G1 X156.544 Y232.198 E2.24148 ; external small perimeter
G1 X155.900 Y232.689 E2.24381 ; external small perimeter
G1 X155.228 Y233.160 E2.24618 ; external small perimeter
G1 X154.537 Y233.603 E2.24855 ; external small perimeter
G1 X153.833 Y234.017 E2.25091 ; external small perimeter
G1 X153.123 Y234.395 E2.25323 ; external small perimeter
G1 X152.420 Y234.731 E2.25548 ; external small perimeter
G1 X151.732 Y235.023 E2.25764 ; external small perimeter
G1 X151.130 Y235.247 E2.25949 ; external small perimeter
G1 X150.557 Y235.432 E2.26123 ; external small perimeter
G1 X150.012 Y235.579 E2.26286 ; external small perimeter
G1 X149.503 Y235.691 E2.26436 ; external small perimeter
G1 X149.034 Y235.768 E2.26573 ; external small perimeter
G1 X148.563 Y235.816 E2.26710 ; external small perimeter
G1 X147.861 Y235.820 E2.26912 ; external small perimeter
G1 X147.602 Y235.793 E2.26987 ; external small perimeter
G1 X146.970 Y235.644 E2.27175 ; external small perimeter
G1 X146.966 Y235.292 E2.27276 ; external small perimeter
G1 X147.039 Y234.787 E2.27424 ; external small perimeter
G1 X147.110 Y234.523 E2.27502 ; external small perimeter
G1 X147.368 Y233.832 E2.27715 ; external small perimeter
G1 X147.552 Y233.446 E2.27839 ; external small perimeter
G1 X147.781 Y233.024 E2.27977 ; external small perimeter
G1 X148.057 Y232.573 E2.28130 ; external small perimeter
G1 X148.378 Y232.099 E2.28295 ; external small perimeter
G1 X148.745 Y231.608 E2.28472 ; external small perimeter
G1 X149.158 Y231.103 E2.28660 ; external small perimeter
G1 X149.640 Y230.562 E2.28869 ; external small perimeter
G1 X150.149 Y230.039 E2.29080 ; external small perimeter
G1 X150.698 Y229.516 E2.29299 ; external small perimeter
G1 X151.289 Y228.997 E2.29526 ; external small perimeter
G1 X151.913 Y228.490 E2.29758 ; external small perimeter
G1 X152.565 Y228.002 E2.29993 ; external small perimeter
G1 X153.239 Y227.537 E2.30229 ; external small perimeter
G1 X153.912 Y227.118 E2.30458 ; external small perimeter
G1 X154.030 Y227.080 E2.30494 ; external small perimeter
G1 X153.834 Y229.985 F1800.000 ; move to first infill point
G1 F942.502
G1 X153.347 Y229.314 E2.30965 ; infill
G1 X152.841 Y229.663 E2.31314 ; infill
G1 X152.233 Y230.118 E2.31745 ; infill
G1 X151.651 Y230.590 E2.32171 ; infill
G1 X151.101 Y231.074 E2.32587 ; infill
G1 X150.591 Y231.559 E2.32986 ; infill
G1 X150.123 Y232.041 E2.33368 ; infill
G1 X149.679 Y232.538 E2.33747 ; infill
G1 X149.304 Y232.997 E2.34083 ; infill
G1 X148.690 Y233.858 E2.34684 ; infill
G1 X148.255 Y234.610 E2.35177 ; infill
G1 X148.098 Y234.948 E2.35389 ; infill
G1 X148.708 Y234.861 E2.35739 ; infill
G1 X149.028 Y234.791 E2.35925 ; infill
G1 X154.902 Y228.917 E2.40643 ; infill
G1 X156.146 Y230.630 E2.41845 ; infill
G1 X155.078 Y231.698 E2.42703 ; infill
M106 S255 ; enable fan
G1 Z10.120 F1800.000 ; move to next layer (3)
G1 X154.267 Y226.787 F1800.000 ; move to first external small perimeter point
G1 F600.000
G1 X154.503 Y226.876 E2.42776 ; external small perimeter
G1 X154.696 Y227.035 E2.42848 ; external small perimeter
G1 X157.524 Y230.927 E2.44236 ; external small perimeter
G1 X157.615 Y231.160 E2.44308 ; external small perimeter
G1 X157.632 Y231.285 E2.44345 ; external small perimeter
G1 X157.602 Y231.536 E2.44418 ; external small perimeter
G1 X157.501 Y231.751 E2.44486 ; external small perimeter
G1 X157.337 Y231.932 E2.44557 ; external small perimeter
G1 X156.730 Y232.433 E2.44784 ; external small perimeter
G1 X156.076 Y232.930 E2.45021 ; external small perimeter
G1 X155.394 Y233.408 E2.45261 ; external small perimeter
G1 X154.694 Y233.858 E2.45502 ; external small perimeter
G1 X153.979 Y234.278 E2.45741 ; external small perimeter
G1 X153.258 Y234.662 E2.45977 ; external small perimeter
G1 X152.543 Y235.004 E2.46205 ; external small perimeter
G1 X151.842 Y235.301 E2.46425 ; external small perimeter
G1 X151.229 Y235.529 E2.46614 ; external small perimeter
G1 X150.642 Y235.718 E2.46792 ; external small perimeter
G1 X150.083 Y235.870 E2.46959 ; external small perimeter
G1 X149.559 Y235.985 E2.47114 ; external small perimeter
G1 X149.074 Y236.064 E2.47256 ; external small perimeter
G1 X148.584 Y236.114 E2.47398 ; external small perimeter
G1 X148.188 Y236.129 E2.47512 ; external small perimeter
G1 X147.545 Y236.087 E2.47698 ; external small perimeter
G1 X147.090 Y235.980 E2.47833 ; external small perimeter
G1 X146.950 Y235.924 E2.47877 ; external small perimeter
G1 X146.741 Y235.799 E2.47947 ; external small perimeter
G1 X146.670 Y235.484 E2.48040 ; external small perimeter
G1 X146.691 Y235.024 E2.48173 ; external small perimeter
G1 X146.748 Y234.720 E2.48262 ; external small perimeter
G1 X146.937 Y234.098 E2.48450 ; external small perimeter
G1 X147.285 Y233.310 E2.48698 ; external small perimeter
G1 X147.522 Y232.875 E2.48841 ; external small perimeter
G1 X147.805 Y232.411 E2.48998 ; external small perimeter
G1 X148.135 Y231.925 E2.49168 ; external small perimeter
G1 X148.509 Y231.424 E2.49348 ; external small perimeter
G1 X148.930 Y230.909 E2.49540 ; external small perimeter
G1 X149.421 Y230.359 E2.49753 ; external small perimeter
G1 X149.938 Y229.826 E2.49967 ; external small perimeter
G1 X150.496 Y229.295 E2.50189 ; external small perimeter
G1 X151.096 Y228.768 E2.50420 ; external small perimeter
G1 X151.729 Y228.254 E2.50655 ; external small perimeter
G1 X152.390 Y227.759 E2.50894 ; external small perimeter
G1 X153.074 Y227.288 E2.51133 ; external small perimeter
G1 X153.779 Y226.849 E2.51373 ; external small perimeter
G1 X153.891 Y226.805 E2.51408 ; external small perimeter
G1 X154.088 Y226.775 E2.51465 ; external small perimeter
G1 X154.488 Y228.909 F1800.000 ; move to first infill point
G1 F1035.934
G1 X153.420 Y227.841 E2.52323 ; infill
G1 X152.666 Y228.352 E2.52841 ; infill
G1 X151.711 Y229.089 E2.53526 ; infill
G1 X155.306 Y232.683 E2.56413 ; infill
G1 X154.501 Y233.210 E2.56959 ; infill
G1 X153.464 Y233.798 E2.57636 ; infill
G1 X150.166 Y230.500 E2.60286 ; infill
G1 X149.452 Y231.277 E2.60885 ; infill
G1 X148.806 Y232.097 E2.61478 ; infill
G1 X151.419 Y234.710 E2.63577 ; infill
G1 X150.781 Y234.922 E2.63959 ; infill
G1 X150.287 Y235.056 E2.64249 ; infill
G1 X149.425 Y235.222 E2.64748 ; infill
G1 X149.015 Y235.263 E2.64982 ; infill
G1 X147.738 Y233.987 E2.66007 ; infill
M106 S249.9 ; enable fan
G1 Z11.320 F1800.000 ; move to next layer (4)
G1 E0.66007 F2400.00000 ; retract extruder 0
G92 E0 ; reset extrusion distance
G1 X154.326 Y226.494 F1800.000 ; move to first external small perimeter point
G1 E2.00000 F2400.00000 ; unretract extruder 0
G1 F600.000
G1 X154.495 Y226.542 E2.00051 ; external small perimeter
G1 X154.653 Y226.617 E2.00101 ; external small perimeter
G1 X154.797 Y226.717 E2.00152 ; external small perimeter
G1 X154.921 Y226.838 E2.00202 ; external small perimeter
G1 X157.781 Y230.774 E2.01606 ; external small perimeter
G1 X157.857 Y230.929 E2.01656 ; external small perimeter
G1 X157.908 Y231.097 E2.01706 ; external small perimeter
G1 X157.931 Y231.271 E2.01757 ; external small perimeter
G1 X157.924 Y231.447 E2.01808 ; external small perimeter
G1 X157.890 Y231.619 E2.01858 ; external small perimeter
G1 X157.828 Y231.783 E2.01909 ; external small perimeter
G1 X157.740 Y231.934 E2.01960 ; external small perimeter
G1 X157.553 Y232.142 E2.02040 ; external small perimeter
G1 X156.916 Y232.668 E2.02279 ; external small perimeter
G1 X156.252 Y233.172 E2.02519 ; external small perimeter
G1 X155.561 Y233.656 E2.02763 ; external small perimeter
G1 X154.850 Y234.113 E2.03007 ; external small perimeter
G1 X154.125 Y234.539 E2.03249 ; external small perimeter
G1 X153.393 Y234.929 E2.03489 ; external small perimeter
G1 X152.666 Y235.276 E2.03721 ; external small perimeter
G1 X151.952 Y235.579 E2.03945 ; external small perimeter
G1 X151.327 Y235.812 E2.04138 ; external small perimeter
G1 X150.727 Y236.005 E2.04319 ; external small perimeter
G1 X150.154 Y236.161 E2.04491 ; external small perimeter
G1 X149.615 Y236.279 E2.04650 ; external small perimeter
G1 X149.114 Y236.361 E2.04796 ; external small perimeter
G1 X148.604 Y236.413 E2.04944 ; external small perimeter
G1 X148.189 Y236.428 E2.05064 ; external small perimeter
G1 X147.821 Y236.417 E2.05171 ; external small perimeter
G1 X147.501 Y236.383 E2.05263 ; external small perimeter
G1 X146.992 Y236.263 E2.05414 ; external small perimeter
G1 X146.823 Y236.195 E2.05467 ; external small perimeter
G1 X146.610 Y236.067 E2.05539 ; external small perimeter
G1 X146.473 Y235.904 E2.05600 ; external small perimeter
G1 X146.413 Y235.760 E2.05645 ; external small perimeter
G1 X146.371 Y235.505 E2.05720 ; external small perimeter
G1 X146.368 Y235.267 E2.05788 ; external small perimeter
G1 X146.394 Y234.983 E2.05871 ; external small perimeter
G1 X146.454 Y234.663 E2.05965 ; external small perimeter
G1 X146.660 Y233.985 E2.06169 ; external small perimeter
G1 X146.817 Y233.600 E2.06289 ; external small perimeter
G1 X147.019 Y233.175 E2.06425 ; external small perimeter
