; generated by Slic3r 1.3.1-dev (Build (Unknown revision)) on 2022-09-17 at 14:55:49

; external perimeters extrusion width = 1.32mm (12.75mm^3/s)
; perimeters extrusion width = 1.26mm (12.03mm^3/s)
; infill extrusion width = 2.00mm (20.91mm^3/s)
; solid infill extrusion width = 2.00mm (41.82mm^3/s)
; top infill extrusion width = 1.26mm (18.04mm^3/s)

M107 ; disable fan
G92 E0 ; reset extrusion distance
M104 S200 ; set temperature
G28 ; home all axes
G1 Z5 F5000 ; lift nozzle

; Filament gcode

M109 S200 ; set temperature and wait for it to be reached
G21 ; set units to millimeters
G90 ; use absolute coordinates
M82 ; use absolute distances for extrusion
G92 E0 ; reset extrusion distance
G1 Z6.520 F1800.000 ; move to next layer (0)
G1 E-2.00000 F2400.00000 ; retract extruder 0
G92 E0 ; reset extrusion distance
G1 X138.915 Y207.982 F1800.000 ; move to first external small perimeter point
G1 E2.00000 F2400.00000 ; unretract extruder 0
G1 F600.000
G1 X140.125 Y207.324 E2.00210 ; external small perimeter
G1 X140.970 Y206.948 E2.00351 ; external small perimeter
G1 X141.472 Y206.767 E2.00432 ; external small perimeter
G1 X142.021 Y206.597 E2.00520 ; external small perimeter
G1 X142.618 Y206.440 E2.00614 ; external small perimeter
G1 X143.291 Y206.294 E2.00719 ; external small perimeter
G1 X143.977 Y206.174 E2.00825 ; external small perimeter
G1 X144.695 Y206.079 E2.00936 ; external small perimeter
G1 X145.446 Y206.009 E2.01051 ; external small perimeter
G1 X146.216 Y205.968 E2.01169 ; external small perimeter
G1 X146.998 Y205.957 E2.01288 ; external small perimeter
G1 X148.166 Y205.986 E2.01466 ; external small perimeter
G1 X148.166 Y210.017 E2.02081 ; external small perimeter
G1 X146.943 Y210.043 E2.02267 ; external small perimeter
G1 X146.156 Y210.030 E2.02387 ; external small perimeter
G1 X145.369 Y209.985 E2.02507 ; external small perimeter
G1 X144.591 Y209.909 E2.02627 ; external small perimeter
G1 X143.829 Y209.802 E2.02744 ; external small perimeter
G1 X143.099 Y209.668 E2.02857 ; external small perimeter
G1 X142.408 Y209.508 E2.02966 ; external small perimeter
G1 X141.825 Y209.345 E2.03058 ; external small perimeter
G1 X141.288 Y209.169 E2.03144 ; external small perimeter
G1 X140.798 Y208.983 E2.03224 ; external small perimeter
G1 X139.977 Y208.599 E2.03362 ; external small perimeter
G1 X139.071 Y208.072 E2.03522 ; external small perimeter
G1 X141.025 Y208.040 F1800.000 ; move to first infill point
G1 F600.000
G1 X143.624 Y207.998 E2.03818 ; infill
G1 F600.000
G1 X143.873 Y208.000 E2.03848 ; infill
G1 F600.000
G1 X144.121 Y208.001 E2.03879 ; infill
G1 F600.000
G1 X144.396 Y207.999 E2.03916 ; infill
G1 F600.000
G1 X144.677 Y208.000 E2.03956 ; infill
G1 F600.000
G1 X144.912 Y207.999 E2.03990 ; infill
G1 F600.000
G1 X145.319 Y208.000 E2.04051 ; infill
G1 F600.000
G1 X145.867 Y208.000 E2.04137 ; infill
G1 F600.000
G1 X146.172 Y207.993 E2.04187 ; infill
G1 F600.000
G1 X146.235 Y207.977 E2.04198 ; infill
G1 F600.000
G1 X146.297 Y207.962 E2.04209 ; infill
G1 F600.000
G1 X146.360 Y207.947 E2.04221 ; infill
G1 F600.000
G1 X146.422 Y207.932 E2.04234 ; infill
G1 F600.000
G1 X146.485 Y207.917 E2.04247 ; infill
G1 F600.000
G1 X146.547 Y207.901 E2.04260 ; infill
G1 F600.000
G1 X146.610 Y207.886 E2.04274 ; infill
G1 F600.000
G1 X146.672 Y207.871 E2.04289 ; infill
G1 F600.000
G1 X146.735 Y207.856 E2.04304 ; infill
G1 F600.000
G1 X146.798 Y207.840 E2.04319 ; infill
G1 F600.000
G1 X146.860 Y207.825 E2.04335 ; infill
G1 F600.000
G1 X146.923 Y207.810 E2.04351 ; infill
G1 F600.000
G1 X146.985 Y207.795 E2.04368 ; infill
G1 F600.000
G1 X147.048 Y207.780 E2.04386 ; infill
G1 F600.000
G1 X147.110 Y207.764 E2.04404 ; infill
G1 F600.000
G1 X147.173 Y207.749 E2.04422 ; infill
G1 F600.000
G1 X147.204 Y207.742 E2.04432 ; infill
G1 Z7.720 F1800.000 ; move to next layer (1)
G1 X138.310 Y207.983 F1800.000 ; move to first external small perimeter point
G1 F600.000
G1 X138.947 Y207.425 E2.04676 ; external small perimeter
G1 X139.522 Y207.045 E2.04875 ; external small perimeter
G1 X139.882 Y206.848 E2.04993 ; external small perimeter
G1 X140.777 Y206.451 E2.05276 ; external small perimeter
G1 X141.302 Y206.261 E2.05437 ; external small perimeter
G1 X141.874 Y206.084 E2.05610 ; external small perimeter
G1 X142.493 Y205.921 E2.05795 ; external small perimeter
G1 X143.189 Y205.770 E2.06000 ; external small perimeter
G1 X143.896 Y205.647 E2.06207 ; external small perimeter
G1 X144.635 Y205.549 E2.06423 ; external small perimeter
G1 X145.408 Y205.477 E2.06646 ; external small perimeter
G1 X146.198 Y205.435 E2.06875 ; external small perimeter
G1 X147.000 Y205.423 E2.07106 ; external small perimeter
G1 X147.808 Y205.443 E2.07339 ; external small perimeter
G1 X148.699 Y205.505 E2.07597 ; external small perimeter
G1 X148.699 Y210.501 E2.09039 ; external small perimeter
G1 X147.743 Y210.559 E2.09316 ; external small perimeter
G1 X146.945 Y210.577 E2.09546 ; external small perimeter
G1 X146.136 Y210.563 E2.09779 ; external small perimeter
G1 X145.328 Y210.517 E2.10013 ; external small perimeter
G1 X144.528 Y210.438 E2.10245 ; external small perimeter
G1 X143.744 Y210.329 E2.10473 ; external small perimeter
G1 X142.991 Y210.190 E2.10694 ; external small perimeter
G1 X142.276 Y210.024 E2.10906 ; external small perimeter
G1 X141.670 Y209.856 E2.11088 ; external small perimeter
G1 X141.110 Y209.672 E2.11258 ; external small perimeter
G1 X140.596 Y209.477 E2.11416 ; external small perimeter
G1 X140.133 Y209.274 E2.11562 ; external small perimeter
G1 X139.723 Y209.068 E2.11695 ; external small perimeter
G1 X139.331 Y208.840 E2.11826 ; external small perimeter
G1 X139.034 Y208.641 E2.11929 ; external small perimeter
G1 X138.803 Y208.462 E2.12013 ; external small perimeter
G1 X138.439 Y208.108 E2.12159 ; external small perimeter
G1 X141.231 Y208.538 F1800.000 ; move to first infill point
G1 F869.912
G1 X140.164 Y207.471 E2.12913 ; infill
G1 X140.761 Y207.205 E2.13240 ; infill
G1 X141.210 Y207.043 E2.13478 ; infill
G1 X142.083 Y206.790 E2.13932 ; infill
G1 X144.832 Y209.539 E2.15873 ; infill
G1 X145.969 Y209.667 E2.16445 ; infill
G1 X146.721 Y209.710 E2.16821 ; infill
G1 X147.612 Y209.720 E2.17266 ; infill
G1 X144.284 Y206.392 E2.19616 ; infill
G1 X144.975 Y206.328 E2.19962 ; infill
G1 X145.711 Y206.288 E2.20330 ; infill
G1 X146.777 Y206.285 E2.20863 ; infill
G1 X147.845 Y207.353 E2.21617 ; infill
G1 Z8.920 F1800.000 ; move to next layer (2)
G1 X137.984 Y208.018 F1800.000 ; move to first external small perimeter point
G1 F600.000
G1 X138.188 Y207.731 E2.21718 ; external small perimeter
G1 X138.544 Y207.365 E2.21866 ; external small perimeter
G1 X138.756 Y207.193 E2.21944 ; external small perimeter
G1 X139.371 Y206.786 E2.22157 ; external small perimeter
G1 X139.747 Y206.582 E2.22281 ; external small perimeter
G1 X140.180 Y206.375 E2.22419 ; external small perimeter
G1 X140.669 Y206.172 E2.22572 ; external small perimeter
G1 X141.207 Y205.978 E2.22737 ; external small perimeter
G1 X141.792 Y205.796 E2.22914 ; external small perimeter
G1 X142.423 Y205.631 E2.23102 ; external small perimeter
G1 X143.131 Y205.476 E2.23311 ; external small perimeter
G1 X143.850 Y205.351 E2.23522 ; external small perimeter
G1 X144.602 Y205.252 E2.23741 ; external small perimeter
G1 X145.386 Y205.179 E2.23968 ; external small perimeter
G1 X146.188 Y205.136 E2.24200 ; external small perimeter
G1 X147.002 Y205.124 E2.24435 ; external small perimeter
G1 X147.821 Y205.145 E2.24671 ; external small perimeter
G1 X148.612 Y205.200 E2.24900 ; external small perimeter
G1 X148.752 Y205.249 E2.24943 ; external small perimeter
G1 X148.874 Y205.344 E2.24987 ; external small perimeter
G1 X148.921 Y205.405 E2.25010 ; external small perimeter
G1 X148.984 Y205.547 E2.25054 ; external small perimeter
G1 X148.997 Y205.621 E2.25076 ; external small perimeter
G1 X148.997 Y210.379 E2.26449 ; external small perimeter
G1 X148.959 Y210.526 E2.26493 ; external small perimeter
G1 X148.921 Y210.594 E2.26516 ; external small perimeter
G1 X148.817 Y210.708 E2.26560 ; external small perimeter
G1 X148.694 Y210.776 E2.26601 ; external small perimeter
G1 X148.529 Y210.811 E2.26649 ; external small perimeter
G1 X147.755 Y210.858 E2.26873 ; external small perimeter
G1 X146.945 Y210.876 E2.27107 ; external small perimeter
G1 X146.125 Y210.862 E2.27344 ; external small perimeter
G1 X145.305 Y210.815 E2.27581 ; external small perimeter
G1 X144.493 Y210.735 E2.27816 ; external small perimeter
G1 X143.696 Y210.624 E2.28048 ; external small perimeter
G1 X142.930 Y210.483 E2.28273 ; external small perimeter
G1 X142.201 Y210.314 E2.28489 ; external small perimeter
G1 X141.584 Y210.142 E2.28674 ; external small perimeter
G1 X141.011 Y209.954 E2.28848 ; external small perimeter
G1 X140.483 Y209.754 E2.29011 ; external small perimeter
G1 X140.005 Y209.544 E2.29161 ; external small perimeter
G1 X139.581 Y209.331 E2.29298 ; external small perimeter
G1 X139.172 Y209.094 E2.29435 ; external small perimeter
G1 X138.602 Y208.684 E2.29638 ; external small perimeter
G1 X138.408 Y208.510 E2.29713 ; external small perimeter
G1 X138.102 Y208.154 E2.29848 ; external small perimeter
G1 X140.917 Y207.295 F1800.000 ; move to first infill point
G1 F911.595
G1 X139.619 Y208.592 E2.30891 ; infill
G1 X140.062 Y208.822 E2.31174 ; infill
G1 X140.475 Y209.003 E2.31430 ; infill
G1 X140.940 Y209.180 E2.31712 ; infill
G1 X141.741 Y209.428 E2.32189 ; infill
G1 X145.038 Y206.131 E2.34837 ; infill
G1 X146.021 Y206.029 E2.35398 ; infill
G1 X146.769 Y205.989 E2.35824 ; infill
G1 X147.529 Y205.978 E2.36255 ; infill
G1 X148.133 Y205.993 E2.36598 ; infill
G1 X144.225 Y209.901 E2.39737 ; infill
G1 X147.075 Y210.007 F1800.000 ; move to first infill point
G1 F911.595
G1 X148.143 Y208.940 E2.40595 ; infill
M106 S255 ; enable fan
G1 Z10.120 F1800.000 ; move to next layer (3)
G1 X137.705 Y207.980 F1800.000 ; move to first external small perimeter point
G1 F600.000
G1 X137.844 Y207.700 E2.40685 ; external small perimeter
G1 X137.953 Y207.545 E2.40740 ; external small perimeter
G1 X138.123 Y207.352 E2.40814 ; external small perimeter
G1 X138.347 Y207.139 E2.40903 ; external small perimeter
G1 X138.866 Y206.748 E2.41091 ; external small perimeter
G1 X139.611 Y206.315 E2.41339 ; external small perimeter
G1 X140.058 Y206.102 E2.41482 ; external small perimeter
G1 X140.560 Y205.893 E2.41639 ; external small perimeter
G1 X141.112 Y205.694 E2.41809 ; external small perimeter
G1 X141.710 Y205.509 E2.41989 ; external small perimeter
G1 X142.353 Y205.340 E2.42181 ; external small perimeter
G1 X143.074 Y205.183 E2.42394 ; external small perimeter
G1 X143.805 Y205.056 E2.42608 ; external small perimeter
G1 X144.568 Y204.954 E2.42830 ; external small perimeter
G1 X145.364 Y204.880 E2.43061 ; external small perimeter
G1 X146.178 Y204.837 E2.43296 ; external small perimeter
G1 X147.004 Y204.825 E2.43535 ; external small perimeter
G1 X147.834 Y204.846 E2.43774 ; external small perimeter
G1 X148.662 Y204.905 E2.44014 ; external small perimeter
G1 X148.779 Y204.935 E2.44049 ; external small perimeter
G1 X149.001 Y205.056 E2.44121 ; external small perimeter
G1 X149.094 Y205.142 E2.44158 ; external small perimeter
G1 X149.172 Y205.241 E2.44195 ; external small perimeter
G1 X149.274 Y205.472 E2.44267 ; external small perimeter
G1 X149.295 Y205.594 E2.44303 ; external small perimeter
G1 X149.295 Y210.406 E2.45692 ; external small perimeter
G1 X149.232 Y210.647 E2.45764 ; external small perimeter
G1 X149.172 Y210.758 E2.45800 ; external small perimeter
G1 X149.001 Y210.944 E2.45873 ; external small perimeter
G1 X148.793 Y211.058 E2.45942 ; external small perimeter
G1 X148.553 Y211.109 E2.46012 ; external small perimeter
G1 X147.767 Y211.157 E2.46239 ; external small perimeter
G1 X146.946 Y211.175 E2.46477 ; external small perimeter
G1 X146.114 Y211.161 E2.46717 ; external small perimeter
G1 X145.282 Y211.113 E2.46957 ; external small perimeter
G1 X144.457 Y211.032 E2.47196 ; external small perimeter
G1 X143.648 Y210.919 E2.47432 ; external small perimeter
G1 X142.869 Y210.776 E2.47661 ; external small perimeter
G1 X142.127 Y210.604 E2.47880 ; external small perimeter
G1 X141.497 Y210.428 E2.48069 ; external small perimeter
G1 X140.911 Y210.236 E2.48247 ; external small perimeter
G1 X140.370 Y210.031 E2.48414 ; external small perimeter
G1 X139.878 Y209.815 E2.48569 ; external small perimeter
G1 X139.439 Y209.595 E2.48711 ; external small perimeter
G1 X139.013 Y209.347 E2.48853 ; external small perimeter
G1 X138.410 Y208.914 E2.49068 ; external small perimeter
G1 X138.015 Y208.529 E2.49227 ; external small perimeter
G1 X137.891 Y208.371 E2.49285 ; external small perimeter
G1 X137.765 Y208.149 E2.49358 ; external small perimeter
G1 X140.038 Y208.537 F1800.000 ; move to first infill point
G1 F1039.935
G1 X138.970 Y207.469 E2.50095 ; infill
G1 X139.394 Y207.189 E2.50343 ; infill
G1 X139.708 Y207.018 E2.50518 ; infill
G1 X140.090 Y206.836 E2.50724 ; infill
G1 X140.651 Y206.609 E2.51020 ; infill
G1 X144.062 Y210.020 E2.53374 ; infill
G1 X145.155 Y210.188 E2.53914 ; infill
G1 X145.923 Y210.263 E2.54290 ; infill
G1 X146.894 Y210.311 E2.54765 ; infill
G1 X142.632 Y206.049 E2.57707 ; infill
G1 X143.482 Y205.894 E2.58128 ; infill
G1 X144.190 Y205.800 E2.58477 ; infill
G1 X144.861 Y205.737 E2.58806 ; infill
G1 X148.441 Y209.317 E2.61277 ; infill
G1 X148.441 Y206.776 F1800.000 ; move to first infill point
G1 F1039.935
G1 X147.374 Y205.708 E2.62014 ; infill
M106 S247.35 ; enable fan
G1 Z11.320 F1800.000 ; move to next layer (4)
G1 E0.62014 F2400.00000 ; retract extruder 0
G92 E0 ; reset extrusion distance
G1 X137.448 Y208.165 F1800.000 ; move to first external small perimeter point
G1 E2.00000 F2400.00000 ; unretract extruder 0
G1 F600.000
G1 X137.421 Y208.038 E2.00038 ; external small perimeter
G1 X137.438 Y207.880 E2.00083 ; external small perimeter
G1 X137.508 Y207.686 E2.00143 ; external small perimeter
G1 X137.719 Y207.360 E2.00255 ; external small perimeter
G1 X137.907 Y207.145 E2.00338 ; external small perimeter
G1 X138.143 Y206.921 E2.00431 ; external small perimeter
G1 X138.708 Y206.494 E2.00636 ; external small perimeter
G1 X139.062 Y206.274 E2.00756 ; external small perimeter
G1 X139.475 Y206.049 E2.00892 ; external small perimeter
G1 X139.936 Y205.829 E2.01039 ; external small perimeter
G1 X140.452 Y205.614 E2.01200 ; external small perimeter
G1 X141.017 Y205.410 E2.01374 ; external small perimeter
G1 X141.627 Y205.221 E2.01558 ; external small perimeter
G1 X142.283 Y205.049 E2.01754 ; external small perimeter
G1 X143.017 Y204.889 E2.01971 ; external small perimeter
G1 X143.760 Y204.760 E2.02188 ; external small perimeter
G1 X144.535 Y204.657 E2.02414 ; external small perimeter
G1 X145.342 Y204.582 E2.02648 ; external small perimeter
G1 X146.168 Y204.538 E2.02886 ; external small perimeter
G1 X147.005 Y204.526 E2.03128 ; external small perimeter
G1 X147.846 Y204.547 E2.03371 ; external small perimeter
G1 X148.712 Y204.610 E2.03622 ; external small perimeter
G1 X148.877 Y204.653 E2.03671 ; external small perimeter
G1 X149.038 Y204.724 E2.03721 ; external small perimeter
G1 X149.185 Y204.820 E2.03772 ; external small perimeter
G1 X149.314 Y204.939 E2.03823 ; external small perimeter
G1 X149.422 Y205.077 E2.03873 ; external small perimeter
G1 X149.506 Y205.231 E2.03924 ; external small perimeter
G1 X149.563 Y205.397 E2.03975 ; external small perimeter
G1 X149.593 Y205.568 E2.04025 ; external small perimeter
G1 X149.595 Y210.418 E2.05424 ; external small perimeter
G1 X149.563 Y210.603 E2.05479 ; external small perimeter
G1 X149.506 Y210.769 E2.05529 ; external small perimeter
G1 X149.422 Y210.923 E2.05580 ; external small perimeter
G1 X149.314 Y211.061 E2.05631 ; external small perimeter
G1 X149.185 Y211.180 E2.05681 ; external small perimeter
G1 X149.038 Y211.276 E2.05732 ; external small perimeter
G1 X148.877 Y211.347 E2.05782 ; external small perimeter
G1 X148.695 Y211.394 E2.05837 ; external small perimeter
G1 X147.780 Y211.456 E2.06101 ; external small perimeter
