; generated by Slic3r 1.3.1-dev (Build (Unknown revision)) on 2022-09-17 at 14:55:49

; external perimeters extrusion width = 1.32mm (12.75mm^3/s)
; perimeters extrusion width = 1.26mm (12.03mm^3/s)
; infill extrusion width = 2.00mm (20.91mm^3/s)
; solid infill extrusion width = 2.00mm (41.82mm^3/s)
; top infill extrusion width = 1.26mm (18.04mm^3/s)

M107 ; disable fan
G92 E0 ; reset extrusion distance
M104 S200 ; set temperature
G28 ; home all axes
G1 Z5 F5000 ; lift nozzle

; Filament gcode

M109 S200 ; set temperature and wait for it to be reached
G21 ; set units to millimeters
G90 ; use absolute coordinates
M82 ; use absolute distances for extrusion
G92 E0 ; reset extrusion distance
G1 Z6.520 F1800.000 ; move to next layer (0)
G1 E-2.00000 F2400.00000 ; retract extruder 0
G92 E0 ; reset extrusion distance
G1 X213.617 Y184.724 F1800.000 ; move to first external small perimeter point
G1 E2.00000 F2400.00000 ; unretract extruder 0
G1 F600.000
G1 X214.591 Y183.984 E2.00233 ; external small perimeter
G1 X215.236 Y183.532 E2.00383 ; external small perimeter
G1 X215.899 Y183.106 E2.00534 ; external small perimeter
G1 X216.574 Y182.710 E2.00683 ; external small perimeter
G1 X217.253 Y182.348 E2.00829 ; external small perimeter
G1 X217.922 Y182.028 E2.00971 ; external small perimeter
G1 X218.576 Y181.751 E2.01106 ; external small perimeter
G1 X219.143 Y181.540 E2.01221 ; external small perimeter
G1 X219.680 Y181.367 E2.01329 ; external small perimeter
G1 X220.186 Y181.229 E2.01429 ; external small perimeter
G1 X221.077 Y181.058 E2.01602 ; external small perimeter
G1 X222.298 Y180.932 E2.01836 ; external small perimeter
G1 X221.706 Y182.176 E2.02098 ; external small perimeter
G1 X221.243 Y182.976 E2.02275 ; external small perimeter
G1 X220.944 Y183.418 E2.02376 ; external small perimeter
G1 X220.599 Y183.879 E2.02486 ; external small perimeter
G1 X220.209 Y184.356 E2.02603 ; external small perimeter
G1 X219.750 Y184.870 E2.02735 ; external small perimeter
G1 X219.266 Y185.370 E2.02868 ; external small perimeter
G1 X218.740 Y185.869 E2.03006 ; external small perimeter
G1 X218.174 Y186.367 E2.03150 ; external small perimeter
G1 X217.575 Y186.853 E2.03296 ; external small perimeter
G1 X216.949 Y187.322 E2.03445 ; external small perimeter
G1 X215.985 Y187.987 E2.03669 ; external small perimeter
G1 X213.723 Y184.870 E2.04403 ; external small perimeter
G1 E0.04403 F2400.00000 ; retract extruder 0
G92 E0 ; reset extrusion distance
G1 X215.734 Y186.002 F1800.000 ; move to first infill point
G1 E2.00000 F2400.00000 ; unretract extruder 0
G1 F600.000
G1 X215.775 Y185.952 E2.00024 ; infill
G1 F600.000
G1 X215.817 Y185.903 E2.00047 ; infill
G1 F600.000
G1 X215.858 Y185.854 E2.00069 ; infill
G1 F600.000
G1 X215.900 Y185.805 E2.00091 ; infill
G1 F600.000
G1 X215.941 Y185.756 E2.00113 ; infill
G1 F600.000
G1 X215.983 Y185.707 E2.00133 ; infill
G1 F600.000
G1 X216.025 Y185.657 E2.00153 ; infill
G1 F600.000
G1 X216.066 Y185.608 E2.00173 ; infill
G1 F600.000
G1 X216.108 Y185.559 E2.00191 ; infill
G1 F600.000
G1 X216.149 Y185.510 E2.00209 ; infill
G1 F600.000
G1 X216.191 Y185.461 E2.00227 ; infill
G1 F600.000
G1 X216.232 Y185.412 E2.00244 ; infill
G1 F600.000
G1 X216.274 Y185.362 E2.00260 ; infill
G1 F600.000
G1 X216.316 Y185.313 E2.00276 ; infill
G1 F600.000
G1 X216.357 Y185.264 E2.00291 ; infill
G1 F600.000
G1 X216.399 Y185.215 E2.00305 ; infill
G1 F600.000
G1 X216.440 Y185.166 E2.00319 ; infill
G1 F600.000
G1 X216.886 Y184.843 E2.00430 ; infill
G1 F600.000
G1 X217.271 Y184.563 E2.00524 ; infill
G1 F600.000
G1 X217.512 Y184.386 E2.00581 ; infill
G1 F600.000
G1 X217.740 Y184.222 E2.00632 ; infill
G1 F600.000
G1 X217.967 Y184.058 E2.00681 ; infill
G1 F600.000
G1 X218.176 Y183.904 E2.00724 ; infill
G1 F600.000
G1 X218.378 Y183.760 E2.00764 ; infill
G1 F600.000
G1 X219.518 Y182.906 E2.00978 ; infill
G1 F600.000
G1 X220.557 Y182.126 E2.01163 ; infill
G1 Z7.720 F1800.000 ; move to next layer (1)
G1 X212.902 Y184.645 F1800.000 ; move to first external small perimeter point
G1 F600.000
G1 X213.641 Y184.036 E2.01508 ; external small perimeter
G1 X214.277 Y183.553 E2.01796 ; external small perimeter
G1 X214.939 Y183.089 E2.02088 ; external small perimeter
G1 X215.620 Y182.651 E2.02380 ; external small perimeter
G1 X216.313 Y182.244 E2.02670 ; external small perimeter
G1 X217.012 Y181.872 E2.02956 ; external small perimeter
G1 X217.703 Y181.542 E2.03232 ; external small perimeter
G1 X218.379 Y181.255 E2.03497 ; external small perimeter
G1 X218.968 Y181.036 E2.03723 ; external small perimeter
G1 X219.528 Y180.855 E2.03936 ; external small perimeter
G1 X220.059 Y180.711 E2.04134 ; external small perimeter
G1 X220.554 Y180.603 E2.04317 ; external small perimeter
G1 X221.006 Y180.529 E2.04482 ; external small perimeter
G1 X221.457 Y180.483 E2.04646 ; external small perimeter
G1 X221.815 Y180.469 E2.04775 ; external small perimeter
G1 X222.106 Y180.478 E2.04880 ; external small perimeter
G1 X222.787 Y180.576 E2.05128 ; external small perimeter
G1 X222.599 Y181.402 E2.05433 ; external small perimeter
G1 X222.358 Y182.047 E2.05682 ; external small perimeter
G1 X222.182 Y182.418 E2.05830 ; external small perimeter
G1 X221.692 Y183.265 E2.06183 ; external small perimeter
G1 X221.378 Y183.727 E2.06385 ; external small perimeter
G1 X221.019 Y184.207 E2.06601 ; external small perimeter
G1 X220.615 Y184.702 E2.06832 ; external small perimeter
G1 X220.141 Y185.234 E2.07088 ; external small perimeter
G1 X219.641 Y185.749 E2.07347 ; external small perimeter
G1 X219.100 Y186.263 E2.07616 ; external small perimeter
G1 X218.518 Y186.775 E2.07896 ; external small perimeter
G1 X217.903 Y187.274 E2.08182 ; external small perimeter
G1 X217.261 Y187.755 E2.08471 ; external small perimeter
G1 X216.596 Y188.213 E2.08763 ; external small perimeter
G1 X215.836 Y188.689 E2.09086 ; external small perimeter
G1 X213.008 Y184.791 E2.10823 ; external small perimeter
G1 X215.396 Y185.385 F1800.000 ; move to first infill point
G1 F901.724
G1 X215.334 Y185.432 E2.10879 ; infill
G1 X216.720 Y187.344 E2.12555 ; infill
G1 X217.092 Y187.081 E2.12878 ; infill
G1 X214.328 Y184.317 E2.15653 ; infill
G1 X215.179 Y183.707 E2.16396 ; infill
G1 X216.099 Y183.132 E2.17167 ; infill
G1 X218.719 Y185.752 E2.19798 ; infill
G1 X219.198 Y185.296 E2.20267 ; infill
G1 X219.658 Y184.822 E2.20736 ; infill
G1 X220.168 Y184.243 E2.21284 ; infill
G1 X218.062 Y182.137 E2.23399 ; infill
G1 X218.889 Y181.813 E2.24029 ; infill
G1 X219.389 Y181.652 E2.24403 ; infill
G1 X219.856 Y181.525 E2.24746 ; infill
G1 X220.310 Y181.428 E2.25075 ; infill
G1 X221.377 Y182.495 E2.26147 ; infill
G1 Z8.920 F1800.000 ; move to next layer (2)
G1 X212.744 Y184.420 F1800.000 ; move to first external small perimeter point
G1 F600.000
G1 X212.858 Y184.295 E2.26208 ; external small perimeter
G1 X213.456 Y183.801 E2.26488 ; external small perimeter
G1 X214.100 Y183.311 E2.26780 ; external small perimeter
G1 X214.772 Y182.840 E2.27076 ; external small perimeter
G1 X215.463 Y182.397 E2.27372 ; external small perimeter
G1 X216.167 Y181.983 E2.27667 ; external small perimeter
G1 X216.877 Y181.605 E2.27957 ; external small perimeter
G1 X217.580 Y181.269 E2.28238 ; external small perimeter
G1 X218.268 Y180.977 E2.28508 ; external small perimeter
G1 X218.869 Y180.753 E2.28739 ; external small perimeter
G1 X219.443 Y180.568 E2.28957 ; external small perimeter
G1 X219.988 Y180.421 E2.29160 ; external small perimeter
G1 X220.497 Y180.309 E2.29348 ; external small perimeter
G1 X220.966 Y180.232 E2.29520 ; external small perimeter
G1 X221.437 Y180.184 E2.29690 ; external small perimeter
G1 X222.139 Y180.180 E2.29944 ; external small perimeter
G1 X222.621 Y180.249 E2.30119 ; external small perimeter
G1 X223.030 Y180.387 E2.30275 ; external small perimeter
G1 X223.034 Y180.708 E2.30391 ; external small perimeter
G1 X223.013 Y180.935 E2.30473 ; external small perimeter
G1 X222.890 Y181.477 E2.30673 ; external small perimeter
G1 X222.632 Y182.168 E2.30939 ; external small perimeter
G1 X222.448 Y182.554 E2.31094 ; external small perimeter
G1 X222.219 Y182.976 E2.31267 ; external small perimeter
G1 X221.943 Y183.427 E2.31458 ; external small perimeter
G1 X221.622 Y183.901 E2.31664 ; external small perimeter
G1 X221.255 Y184.392 E2.31885 ; external small perimeter
G1 X220.842 Y184.897 E2.32121 ; external small perimeter
G1 X220.360 Y185.438 E2.32382 ; external small perimeter
G1 X219.851 Y185.961 E2.32645 ; external small perimeter
G1 X219.302 Y186.484 E2.32919 ; external small perimeter
G1 X218.711 Y187.003 E2.33203 ; external small perimeter
G1 X218.087 Y187.510 E2.33493 ; external small perimeter
G1 X217.435 Y187.998 E2.33786 ; external small perimeter
G1 X216.759 Y188.464 E2.34083 ; external small perimeter
G1 X216.163 Y188.842 E2.34337 ; external small perimeter
G1 X216.007 Y188.912 E2.34399 ; external small perimeter
G1 X215.869 Y188.929 E2.34449 ; external small perimeter
G1 X215.717 Y188.898 E2.34505 ; external small perimeter
G1 X215.596 Y188.829 E2.34555 ; external small perimeter
G1 X215.475 Y188.701 E2.34619 ; external small perimeter
G1 X212.733 Y184.919 E2.36304 ; external small perimeter
G1 X212.677 Y184.777 E2.36359 ; external small perimeter
G1 X212.677 Y184.586 E2.36428 ; external small perimeter
G1 X214.555 Y186.338 F1800.000 ; move to first infill point
G1 F778.316
G1 X219.046 Y181.847 E2.40937 ; infill
G1 X219.406 Y184.444 F1800.000 ; move to first infill point
G1 F778.316
G1 X218.338 Y185.512 E2.42009 ; infill
M106 S255 ; enable fan
G1 Z10.120 F1800.000 ; move to next layer (3)
G1 X212.499 Y184.249 F1800.000 ; move to first external small perimeter point
G1 F600.000
G1 X212.663 Y184.068 E2.42097 ; external small perimeter
G1 X213.270 Y183.567 E2.42381 ; external small perimeter
G1 X213.924 Y183.070 E2.42678 ; external small perimeter
G1 X214.606 Y182.592 E2.42978 ; external small perimeter
G1 X215.306 Y182.142 E2.43278 ; external small perimeter
G1 X216.021 Y181.722 E2.43577 ; external small perimeter
G1 X216.742 Y181.338 E2.43872 ; external small perimeter
G1 X217.457 Y180.996 E2.44158 ; external small perimeter
G1 X218.158 Y180.699 E2.44433 ; external small perimeter
G1 X218.771 Y180.471 E2.44669 ; external small perimeter
G1 X219.358 Y180.282 E2.44891 ; external small perimeter
G1 X219.917 Y180.130 E2.45100 ; external small perimeter
G1 X220.441 Y180.015 E2.45294 ; external small perimeter
G1 X220.926 Y179.936 E2.45471 ; external small perimeter
G1 X221.416 Y179.886 E2.45649 ; external small perimeter
G1 X221.812 Y179.871 E2.45792 ; external small perimeter
G1 X222.455 Y179.913 E2.46024 ; external small perimeter
G1 X222.910 Y180.020 E2.46193 ; external small perimeter
G1 X223.050 Y180.076 E2.46247 ; external small perimeter
G1 X223.259 Y180.201 E2.46335 ; external small perimeter
G1 X223.330 Y180.516 E2.46451 ; external small perimeter
G1 X223.309 Y180.976 E2.46617 ; external small perimeter
G1 X223.254 Y181.269 E2.46725 ; external small perimeter
G1 X223.059 Y181.911 E2.46967 ; external small perimeter
G1 X222.715 Y182.690 E2.47274 ; external small perimeter
G1 X222.478 Y183.125 E2.47453 ; external small perimeter
G1 X222.195 Y183.589 E2.47649 ; external small perimeter
G1 X221.865 Y184.075 E2.47861 ; external small perimeter
G1 X221.491 Y184.576 E2.48086 ; external small perimeter
G1 X221.070 Y185.091 E2.48326 ; external small perimeter
G1 X220.579 Y185.641 E2.48593 ; external small perimeter
G1 X220.062 Y186.174 E2.48860 ; external small perimeter
G1 X219.504 Y186.705 E2.49138 ; external small perimeter
G1 X218.904 Y187.232 E2.49426 ; external small perimeter
G1 X218.271 Y187.746 E2.49720 ; external small perimeter
G1 X217.610 Y188.241 E2.50018 ; external small perimeter
G1 X216.926 Y188.712 E2.50318 ; external small perimeter
G1 X216.221 Y189.151 E2.50617 ; external small perimeter
G1 X216.109 Y189.195 E2.50661 ; external small perimeter
G1 X215.859 Y189.228 E2.50752 ; external small perimeter
G1 X215.611 Y189.178 E2.50843 ; external small perimeter
G1 X215.405 Y189.060 E2.50929 ; external small perimeter
G1 X215.233 Y188.877 E2.51019 ; external small perimeter
G1 X212.476 Y185.073 E2.52714 ; external small perimeter
G1 X212.385 Y184.840 E2.52804 ; external small perimeter
G1 X212.368 Y184.715 E2.52850 ; external small perimeter
G1 X212.373 Y184.588 E2.52896 ; external small perimeter
G1 X212.418 Y184.410 E2.52962 ; external small perimeter
G1 X214.741 Y186.037 F1800.000 ; move to first infill point
G1 F1046.697
G1 X216.752 Y188.048 E2.54981 ; infill
G1 X217.334 Y187.648 E2.55482 ; infill
G1 X217.951 Y187.185 E2.56030 ; infill
G1 X218.445 Y186.784 E2.56482 ; infill
G1 X214.862 Y183.200 E2.60080 ; infill
G1 X215.499 Y182.790 E2.60618 ; infill
G1 X216.165 Y182.399 E2.61166 ; infill
G1 X216.721 Y182.103 E2.61614 ; infill
G1 X219.974 Y185.356 E2.64880 ; infill
G1 X220.548 Y184.723 E2.65486 ; infill
G1 X220.931 Y184.255 E2.65916 ; infill
G1 X221.313 Y183.738 E2.66372 ; infill
G1 X218.792 Y181.216 E2.68904 ; infill
G1 X219.713 Y180.944 E2.69586 ; infill
G1 X220.168 Y180.845 E2.69917 ; infill
G1 X220.957 Y180.739 E2.70482 ; infill
G1 X221.270 Y180.737 E2.70704 ; infill
G1 X222.338 Y181.805 E2.71776 ; infill
M106 S247.35 ; enable fan
G1 Z11.320 F1800.000 ; move to next layer (4)
G1 E0.71776 F2400.00000 ; retract extruder 0
G92 E0 ; reset extrusion distance
G1 X215.203 Y189.283 F1800.000 ; move to first external small perimeter point
G1 E2.00000 F2400.00000 ; unretract extruder 0
G1 F600.000
G1 X215.007 Y189.075 E2.00103 ; external small perimeter
G1 X212.219 Y185.227 E2.01817 ; external small perimeter
G1 X212.143 Y185.071 E2.01880 ; external small perimeter
G1 X212.092 Y184.903 E2.01943 ; external small perimeter
G1 X212.069 Y184.729 E2.02006 ; external small perimeter
G1 X212.076 Y184.553 E2.02070 ; external small perimeter
G1 X212.110 Y184.381 E2.02133 ; external small perimeter
G1 X212.172 Y184.217 E2.02196 ; external small perimeter
G1 X212.260 Y184.066 E2.02260 ; external small perimeter
G1 X212.380 Y183.921 E2.02327 ; external small perimeter
G1 X213.084 Y183.332 E2.02658 ; external small perimeter
G1 X213.748 Y182.828 E2.02959 ; external small perimeter
G1 X214.439 Y182.344 E2.03264 ; external small perimeter
G1 X215.150 Y181.887 E2.03568 ; external small perimeter
G1 X215.875 Y181.461 E2.03872 ; external small perimeter
G1 X216.607 Y181.071 E2.04171 ; external small perimeter
G1 X217.334 Y180.724 E2.04462 ; external small perimeter
G1 X218.048 Y180.421 E2.04741 ; external small perimeter
G1 X218.673 Y180.188 E2.04982 ; external small perimeter
G1 X219.273 Y179.995 E2.05209 ; external small perimeter
G1 X219.846 Y179.839 E2.05423 ; external small perimeter
G1 X220.385 Y179.721 E2.05623 ; external small perimeter
G1 X220.886 Y179.639 E2.05806 ; external small perimeter
G1 X221.396 Y179.587 E2.05991 ; external small perimeter
G1 X221.811 Y179.572 E2.06141 ; external small perimeter
G1 X222.179 Y179.583 E2.06273 ; external small perimeter
G1 X222.499 Y179.617 E2.06389 ; external small perimeter
G1 X222.995 Y179.733 E2.06573 ; external small perimeter
G1 X223.296 Y179.869 E2.06692 ; external small perimeter
G1 X223.413 Y179.953 E2.06744 ; external small perimeter
G1 X223.491 Y180.038 E2.06786 ; external small perimeter
G1 X223.552 Y180.147 E2.06831 ; external small perimeter
G1 X223.610 Y180.344 E2.06905 ; external small perimeter
G1 X223.632 Y180.733 E2.07045 ; external small perimeter
G1 X223.606 Y181.017 E2.07149 ; external small perimeter
G1 X223.544 Y181.348 E2.07270 ; external small perimeter
G1 X223.344 Y182.006 E2.07518 ; external small perimeter
G1 X223.183 Y182.400 E2.07672 ; external small perimeter
G1 X222.981 Y182.825 E2.07841 ; external small perimeter
G1 X222.737 Y183.275 E2.08026 ; external small perimeter
G1 X222.446 Y183.751 E2.08227 ; external small perimeter
G1 X222.109 Y184.248 E2.08444 ; external small perimeter
G1 X221.726 Y184.760 E2.08675 ; external small perimeter
G1 X221.297 Y185.285 E2.08919 ; external small perimeter
G1 X220.798 Y185.845 E2.09190 ; external small perimeter
