; generated by Slic3r 1.3.1-dev (Build (Unknown revision)) on 2022-09-17 at 14:55:47

; external perimeters extrusion width = 1.32mm (12.75mm^3/s)
; perimeters extrusion width = 1.26mm (12.03mm^3/s)
; infill extrusion width = 2.00mm (20.91mm^3/s)
; solid infill extrusion width = 2.00mm (41.82mm^3/s)
; top infill extrusion width = 1.26mm (18.04mm^3/s)

M107 ; disable fan
G92 E0 ; reset extrusion distance
M104 S200 ; set temperature
G28 ; home all axes
G1 Z5 F5000 ; lift nozzle

; Filament gcode

M109 S200 ; set temperature and wait for it to be reached
G21 ; set units to millimeters
G90 ; use absolute coordinates
M82 ; use absolute distances for extrusion
G92 E0 ; reset extrusion distance
G1 Z4.550 F1800.000 ; move to next layer (0)
G1 E-2.00000 F2400.00000 ; retract extruder 0
G92 E0 ; reset extrusion distance
G1 X166.602 Y184.492 F1800.000 ; move to first external perimeter point
G1 E2.00000 F2400.00000 ; unretract extruder 0
G1 F600.000
G1 X156.964 Y197.757 E2.03438 ; external perimeter
G1 X156.228 Y197.432 E2.03607 ; external perimeter
G1 X154.784 Y196.710 E2.03945 ; external perimeter
G1 X153.331 Y195.898 E2.04294 ; external perimeter
G1 X151.899 Y195.010 E2.04648 ; external perimeter
G1 X150.507 Y194.062 E2.05001 ; external perimeter
G1 X149.148 Y193.046 E2.05357 ; external perimeter
G1 X147.851 Y191.986 E2.05708 ; external perimeter
G1 X146.603 Y190.869 E2.06059 ; external perimeter
G1 X145.441 Y189.731 E2.06400 ; external perimeter
G1 X144.343 Y188.549 E2.06738 ; external perimeter
G1 X143.342 Y187.357 E2.07065 ; external perimeter
G1 X142.453 Y186.178 E2.07374 ; external perimeter
G1 X141.644 Y184.967 E2.07680 ; external perimeter
G1 X140.967 Y183.805 E2.07962 ; external perimeter
G1 X140.396 Y182.650 E2.08232 ; external perimeter
G1 X139.949 Y181.544 E2.08482 ; external perimeter
G1 X139.621 Y180.479 E2.08716 ; external perimeter
G1 X139.414 Y179.473 E2.08931 ; external perimeter
G1 X139.327 Y178.536 E2.09129 ; external perimeter
G1 X139.354 Y177.675 E2.09309 ; external perimeter
G1 X139.490 Y176.895 E2.09475 ; external perimeter
G1 X139.728 Y176.198 E2.09630 ; external perimeter
G1 X140.063 Y175.579 E2.09777 ; external perimeter
G1 X140.495 Y175.032 E2.09923 ; external perimeter
G1 X141.028 Y174.555 E2.10073 ; external perimeter
G1 X141.665 Y174.148 E2.10232 ; external perimeter
G1 X142.422 Y173.811 E2.10406 ; external perimeter
G1 X143.281 Y173.559 E2.10593 ; external perimeter
G1 X144.249 Y173.394 E2.10799 ; external perimeter
G1 X145.320 Y173.325 E2.11024 ; external perimeter
G1 X146.461 Y173.355 E2.11263 ; external perimeter
G1 X147.705 Y173.487 E2.11526 ; external perimeter
G1 X149.002 Y173.721 E2.11802 ; external perimeter
G1 X150.355 Y174.057 E2.12095 ; external perimeter
G1 X151.755 Y174.494 E2.12402 ; external perimeter
G1 X153.174 Y175.023 E2.12720 ; external perimeter
G1 X154.625 Y175.651 E2.13051 ; external perimeter
G1 X156.068 Y176.360 E2.13388 ; external perimeter
G1 X157.521 Y177.159 E2.13736 ; external perimeter
G1 X158.956 Y178.035 E2.14088 ; external perimeter
G1 X160.360 Y178.978 E2.14443 ; external perimeter
G1 X161.719 Y179.980 E2.14797 ; external perimeter
G1 X163.022 Y181.031 E2.15148 ; external perimeter
G1 X164.290 Y182.149 E2.15503 ; external perimeter
G1 X165.465 Y183.285 E2.15845 ; external perimeter
G1 X166.479 Y184.361 E2.16155 ; external perimeter
G1 E0.16155 F2400.00000 ; retract extruder 0
G92 E0 ; reset extrusion distance
G1 X155.594 Y196.086 F1800.000 ; move to first infill point
G1 E2.00000 F2400.00000 ; unretract extruder 0
G1 F600.000
G1 X157.092 Y194.588 E2.00454 ; infill
G1 X164.492 Y184.403 E2.03155 ; infill
G1 X153.783 Y195.112 E2.06404 ; infill
G1 X152.060 Y194.050 E2.06839 ; infill
G1 X163.500 Y182.610 E2.10309 ; infill
G1 X162.529 Y181.754 E2.10587 ; infill
G1 X161.998 Y181.326 E2.10733 ; infill
G1 X150.422 Y192.903 E2.14245 ; infill
G1 X149.585 Y192.277 E2.14470 ; infill
G1 X148.857 Y191.682 E2.14671 ; infill
G1 X160.423 Y180.116 E2.18180 ; infill
G1 X160.000 Y179.804 E2.18293 ; infill
G1 X158.774 Y178.980 E2.18610 ; infill
G1 X147.366 Y190.388 E2.22071 ; infill
G1 X145.957 Y189.012 E2.22494 ; infill
G1 X157.039 Y177.930 E2.25856 ; infill
G1 X155.928 Y177.319 E2.26128 ; infill
G1 X155.215 Y176.969 E2.26298 ; infill
G1 X144.637 Y187.546 E2.29508 ; infill
G1 X144.100 Y186.907 E2.29687 ; infill
G1 X143.409 Y185.990 E2.29933 ; infill
G1 X153.297 Y176.101 E2.32933 ; infill
G1 X151.880 Y175.567 E2.33258 ; infill
G1 X151.245 Y175.369 E2.33401 ; infill
G1 X142.304 Y184.310 E2.36114 ; infill
G1 X141.915 Y183.642 E2.36280 ; infill
G1 X141.351 Y182.478 E2.36557 ; infill
G1 X149.030 Y174.798 E2.38887 ; infill
G1 X148.180 Y174.645 E2.39072 ; infill
G1 X147.082 Y174.528 E2.39309 ; infill
G1 X146.529 Y174.514 E2.39428 ; infill
G1 X140.663 Y180.380 E2.41207 ; infill
G1 X140.572 Y179.938 E2.41304 ; infill
G1 X140.506 Y179.226 E2.41458 ; infill
G1 X140.525 Y178.620 E2.41588 ; infill
G1 X140.612 Y178.122 E2.41696 ; infill
G1 X140.749 Y177.720 E2.41787 ; infill
G1 X140.928 Y177.390 E2.41868 ; infill
G1 X141.153 Y177.105 E2.41946 ; infill
G1 X142.652 Y175.606 E2.42401 ; infill
G1 Z5.750 F1800.000 ; move to next layer (1)
G1 E0.42401 F2400.00000 ; retract extruder 0
G92 E0 ; reset extrusion distance
G1 X167.035 Y184.474 F1800.000 ; move to first external perimeter point
G1 E2.00000 F2400.00000 ; unretract extruder 0
G1 F600.000
G1 X157.078 Y198.179 E2.06722 ; external perimeter
G1 X156.087 Y197.742 E2.07152 ; external perimeter
G1 X154.620 Y197.008 E2.07803 ; external perimeter
G1 X153.160 Y196.192 E2.08467 ; external perimeter
G1 X151.720 Y195.300 E2.09139 ; external perimeter
G1 X150.310 Y194.339 E2.09816 ; external perimeter
G1 X148.941 Y193.316 E2.10494 ; external perimeter
G1 X147.625 Y192.240 E2.11169 ; external perimeter
G1 X146.372 Y191.119 E2.11836 ; external perimeter
G1 X145.191 Y189.961 E2.12492 ; external perimeter
G1 X144.091 Y188.777 E2.13133 ; external perimeter
G1 X143.081 Y187.576 E2.13756 ; external perimeter
G1 X142.202 Y186.412 E2.14335 ; external perimeter
G1 X141.321 Y185.091 E2.14965 ; external perimeter
G1 X140.668 Y183.967 E2.15481 ; external perimeter
G1 X140.074 Y182.763 E2.16014 ; external perimeter
G1 X139.628 Y181.658 E2.16487 ; external perimeter
G1 X139.291 Y180.564 E2.16941 ; external perimeter
G1 X139.077 Y179.523 E2.17362 ; external perimeter
G1 X138.986 Y178.546 E2.17752 ; external perimeter
G1 X139.015 Y177.640 E2.18112 ; external perimeter
G1 X139.160 Y176.811 E2.18446 ; external perimeter
G1 X139.415 Y176.061 E2.18760 ; external perimeter
G1 X139.777 Y175.391 E2.19062 ; external perimeter
G1 X140.246 Y174.799 E2.19362 ; external perimeter
G1 X140.822 Y174.283 E2.19669 ; external perimeter
G1 X141.507 Y173.846 E2.19991 ; external perimeter
G1 X142.302 Y173.492 E2.20337 ; external perimeter
G1 X143.205 Y173.227 E2.20710 ; external perimeter
G1 X144.209 Y173.056 E2.21114 ; external perimeter
G1 X145.308 Y172.985 E2.21551 ; external perimeter
G1 X146.381 Y173.012 E2.21977 ; external perimeter
G1 X147.750 Y173.150 E2.22523 ; external perimeter
G1 X149.069 Y173.388 E2.23055 ; external perimeter
G1 X150.443 Y173.728 E2.23616 ; external perimeter
G1 X151.858 Y174.169 E2.24204 ; external perimeter
G1 X153.302 Y174.708 E2.24816 ; external perimeter
G1 X154.763 Y175.340 E2.25448 ; external perimeter
G1 X156.230 Y176.061 E2.26097 ; external perimeter
G1 X157.672 Y176.854 E2.26750 ; external perimeter
G1 X159.136 Y177.746 E2.27430 ; external perimeter
G1 X160.551 Y178.697 E2.28106 ; external perimeter
G1 X161.926 Y179.711 E2.28784 ; external perimeter
G1 X163.198 Y180.735 E2.29432 ; external perimeter
G1 X164.515 Y181.894 E2.30129 ; external perimeter
G1 X165.700 Y183.040 E2.30783 ; external perimeter
G1 X166.917 Y184.338 E2.31489 ; external perimeter
G1 X165.350 Y184.886 F1800.000 ; move to first infill point
G1 F900.000
G1 X164.569 Y184.105 E2.31906 ; infill
G1 X161.736 Y181.621 E2.33328 ; infill
G1 X160.405 Y180.552 E2.33972 ; infill
G1 X159.076 Y179.580 E2.34594 ; infill
G1 X157.696 Y178.662 E2.35220 ; infill
G1 X164.748 Y185.714 E2.38985 ; infill
G1 X164.147 Y186.542 E2.39371 ; infill
G1 X154.440 Y176.835 E2.44553 ; infill
G1 X153.458 Y176.363 E2.44965 ; infill
G1 X151.882 Y175.707 E2.45609 ; infill
G1 X163.545 Y187.370 E2.51835 ; infill
G1 X162.944 Y188.198 E2.52221 ; infill
G1 X149.723 Y174.978 E2.59279 ; infill
G1 X148.516 Y174.667 E2.59750 ; infill
G1 X147.853 Y174.537 E2.60005 ; infill
G1 X162.342 Y189.026 E2.67740 ; infill
G1 X161.741 Y189.854 E2.68127 ; infill
G1 X146.191 Y174.304 E2.76428 ; infill
G1 X145.083 Y174.259 E2.76847 ; infill
G1 X144.729 Y174.272 E2.76980 ; infill
G1 X161.139 Y190.682 E2.85741 ; infill
G1 X160.538 Y191.510 E2.86127 ; infill
G1 X143.436 Y174.408 E2.95257 ; infill
G1 X143.412 Y174.412 E2.95267 ; infill
G1 X142.638 Y174.609 E2.95568 ; infill
G1 X142.328 Y174.729 E2.95694 ; infill
G1 X159.936 Y192.337 E3.05094 ; infill
G1 X159.335 Y193.165 E3.05481 ; infill
G1 X141.407 Y175.238 E3.15051 ; infill
G1 X141.148 Y175.461 E3.15181 ; infill
G1 X140.929 Y175.699 E3.15303 ; infill
G1 X140.727 Y175.987 E3.15435 ; infill
G1 X158.733 Y193.993 E3.25048 ; infill
G1 X158.132 Y194.821 E3.25435 ; infill
G1 X140.338 Y177.028 E3.34934 ; infill
G1 X140.283 Y177.360 E3.35061 ; infill
G1 X140.253 Y177.950 E3.35284 ; infill
G1 X140.281 Y178.400 E3.35454 ; infill
G1 X157.530 Y195.649 E3.44663 ; infill
G1 X156.929 Y196.477 E3.45049 ; infill
G1 X140.633 Y180.182 E3.53749 ; infill
G1 X140.916 Y181.003 E3.54076 ; infill
G1 X141.279 Y181.861 E3.54428 ; infill
G1 X141.679 Y182.657 E3.54764 ; infill
G1 X153.800 Y194.778 E3.61236 ; infill
G1 X153.085 Y194.337 E3.61553 ; infill
G1 X151.714 Y193.406 E3.62178 ; infill
G1 X150.267 Y192.322 E3.62861 ; infill
G1 X148.964 Y191.249 E3.63498 ; infill
G1 X147.738 Y190.140 E3.64122 ; infill
G1 X145.783 Y188.190 E3.65165 ; infill
G1 Z6.950 F1800.000 ; move to next layer (2)
G1 E1.65165 F2400.00000 ; retract extruder 0
G92 E0 ; reset extrusion distance
G1 X162.487 Y184.772 F1800.000 ; move to first external perimeter point
G1 E2.00000 F2400.00000 ; unretract extruder 0
G1 F600.000
G1 X155.949 Y193.771 E2.04414 ; external perimeter
G1 X153.697 Y192.406 E2.05459 ; external perimeter
G1 X152.353 Y191.492 E2.06104 ; external perimeter
G1 X151.059 Y190.524 E2.06745 ; external perimeter
G1 X149.805 Y189.493 E2.07389 ; external perimeter
G1 X148.596 Y188.400 E2.08036 ; external perimeter
G1 X147.465 Y187.272 E2.08670 ; external perimeter
G1 X146.525 Y186.238 E2.09224 ; external perimeter
G1 X145.681 Y185.213 E2.09751 ; external perimeter
G1 X144.957 Y184.239 E2.10233 ; external perimeter
G1 X144.324 Y183.286 E2.10687 ; external perimeter
G1 X143.776 Y182.349 E2.11117 ; external perimeter
G1 X143.339 Y181.481 E2.11503 ; external perimeter
G1 X143.003 Y180.685 E2.11846 ; external perimeter
G1 X142.761 Y179.970 E2.12145 ; external perimeter
G1 X142.600 Y179.330 E2.12407 ; external perimeter
G1 X142.514 Y178.794 E2.12623 ; external perimeter
G1 X142.485 Y178.332 E2.12806 ; external perimeter
G1 X142.505 Y177.933 E2.12965 ; external perimeter
G1 X142.589 Y177.533 E2.13127 ; external perimeter
G1 X142.786 Y177.180 E2.13288 ; external perimeter
G1 X143.237 Y176.891 E2.13500 ; external perimeter
G1 X143.617 Y176.742 E2.13662 ; external perimeter
G1 X144.107 Y176.615 E2.13863 ; external perimeter
G1 X144.690 Y176.528 E2.14097 ; external perimeter
G1 X145.416 Y176.487 E2.14386 ; external perimeter
G1 X146.141 Y176.504 E2.14673 ; external perimeter
G1 X146.599 Y176.539 E2.14855 ; external perimeter
G1 X147.498 Y176.656 E2.15215 ; external perimeter
G1 X148.450 Y176.839 E2.15600 ; external perimeter
G1 X149.496 Y177.102 E2.16028 ; external perimeter
G1 X150.635 Y177.455 E2.16501 ; external perimeter
G1 X151.826 Y177.892 E2.17005 ; external perimeter
G1 X153.105 Y178.435 E2.17556 ; external perimeter
G1 X154.374 Y179.047 E2.18115 ; external perimeter
G1 X155.746 Y179.788 E2.18734 ; external perimeter
G1 X157.086 Y180.595 E2.19354 ; external perimeter
G1 X158.391 Y181.462 E2.19976 ; external perimeter
G1 X159.725 Y182.438 E2.20632 ; external perimeter
G1 X160.996 Y183.461 E2.21279 ; external perimeter
G1 X162.352 Y184.653 E2.21996 ; external perimeter
G1 X167.035 Y184.474 F1800.000 ; move to first external perimeter point
G1 F600.000
G1 X157.078 Y198.179 E2.28718 ; external perimeter
G1 X156.087 Y197.742 E2.29148 ; external perimeter
G1 X154.620 Y197.008 E2.29799 ; external perimeter
G1 X153.160 Y196.192 E2.30463 ; external perimeter
G1 X151.720 Y195.300 E2.31135 ; external perimeter
G1 X150.310 Y194.339 E2.31812 ; external perimeter
G1 X148.941 Y193.316 E2.32490 ; external perimeter
G1 X147.625 Y192.240 E2.33164 ; external perimeter
G1 X146.372 Y191.119 E2.33832 ; external perimeter
G1 X145.191 Y189.961 E2.34488 ; external perimeter
G1 X144.091 Y188.777 E2.35129 ; external perimeter
G1 X143.081 Y187.575 E2.35752 ; external perimeter
G1 X142.243 Y186.468 E2.36303 ; external perimeter
G1 X141.268 Y185.003 E2.37002 ; external perimeter
G1 X140.651 Y183.937 E2.37490 ; external perimeter
G1 X140.056 Y182.723 E2.38027 ; external perimeter
G1 X139.628 Y181.658 E2.38482 ; external perimeter
G1 X139.291 Y180.564 E2.38937 ; external perimeter
G1 X139.077 Y179.523 E2.39358 ; external perimeter
G1 X138.986 Y178.546 E2.39748 ; external perimeter
G1 X139.015 Y177.640 E2.40107 ; external perimeter
G1 X139.160 Y176.811 E2.40441 ; external perimeter
G1 X139.415 Y176.061 E2.40756 ; external perimeter
G1 X139.777 Y175.391 E2.41058 ; external perimeter
G1 X140.246 Y174.799 E2.41358 ; external perimeter
G1 X140.822 Y174.283 E2.41664 ; external perimeter
G1 X141.507 Y173.846 E2.41987 ; external perimeter
G1 X142.302 Y173.492 E2.42332 ; external perimeter
G1 X143.205 Y173.227 E2.42706 ; external perimeter
G1 X144.185 Y173.059 E2.43100 ; external perimeter
G1 X145.309 Y172.985 E2.43547 ; external perimeter
G1 X146.554 Y173.020 E2.44041 ; external perimeter
G1 X147.748 Y173.150 E2.44518 ; external perimeter
G1 X149.069 Y173.388 E2.45051 ; external perimeter
G1 X150.443 Y173.728 E2.45612 ; external perimeter
G1 X151.858 Y174.169 E2.46200 ; external perimeter
G1 X153.303 Y174.709 E2.46813 ; external perimeter
G1 X154.763 Y175.340 E2.47444 ; external perimeter
G1 X156.230 Y176.061 E2.48092 ; external perimeter
G1 X157.648 Y176.840 E2.48734 ; external perimeter
G1 X159.136 Y177.746 E2.49426 ; external perimeter
G1 X160.551 Y178.697 E2.50102 ; external perimeter
G1 X161.927 Y179.711 E2.50780 ; external perimeter
G1 X163.131 Y180.680 E2.51394 ; external perimeter
G1 X164.515 Y181.895 E2.52125 ; external perimeter
G1 X165.692 Y183.031 E2.52774 ; external perimeter
G1 X166.917 Y184.338 E2.53485 ; external perimeter
G1 X156.082 Y196.988 F1800.000 ; move to first infill point
G1 F1200.000
G1 X157.150 Y195.920 E2.54512 ; infill
G1 X163.993 Y186.502 E2.62430 ; infill
G1 X159.628 Y190.867 E2.66629 ; infill
G1 X163.819 Y185.099 E2.71479 ; infill
G1 X163.287 Y184.632 E2.71960 ; infill
G1 X164.836 Y183.084 E2.73449 ; infill
G1 X164.109 Y182.382 E2.74136 ; infill
G1 X163.498 Y181.846 E2.74689 ; infill
G1 X161.917 Y183.427 E2.76210 ; infill
G1 X161.356 Y182.933 E2.76718 ; infill
G1 X160.513 Y182.255 E2.77454 ; infill
G1 X162.100 Y180.668 E2.78980 ; infill
G1 X161.612 Y180.276 E2.79406 ; infill
G1 X160.636 Y179.556 E2.80231 ; infill
G1 X159.046 Y181.147 E2.81760 ; infill
G1 X158.651 Y180.858 E2.82093 ; infill
G1 X157.515 Y180.102 E2.83021 ; infill
G1 X159.110 Y178.508 E2.84555 ; infill
G1 X157.516 Y177.525 E2.85828 ; infill
G1 X155.916 Y179.126 E2.87368 ; infill
G1 X154.236 Y178.231 E2.88663 ; infill
G1 X155.845 Y176.621 E2.90211 ; infill
G1 X154.715 Y176.066 E2.91067 ; infill
G1 X154.093 Y175.797 E2.91528 ; infill
G1 X152.472 Y177.419 E2.93088 ; infill
G1 X151.803 Y177.135 E2.93582 ; infill
G1 X150.616 Y176.699 E2.94442 ; infill
G1 X152.251 Y175.064 E2.96015 ; infill
G1 X151.942 Y174.949 E2.96239 ; infill
G1 X150.603 Y174.531 E2.97193 ; infill
G1 X150.287 Y174.453 E2.97415 ; infill
G1 X148.621 Y176.119 E2.99018 ; infill
