; generated by Slic3r 1.3.1-dev (Build (Unknown revision)) on 2022-09-17 at 14:55:47

; external perimeters extrusion width = 1.32mm (12.75mm^3/s)
; perimeters extrusion width = 1.26mm (12.03mm^3/s)
; infill extrusion width = 2.00mm (20.91mm^3/s)
; solid infill extrusion width = 2.00mm (41.82mm^3/s)
; top infill extrusion width = 1.26mm (18.04mm^3/s)

M107 ; disable fan
G92 E0 ; reset extrusion distance
M104 S200 ; set temperature
G28 ; home all axes
G1 Z5 F5000 ; lift nozzle

; Filament gcode

M109 S200 ; set temperature and wait for it to be reached
G21 ; set units to millimeters
G90 ; use absolute coordinates
M82 ; use absolute distances for extrusion
G92 E0 ; reset extrusion distance
G1 Z4.550 F1800.000 ; move to next layer (0)
G1 E-2.00000 F2400.00000 ; retract extruder 0
G92 E0 ; reset extrusion distance
G1 X156.299 Y199.796 F1800.000 ; move to first external perimeter point
G1 E2.00000 F2400.00000 ; unretract extruder 0
G1 F600.000
G1 X156.299 Y216.193 E2.03438 ; external perimeter
G1 X155.512 Y216.363 E2.03607 ; external perimeter
G1 X153.902 Y216.630 E2.03949 ; external perimeter
G1 X152.267 Y216.824 E2.04294 ; external perimeter
G1 X150.602 Y216.947 E2.04644 ; external perimeter
G1 X148.903 Y216.999 E2.05001 ; external perimeter
G1 X147.206 Y216.976 E2.05357 ; external perimeter
G1 X145.516 Y216.879 E2.05712 ; external perimeter
G1 X143.868 Y216.711 E2.06059 ; external perimeter
G1 X142.258 Y216.473 E2.06400 ; external perimeter
G1 X140.676 Y216.162 E2.06738 ; external perimeter
G1 X139.166 Y215.786 E2.07065 ; external perimeter
G1 X137.737 Y215.350 E2.07378 ; external perimeter
G1 X136.387 Y214.851 E2.07680 ; external perimeter
G1 X135.156 Y214.309 E2.07962 ; external perimeter
G1 X134.020 Y213.713 E2.08231 ; external perimeter
G1 X133.003 Y213.078 E2.08482 ; external perimeter
G1 X132.107 Y212.405 E2.08717 ; external perimeter
G1 X131.353 Y211.717 E2.08931 ; external perimeter
G1 X130.732 Y211.010 E2.09129 ; external perimeter
G1 X130.248 Y210.298 E2.09309 ; external perimeter
G1 X129.895 Y209.574 E2.09478 ; external perimeter
G1 X129.682 Y208.883 E2.09629 ; external perimeter
G1 X129.589 Y208.185 E2.09777 ; external perimeter
G1 X129.619 Y207.480 E2.09925 ; external perimeter
G1 X129.768 Y206.789 E2.10073 ; external perimeter
G1 X130.041 Y206.094 E2.10230 ; external perimeter
G1 X130.459 Y205.367 E2.10406 ; external perimeter
G1 X131.012 Y204.651 E2.10595 ; external perimeter
G1 X131.692 Y203.957 E2.10799 ; external perimeter
G1 X132.507 Y203.279 E2.11021 ; external perimeter
G1 X133.469 Y202.618 E2.11266 ; external perimeter
G1 X134.542 Y202.001 E2.11526 ; external perimeter
G1 X135.717 Y201.433 E2.11799 ; external perimeter
G1 X137.021 Y200.904 E2.12095 ; external perimeter
G1 X138.410 Y200.435 E2.12402 ; external perimeter
G1 X139.870 Y200.029 E2.12720 ; external perimeter
G1 X141.396 Y199.687 E2.13048 ; external perimeter
G1 X142.996 Y199.409 E2.13388 ; external perimeter
G1 X144.657 Y199.200 E2.13739 ; external perimeter
G1 X146.318 Y199.066 E2.14088 ; external perimeter
G1 X147.992 Y199.005 E2.14440 ; external perimeter
G1 X149.696 Y199.016 E2.14797 ; external perimeter
G1 X151.382 Y199.102 E2.15151 ; external perimeter
G1 X153.051 Y199.260 E2.15502 ; external perimeter
G1 X154.677 Y199.490 E2.15847 ; external perimeter
G1 X156.122 Y199.763 E2.16155 ; external perimeter
G1 E0.16155 F2400.00000 ; retract extruder 0
G92 E0 ; reset extrusion distance
G1 X153.625 Y215.349 F1800.000 ; move to first infill point
G1 E2.00000 F2400.00000 ; unretract extruder 0
G1 F600.000
G1 X155.122 Y213.852 E2.00454 ; infill
G1 X155.122 Y211.070 E2.01050 ; infill
G1 X150.472 Y215.720 E2.02459 ; infill
G1 X149.754 Y215.773 E2.02614 ; infill
G1 X148.138 Y215.822 E2.02960 ; infill
G1 X147.595 Y215.815 E2.03076 ; infill
G1 X155.122 Y208.288 E2.05357 ; infill
G1 X155.122 Y205.506 E2.05953 ; infill
G1 X144.920 Y215.708 E2.09045 ; infill
G1 X143.358 Y215.549 E2.09382 ; infill
G1 X142.434 Y215.412 E2.09582 ; infill
G1 X155.122 Y202.724 E2.13427 ; infill
G1 X155.122 Y200.643 E2.13873 ; infill
G1 X154.509 Y200.556 E2.14006 ; infill
G1 X140.095 Y214.969 E2.18374 ; infill
G1 X138.931 Y214.679 E2.18631 ; infill
G1 X137.914 Y214.368 E2.18859 ; infill
G1 X152.007 Y200.275 E2.23130 ; infill
G1 X150.390 Y200.192 E2.23477 ; infill
G1 X149.315 Y200.185 E2.23707 ; infill
G1 X135.892 Y213.608 E2.27775 ; infill
G1 X135.243 Y213.322 E2.27927 ; infill
G1 X134.230 Y212.791 E2.28172 ; infill
G1 X134.044 Y212.675 E2.28219 ; infill
G1 X146.417 Y200.301 E2.31969 ; infill
G1 X145.604 Y200.367 E2.32144 ; infill
G1 X144.030 Y200.565 E2.32483 ; infill
G1 X143.233 Y200.703 E2.32657 ; infill
G1 X132.420 Y211.516 E2.35934 ; infill
G1 X131.981 Y211.115 E2.36061 ; infill
G1 X131.508 Y210.578 E2.36215 ; infill
G1 X131.139 Y210.016 E2.36359 ; infill
G1 X139.578 Y201.576 E2.38916 ; infill
G1 X138.440 Y201.960 E2.39174 ; infill
G1 X137.247 Y202.444 E2.39450 ; infill
G1 X136.190 Y202.955 E2.39701 ; infill
G1 X135.244 Y203.499 E2.39935 ; infill
G1 X134.419 Y204.067 E2.40150 ; infill
G1 X133.748 Y204.625 E2.40337 ; infill
G1 X132.250 Y206.122 E2.40790 ; infill
G1 Z5.750 F1800.000 ; move to next layer (1)
G1 E0.40790 F2400.00000 ; retract extruder 0
G92 E0 ; reset extrusion distance
G1 X156.639 Y199.527 F1800.000 ; move to first external perimeter point
G1 E2.00000 F2400.00000 ; unretract extruder 0
G1 F600.000
G1 X156.639 Y216.468 E2.06722 ; external perimeter
G1 X155.580 Y216.696 E2.07152 ; external perimeter
G1 X153.900 Y216.973 E2.07828 ; external perimeter
G1 X152.301 Y217.163 E2.08467 ; external perimeter
G1 X150.659 Y217.285 E2.09120 ; external perimeter
G1 X148.906 Y217.339 E2.09816 ; external perimeter
G1 X147.198 Y217.316 E2.10494 ; external perimeter
G1 X145.440 Y217.213 E2.11193 ; external perimeter
G1 X143.827 Y217.049 E2.11836 ; external perimeter
G1 X142.240 Y216.815 E2.12472 ; external perimeter
G1 X140.606 Y216.495 E2.13134 ; external perimeter
G1 X139.083 Y216.116 E2.13756 ; external perimeter
G1 X137.601 Y215.662 E2.14371 ; external perimeter
G1 X136.198 Y215.141 E2.14965 ; external perimeter
G1 X135.008 Y214.615 E2.15481 ; external perimeter
G1 X133.851 Y214.008 E2.16000 ; external perimeter
G1 X132.811 Y213.359 E2.16486 ; external perimeter
G1 X131.869 Y212.650 E2.16954 ; external perimeter
G1 X131.111 Y211.956 E2.17362 ; external perimeter
G1 X130.462 Y211.218 E2.17752 ; external perimeter
G1 X129.955 Y210.471 E2.18110 ; external perimeter
G1 X129.559 Y209.644 E2.18474 ; external perimeter
G1 X129.349 Y208.957 E2.18759 ; external perimeter
G1 X129.248 Y208.201 E2.19062 ; external perimeter
G1 X129.279 Y207.448 E2.19361 ; external perimeter
G1 X129.453 Y206.655 E2.19683 ; external perimeter
G1 X129.739 Y205.934 E2.19991 ; external perimeter
G1 X130.154 Y205.211 E2.20321 ; external perimeter
G1 X130.749 Y204.434 E2.20710 ; external perimeter
G1 X131.461 Y203.706 E2.21114 ; external perimeter
G1 X132.241 Y203.056 E2.21517 ; external perimeter
G1 X133.284 Y202.332 E2.22021 ; external perimeter
G1 X134.403 Y201.690 E2.22533 ; external perimeter
G1 X135.588 Y201.118 E2.23055 ; external perimeter
G1 X136.839 Y200.609 E2.23591 ; external perimeter
G1 X138.303 Y200.112 E2.24204 ; external perimeter
G1 X139.788 Y199.699 E2.24816 ; external perimeter
G1 X141.341 Y199.351 E2.25448 ; external perimeter
G1 X142.918 Y199.077 E2.26083 ; external perimeter
G1 X144.607 Y198.863 E2.26758 ; external perimeter
G1 X146.318 Y198.726 E2.27439 ; external perimeter
G1 X147.997 Y198.665 E2.28106 ; external perimeter
G1 X149.587 Y198.675 E2.28737 ; external perimeter
G1 X151.414 Y198.763 E2.29463 ; external perimeter
G1 X153.125 Y198.927 E2.30145 ; external perimeter
G1 X154.766 Y199.160 E2.30802 ; external perimeter
G1 X156.463 Y199.487 E2.31488 ; external perimeter
G1 X155.363 Y201.155 F1800.000 ; move to first infill point
G1 F900.000
G1 X154.583 Y200.375 E2.31902 ; infill
G1 X153.017 Y200.230 E2.32493 ; infill
G1 X155.363 Y202.576 E2.33738 ; infill
G1 X155.363 Y203.998 E2.34272 ; infill
G1 X151.450 Y200.085 E2.36349 ; infill
G1 X150.909 Y200.034 E2.36553 ; infill
G1 X149.929 Y199.985 E2.36921 ; infill
G1 X155.363 Y205.419 E2.39806 ; infill
G1 X155.363 Y206.841 E2.40340 ; infill
G1 X148.468 Y199.946 E2.44000 ; infill
G1 X147.478 Y199.942 E2.44372 ; infill
G1 X147.060 Y199.959 E2.44529 ; infill
G1 X155.363 Y208.262 E2.48936 ; infill
G1 X155.363 Y209.683 E2.49470 ; infill
G1 X145.699 Y200.020 E2.54600 ; infill
G1 X144.391 Y200.133 E2.55093 ; infill
G1 X155.363 Y211.105 E2.60917 ; infill
G1 X155.363 Y212.526 E2.61451 ; infill
G1 X143.128 Y200.291 E2.67946 ; infill
G1 X142.503 Y200.376 E2.68183 ; infill
G1 X141.901 Y200.486 E2.68412 ; infill
G1 X155.363 Y213.948 E2.75559 ; infill
G1 X155.363 Y215.369 E2.76093 ; infill
G1 X140.711 Y200.718 E2.83871 ; infill
G1 X139.560 Y200.987 E2.84315 ; infill
G1 X154.282 Y215.710 E2.92130 ; infill
G1 X152.997 Y215.846 E2.92615 ; infill
G1 X138.452 Y201.301 E3.00337 ; infill
G1 X137.385 Y201.656 E3.00759 ; infill
G1 X151.687 Y215.958 E3.08351 ; infill
G1 X150.996 Y216.010 E3.08612 ; infill
G1 X150.339 Y216.031 E3.08858 ; infill
G1 X136.358 Y202.050 E3.16280 ; infill
G1 X135.964 Y202.211 E3.16440 ; infill
G1 X135.374 Y202.487 E3.16685 ; infill
G1 X148.946 Y216.059 E3.23889 ; infill
G1 X147.500 Y216.035 E3.24432 ; infill
G1 X134.437 Y202.971 E3.31367 ; infill
G1 X134.139 Y203.133 E3.31494 ; infill
G1 X133.548 Y203.504 E3.31756 ; infill
G1 X145.988 Y215.944 E3.38360 ; infill
G1 X144.401 Y215.779 E3.38959 ; infill
G1 X132.725 Y204.102 E3.45158 ; infill
G1 X132.276 Y204.470 E3.45375 ; infill
G1 X131.970 Y204.769 E3.45536 ; infill
G1 X142.729 Y215.528 E3.51247 ; infill
G1 X140.941 Y215.162 E3.51932 ; infill
G1 X131.303 Y205.524 E3.57049 ; infill
G1 X130.992 Y205.993 E3.57260 ; infill
G1 X130.777 Y206.419 E3.57439 ; infill
G1 X138.972 Y214.613 E3.61789 ; infill
G1 X138.385 Y214.427 E3.62020 ; infill
G1 X137.320 Y214.030 E3.62447 ; infill
G1 X136.700 Y213.762 E3.62701 ; infill
G1 X130.517 Y207.580 E3.65983 ; infill
G1 X130.519 Y207.807 E3.66068 ; infill
G1 X130.565 Y208.138 E3.66194 ; infill
G1 X130.648 Y208.465 E3.66321 ; infill
G1 X130.767 Y208.788 E3.66449 ; infill
G1 X130.969 Y209.193 E3.66619 ; infill
G1 X131.292 Y209.688 E3.66841 ; infill
G1 X131.690 Y210.170 E3.67076 ; infill
G1 X132.585 Y211.069 E3.67552 ; infill
G1 X132.558 Y211.043 E3.67566 ; infill
G1 Z6.950 F1800.000 ; move to next layer (2)
G1 E1.67566 F2400.00000 ; retract extruder 0
G92 E0 ; reset extrusion distance
G1 X153.134 Y202.442 F1800.000 ; move to first external perimeter point
G1 E2.00000 F2400.00000 ; unretract extruder 0
G1 F600.000
G1 X153.134 Y213.565 E2.04414 ; external perimeter
G1 X150.492 Y213.785 E2.05466 ; external perimeter
G1 X148.885 Y213.835 E2.06104 ; external perimeter
G1 X147.251 Y213.811 E2.06752 ; external perimeter
G1 X145.630 Y213.714 E2.07397 ; external perimeter
G1 X144.028 Y213.542 E2.08036 ; external perimeter
G1 X142.451 Y213.294 E2.08670 ; external perimeter
G1 X141.082 Y213.010 E2.09224 ; external perimeter
G1 X139.814 Y212.682 E2.09744 ; external perimeter
G1 X138.622 Y212.309 E2.10240 ; external perimeter
G1 X137.535 Y211.903 E2.10700 ; external perimeter
G1 X136.586 Y211.486 E2.11111 ; external perimeter
G1 X135.709 Y211.034 E2.11503 ; external perimeter
G1 X134.969 Y210.587 E2.11846 ; external perimeter
G1 X134.353 Y210.152 E2.12145 ; external perimeter
G1 X133.855 Y209.736 E2.12403 ; external perimeter
G1 X133.462 Y209.346 E2.12623 ; external perimeter
G1 X133.167 Y208.989 E2.12806 ; external perimeter
G1 X132.949 Y208.654 E2.12965 ; external perimeter
G1 X132.788 Y208.297 E2.13120 ; external perimeter
G1 X132.730 Y207.957 E2.13257 ; external perimeter
G1 X132.829 Y207.595 E2.13406 ; external perimeter
G1 X132.955 Y207.337 E2.13520 ; external perimeter
G1 X133.157 Y207.025 E2.13668 ; external perimeter
G1 X133.470 Y206.646 E2.13863 ; external perimeter
G1 X133.891 Y206.232 E2.14097 ; external perimeter
G1 X134.460 Y205.768 E2.14388 ; external perimeter
G1 X135.051 Y205.360 E2.14673 ; external perimeter
G1 X135.441 Y205.120 E2.14855 ; external perimeter
G1 X136.237 Y204.686 E2.15215 ; external perimeter
G1 X137.115 Y204.274 E2.15600 ; external perimeter
G1 X138.133 Y203.866 E2.16035 ; external perimeter
G1 X139.245 Y203.488 E2.16501 ; external perimeter
G1 X140.479 Y203.138 E2.17010 ; external perimeter
G1 X141.801 Y202.833 E2.17548 ; external perimeter
G1 X143.206 Y202.578 E2.18115 ; external perimeter
G1 X144.775 Y202.369 E2.18743 ; external perimeter
G1 X146.310 Y202.237 E2.19354 ; external perimeter
G1 X147.875 Y202.172 E2.19976 ; external perimeter
G1 X149.528 Y202.177 E2.20632 ; external perimeter
G1 X151.157 Y202.258 E2.21279 ; external perimeter
G1 X152.955 Y202.425 E2.21995 ; external perimeter
G1 X156.639 Y199.527 F1800.000 ; move to first external perimeter point
G1 F600.000
G1 X156.639 Y216.468 E2.28718 ; external perimeter
G1 X155.581 Y216.696 E2.29147 ; external perimeter
G1 X153.822 Y216.983 E2.29854 ; external perimeter
G1 X152.301 Y217.163 E2.30462 ; external perimeter
G1 X150.718 Y217.281 E2.31092 ; external perimeter
G1 X148.905 Y217.339 E2.31812 ; external perimeter
G1 X147.198 Y217.316 E2.32489 ; external perimeter
G1 X145.363 Y217.207 E2.33219 ; external perimeter
G1 X143.827 Y217.049 E2.33831 ; external perimeter
G1 X142.302 Y216.825 E2.34443 ; external perimeter
G1 X140.605 Y216.495 E2.35129 ; external perimeter
G1 X139.083 Y216.116 E2.35751 ; external perimeter
G1 X137.559 Y215.648 E2.36384 ; external perimeter
G1 X136.105 Y215.101 E2.37001 ; external perimeter
G1 X135.009 Y214.615 E2.37476 ; external perimeter
G1 X133.851 Y214.008 E2.37995 ; external perimeter
G1 X132.811 Y213.359 E2.38481 ; external perimeter
G1 X131.838 Y212.623 E2.38966 ; external perimeter
G1 X131.048 Y211.890 E2.39393 ; external perimeter
G1 X130.463 Y211.219 E2.39747 ; external perimeter
G1 X129.953 Y210.468 E2.40107 ; external perimeter
G1 X129.579 Y209.704 E2.40444 ; external perimeter
G1 X129.343 Y208.930 E2.40766 ; external perimeter
G1 X129.248 Y208.202 E2.41057 ; external perimeter
G1 X129.281 Y207.428 E2.41364 ; external perimeter
G1 X129.417 Y206.781 E2.41627 ; external perimeter
G1 X129.461 Y206.628 E2.41690 ; external perimeter
G1 X129.739 Y205.934 E2.41986 ; external perimeter
G1 X130.129 Y205.251 E2.42299 ; external perimeter
G1 X130.750 Y204.433 E2.42706 ; external perimeter
G1 X131.444 Y203.723 E2.43100 ; external perimeter
G1 X132.171 Y203.112 E2.43477 ; external perimeter
G1 X132.354 Y202.969 E2.43569 ; external perimeter
G1 X133.282 Y202.333 E2.44015 ; external perimeter
G1 X134.434 Y201.674 E2.44542 ; external perimeter
G1 X135.588 Y201.118 E2.45050 ; external perimeter
G1 X136.763 Y200.639 E2.45554 ; external perimeter
G1 X138.304 Y200.111 E2.46200 ; external perimeter
G1 X139.789 Y199.698 E2.46812 ; external perimeter
G1 X141.342 Y199.351 E2.47443 ; external perimeter
G1 X142.875 Y199.084 E2.48061 ; external perimeter
G1 X144.607 Y198.863 E2.48754 ; external perimeter
G1 X146.350 Y198.724 E2.49448 ; external perimeter
G1 X147.997 Y198.665 E2.50102 ; external perimeter
G1 X149.438 Y198.673 E2.50673 ; external perimeter
G1 X151.407 Y198.762 E2.51455 ; external perimeter
G1 X153.177 Y198.933 E2.52161 ; external perimeter
G1 X154.817 Y199.169 E2.52819 ; external perimeter
G1 X156.463 Y199.487 E2.53484 ; external perimeter
G1 X154.717 Y215.878 F1800.000 ; move to first infill point
G1 F1200.000
G1 X155.785 Y214.810 E2.54511 ; infill
G1 X155.785 Y212.236 E2.56261 ; infill
G1 X153.988 Y214.033 E2.57988 ; infill
G1 X153.988 Y211.459 E2.59738 ; infill
G1 X155.785 Y209.662 E2.61466 ; infill
G1 X155.785 Y207.087 E2.63216 ; infill
G1 X153.988 Y208.884 E2.64944 ; infill
G1 X153.988 Y206.310 E2.66694 ; infill
G1 X155.785 Y204.513 E2.68422 ; infill
G1 X155.785 Y201.939 E2.70172 ; infill
G1 X153.988 Y203.736 E2.71900 ; infill
G1 X153.988 Y201.712 E2.73276 ; infill
G1 X153.485 Y201.665 E2.73619 ; infill
G1 X155.142 Y200.008 E2.75212 ; infill
G1 X153.546 Y199.777 E2.76309 ; infill
