; generated by Slic3r 1.3.1-dev (Build (Unknown revision)) on 2022-09-17 at 14:55:47

; external perimeters extrusion width = 1.32mm (12.75mm^3/s)
; perimeters extrusion width = 1.26mm (12.03mm^3/s)
; infill extrusion width = 2.00mm (20.91mm^3/s)
; solid infill extrusion width = 2.00mm (41.82mm^3/s)
; top infill extrusion width = 1.26mm (18.04mm^3/s)

M107 ; disable fan
G92 E0 ; reset extrusion distance
M104 S200 ; set temperature
G28 ; home all axes
G1 Z5 F5000 ; lift nozzle

; Filament gcode

M109 S200 ; set temperature and wait for it to be reached
G21 ; set units to millimeters
G90 ; use absolute coordinates
M82 ; use absolute distances for extrusion
G92 E0 ; reset extrusion distance
G1 Z4.550 F1800.000 ; move to next layer (0)
G1 E-2.00000 F2400.00000 ; retract extruder 0
G92 E0 ; reset extrusion distance
G1 X168.337 Y183.240 F1800.000 ; move to first external perimeter point
G1 E2.00000 F2400.00000 ; unretract extruder 0
G1 F600.000
G1 X167.932 Y182.544 E2.00169 ; external perimeter
G1 X167.188 Y181.111 E2.00507 ; external perimeter
G1 X166.491 Y179.601 E2.00856 ; external perimeter
G1 X165.853 Y178.041 E2.01210 ; external perimeter
G1 X165.285 Y176.456 E2.01563 ; external perimeter
G1 X164.783 Y174.834 E2.01919 ; external perimeter
G1 X164.357 Y173.215 E2.02270 ; external perimeter
G1 X164.000 Y171.560 E2.02625 ; external perimeter
G1 X163.732 Y169.974 E2.02962 ; external perimeter
G1 X163.539 Y168.373 E2.03300 ; external perimeter
G1 X163.429 Y166.820 E2.03627 ; external perimeter
G1 X163.403 Y165.343 E2.03936 ; external perimeter
G1 X163.459 Y163.903 E2.04238 ; external perimeter
G1 X163.598 Y162.532 E2.04527 ; external perimeter
G1 X163.811 Y161.286 E2.04792 ; external perimeter
G1 X164.101 Y160.122 E2.05044 ; external perimeter
G1 X164.464 Y159.062 E2.05279 ; external perimeter
G1 X164.885 Y158.133 E2.05493 ; external perimeter
G1 X165.366 Y157.324 E2.05690 ; external perimeter
G1 X165.903 Y156.633 E2.05874 ; external perimeter
G1 X166.462 Y156.092 E2.06037 ; external perimeter
G1 X167.064 Y155.667 E2.06191 ; external perimeter
G1 X167.700 Y155.363 E2.06339 ; external perimeter
G1 X168.362 Y155.177 E2.06483 ; external perimeter
G1 X169.089 Y155.102 E2.06637 ; external perimeter
G1 X169.837 Y155.148 E2.06794 ; external perimeter
G1 X170.639 Y155.318 E2.06966 ; external perimeter
G1 X171.491 Y155.621 E2.07155 ; external perimeter
G1 X172.377 Y156.061 E2.07363 ; external perimeter
G1 X173.277 Y156.630 E2.07586 ; external perimeter
G1 X174.183 Y157.325 E2.07825 ; external perimeter
G1 X175.112 Y158.163 E2.08088 ; external perimeter
G1 X176.023 Y159.115 E2.08364 ; external perimeter
G1 X176.921 Y160.182 E2.08656 ; external perimeter
G1 X177.787 Y161.345 E2.08960 ; external perimeter
G1 X178.634 Y162.621 E2.09282 ; external perimeter
G1 X179.438 Y163.981 E2.09613 ; external perimeter
G1 X180.195 Y165.416 E2.09953 ; external perimeter
G1 X180.895 Y166.904 E2.10298 ; external perimeter
G1 X181.535 Y168.439 E2.10647 ; external perimeter
G1 X182.122 Y170.044 E2.11005 ; external perimeter
G1 X182.636 Y171.666 E2.11362 ; external perimeter
G1 X183.072 Y173.283 E2.11713 ; external perimeter
G1 X183.434 Y174.903 E2.12061 ; external perimeter
G1 X183.722 Y176.537 E2.12409 ; external perimeter
G1 X183.931 Y178.173 E2.12755 ; external perimeter
G1 X168.508 Y183.185 E2.16155 ; external perimeter
G1 E0.16155 F2400.00000 ; retract extruder 0
G92 E0 ; reset extrusion distance
G1 X181.071 Y177.584 F1800.000 ; move to first infill point
G1 E2.00000 F2400.00000 ; unretract extruder 0
G1 F600.000
G1 X182.568 Y176.087 E2.00454 ; infill
G1 X182.295 Y174.531 E2.00792 ; infill
G1 X182.121 Y173.752 E2.00964 ; infill
G1 X176.948 Y178.924 E2.02532 ; infill
G1 X172.826 Y180.263 E2.03461 ; infill
G1 X181.557 Y171.532 E2.06107 ; infill
G1 X181.048 Y169.917 E2.06470 ; infill
G1 X180.872 Y169.435 E2.06580 ; infill
G1 X168.704 Y181.602 E2.10269 ; infill
G1 X168.508 Y181.666 E2.10313 ; infill
G1 X168.169 Y181.013 E2.10471 ; infill
G1 X167.645 Y179.879 E2.10738 ; infill
G1 X180.091 Y167.433 E2.14511 ; infill
G1 X179.883 Y166.935 E2.14627 ; infill
G1 X179.219 Y165.522 E2.14961 ; infill
G1 X166.833 Y177.908 E2.18716 ; infill
G1 X166.363 Y176.594 E2.19015 ; infill
G1 X166.126 Y175.832 E2.19186 ; infill
G1 X178.238 Y163.720 E2.22858 ; infill
G1 X177.751 Y162.895 E2.23063 ; infill
G1 X177.164 Y162.011 E2.23290 ; infill
G1 X165.518 Y173.657 E2.26821 ; infill
G1 X165.142 Y171.946 E2.27196 ; infill
G1 X165.042 Y171.351 E2.27326 ; infill
G1 X175.979 Y160.414 E2.30641 ; infill
G1 X175.339 Y159.653 E2.30854 ; infill
G1 X174.663 Y158.947 E2.31064 ; infill
G1 X164.704 Y168.905 E2.34083 ; infill
G1 X164.604 Y167.484 E2.34388 ; infill
G1 X164.582 Y166.245 E2.34654 ; infill
G1 X173.174 Y157.654 E2.37258 ; infill
G1 X172.923 Y157.462 E2.37326 ; infill
G1 X172.181 Y156.992 E2.37514 ; infill
G1 X171.420 Y156.624 E2.37695 ; infill
G1 X164.810 Y163.234 E2.39699 ; infill
G1 X164.948 Y162.430 E2.39873 ; infill
G1 X165.200 Y161.416 E2.40097 ; infill
G1 X165.506 Y160.522 E2.40300 ; infill
G1 X165.846 Y159.773 E2.40476 ; infill
G1 X166.210 Y159.159 E2.40629 ; infill
G1 X166.590 Y158.671 E2.40762 ; infill
G1 X168.093 Y157.169 E2.41217 ; infill
G1 Z5.750 F1800.000 ; move to next layer (1)
G1 E0.41217 F2400.00000 ; retract extruder 0
G92 E0 ; reset extrusion distance
G1 X168.181 Y183.649 F1800.000 ; move to first external perimeter point
G1 E2.00000 F2400.00000 ; unretract extruder 0
G1 F600.000
G1 X167.636 Y182.712 E2.00430 ; external perimeter
G1 X166.894 Y181.284 E2.01069 ; external perimeter
G1 X166.176 Y179.730 E2.01748 ; external perimeter
G1 X165.538 Y178.170 E2.02417 ; external perimeter
G1 X164.963 Y176.564 E2.03093 ; external perimeter
G1 X164.426 Y174.818 E2.03818 ; external perimeter
G1 X164.025 Y173.288 E2.04446 ; external perimeter
G1 X163.669 Y171.644 E2.05114 ; external perimeter
G1 X163.394 Y170.013 E2.05770 ; external perimeter
G1 X163.210 Y168.493 E2.06377 ; external perimeter
G1 X163.087 Y166.743 E2.07073 ; external perimeter
G1 X163.063 Y165.330 E2.07634 ; external perimeter
G1 X163.120 Y163.880 E2.08210 ; external perimeter
G1 X163.274 Y162.406 E2.08798 ; external perimeter
G1 X163.478 Y161.217 E2.09277 ; external perimeter
G1 X163.775 Y160.026 E2.09764 ; external perimeter
G1 X164.158 Y158.911 E2.10232 ; external perimeter
G1 X164.583 Y157.976 E2.10640 ; external perimeter
G1 X165.083 Y157.134 E2.11028 ; external perimeter
G1 X165.691 Y156.363 E2.11418 ; external perimeter
G1 X166.244 Y155.830 E2.11723 ; external perimeter
G1 X166.892 Y155.373 E2.12037 ; external perimeter
G1 X167.580 Y155.044 E2.12340 ; external perimeter
G1 X168.267 Y154.849 E2.12623 ; external perimeter
G1 X169.115 Y154.762 E2.12961 ; external perimeter
G1 X169.886 Y154.810 E2.13268 ; external perimeter
G1 X170.702 Y154.982 E2.13599 ; external perimeter
G1 X171.624 Y155.308 E2.13987 ; external perimeter
G1 X172.578 Y155.784 E2.14410 ; external perimeter
G1 X173.467 Y156.348 E2.14828 ; external perimeter
G1 X174.376 Y157.043 E2.15282 ; external perimeter
G1 X175.345 Y157.916 E2.15800 ; external perimeter
G1 X176.288 Y158.901 E2.16341 ; external perimeter
G1 X177.185 Y159.968 E2.16894 ; external perimeter
G1 X178.044 Y161.120 E2.17464 ; external perimeter
G1 X178.922 Y162.441 E2.18094 ; external perimeter
G1 X179.747 Y163.837 E2.18737 ; external perimeter
G1 X180.496 Y165.256 E2.19374 ; external perimeter
G1 X181.162 Y166.670 E2.19994 ; external perimeter
G1 X181.856 Y168.328 E2.20707 ; external perimeter
G1 X182.452 Y169.957 E2.21396 ; external perimeter
G1 X182.979 Y171.631 E2.22092 ; external perimeter
G1 X183.404 Y173.208 E2.22740 ; external perimeter
G1 X183.760 Y174.800 E2.23387 ; external perimeter
G1 X184.063 Y176.519 E2.24080 ; external perimeter
G1 X184.292 Y178.414 E2.24837 ; external perimeter
G1 X168.352 Y183.593 E2.31488 ; external perimeter
G1 X169.257 Y182.064 F1800.000 ; move to first infill point
G1 F900.000
G1 X168.477 Y181.284 E2.31916 ; infill
G1 X167.301 Y178.641 E2.33037 ; infill
G1 X170.365 Y181.704 E2.34716 ; infill
G1 X171.472 Y181.344 E2.35167 ; infill
G1 X166.364 Y176.236 E2.37968 ; infill
G1 X166.147 Y175.629 E2.38217 ; infill
G1 X165.664 Y174.068 E2.38850 ; infill
G1 X172.580 Y180.984 E2.42641 ; infill
G1 X173.688 Y180.624 E2.43093 ; infill
G1 X165.164 Y172.100 E2.47765 ; infill
G1 X164.874 Y170.720 E2.48312 ; infill
G1 X164.800 Y170.269 E2.48489 ; infill
G1 X174.795 Y180.264 E2.53968 ; infill
G1 X175.903 Y179.905 E2.54419 ; infill
G1 X164.549 Y168.551 E2.60642 ; infill
G1 X164.445 Y167.601 E2.61013 ; infill
G1 X164.402 Y166.936 E2.61271 ; infill
G1 X177.011 Y179.545 E2.68183 ; infill
G1 X178.118 Y179.185 E2.68634 ; infill
G1 X164.346 Y165.412 E2.76183 ; infill
G1 X164.341 Y164.777 E2.76430 ; infill
G1 X164.375 Y163.974 E2.76741 ; infill
G1 X179.226 Y178.825 E2.84881 ; infill
G1 X180.334 Y178.465 E2.85333 ; infill
G1 X164.487 Y162.618 E2.94019 ; infill
G1 X164.682 Y161.345 E2.94518 ; infill
G1 X181.442 Y178.105 E3.03704 ; infill
G1 X182.549 Y177.745 E3.04156 ; infill
G1 X164.969 Y160.165 E3.13792 ; infill
G1 X165.185 Y159.476 E3.14072 ; infill
G1 X165.346 Y159.074 E3.14240 ; infill
G1 X182.732 Y176.461 E3.23770 ; infill
G1 X182.305 Y174.565 E3.24523 ; infill
G1 X165.819 Y158.079 E3.33559 ; infill
G1 X166.156 Y157.548 E3.33803 ; infill
G1 X166.424 Y157.216 E3.33968 ; infill
G1 X181.796 Y172.589 E3.42395 ; infill
G1 X181.206 Y170.710 E3.43158 ; infill
G1 X181.101 Y170.426 E3.43275 ; infill
G1 X167.189 Y156.515 E3.50901 ; infill
G1 X167.405 Y156.378 E3.50999 ; infill
G1 X167.705 Y156.232 E3.51129 ; infill
G1 X168.026 Y156.125 E3.51260 ; infill
G1 X168.227 Y156.084 E3.51339 ; infill
G1 X180.139 Y167.997 E3.57869 ; infill
G1 X179.974 Y167.608 E3.58033 ; infill
G1 X179.291 Y166.183 E3.58645 ; infill
G1 X178.711 Y165.101 E3.59121 ; infill
G1 X169.788 Y156.178 E3.64012 ; infill
G1 X170.049 Y156.247 E3.64117 ; infill
G1 X170.791 Y156.542 E3.64427 ; infill
G1 X171.423 Y156.872 E3.64703 ; infill
G1 X172.175 Y157.358 E3.65050 ; infill
G1 X172.867 Y157.887 E3.65388 ; infill
G1 X173.270 Y158.231 E3.65593 ; infill
G1 X173.982 Y158.905 E3.65973 ; infill
G1 X174.768 Y159.690 E3.66404 ; infill
G1 Z6.950 F1800.000 ; move to next layer (2)
G1 E1.66404 F2400.00000 ; retract extruder 0
G92 E0 ; reset extrusion distance
G1 X169.859 Y179.419 F1800.000 ; move to first external perimeter point
G1 E2.00000 F2400.00000 ; unretract extruder 0
G1 F600.000
G1 X168.839 Y176.991 E2.01045 ; external perimeter
G1 X168.295 Y175.479 E2.01683 ; external perimeter
G1 X167.811 Y173.918 E2.02331 ; external perimeter
G1 X167.403 Y172.346 E2.02975 ; external perimeter
G1 X167.067 Y170.752 E2.03622 ; external perimeter
G1 X166.815 Y169.174 E2.04256 ; external perimeter
G1 X166.664 Y167.804 E2.04803 ; external perimeter
G1 X166.583 Y166.495 E2.05323 ; external perimeter
G1 X166.568 Y165.246 E2.05819 ; external perimeter
G1 X166.619 Y164.070 E2.06286 ; external perimeter
G1 X166.724 Y163.023 E2.06704 ; external perimeter
G1 X166.881 Y162.065 E2.07089 ; external perimeter
G1 X167.073 Y161.237 E2.07426 ; external perimeter
G1 X167.301 Y160.502 E2.07731 ; external perimeter
G1 X167.542 Y159.899 E2.07989 ; external perimeter
G1 X167.792 Y159.405 E2.08209 ; external perimeter
G1 X168.040 Y159.015 E2.08392 ; external perimeter
G1 X168.291 Y158.703 E2.08551 ; external perimeter
G1 X168.572 Y158.449 E2.08701 ; external perimeter
G1 X168.814 Y158.310 E2.08812 ; external perimeter
G1 X169.111 Y158.258 E2.08932 ; external perimeter
G1 X169.506 Y158.294 E2.09089 ; external perimeter
G1 X169.894 Y158.394 E2.09248 ; external perimeter
G1 X170.362 Y158.579 E2.09448 ; external perimeter
G1 X170.896 Y158.857 E2.09687 ; external perimeter
G1 X171.509 Y159.253 E2.09977 ; external perimeter
G1 X172.073 Y159.685 E2.10258 ; external perimeter
G1 X172.422 Y159.982 E2.10440 ; external perimeter
G1 X173.081 Y160.605 E2.10800 ; external perimeter
G1 X173.744 Y161.313 E2.11185 ; external perimeter
G1 X174.436 Y162.140 E2.11613 ; external perimeter
G1 X175.150 Y163.095 E2.12086 ; external perimeter
G1 X175.864 Y164.161 E2.12595 ; external perimeter
G1 X176.563 Y165.324 E2.13134 ; external perimeter
G1 X177.248 Y166.598 E2.13708 ; external perimeter
G1 X177.913 Y167.987 E2.14319 ; external perimeter
G1 X178.523 Y169.427 E2.14939 ; external perimeter
G1 X179.075 Y170.914 E2.15569 ; external perimeter
G1 X179.575 Y172.470 E2.16217 ; external perimeter
G1 X180.001 Y174.044 E2.16865 ; external perimeter
G1 X180.437 Y175.981 E2.17652 ; external perimeter
G1 X170.030 Y179.363 E2.21995 ; external perimeter
G1 X168.181 Y183.649 F1800.000 ; move to first external perimeter point
G1 F600.000
G1 X167.636 Y182.712 E2.22425 ; external perimeter
G1 X166.911 Y181.318 E2.23048 ; external perimeter
G1 X166.172 Y179.720 E2.23747 ; external perimeter
G1 X165.538 Y178.170 E2.24411 ; external perimeter
G1 X164.963 Y176.565 E2.25088 ; external perimeter
G1 X164.388 Y174.674 E2.25872 ; external perimeter
G1 X164.025 Y173.288 E2.26441 ; external perimeter
G1 X163.669 Y171.644 E2.27108 ; external perimeter
G1 X163.394 Y170.013 E2.27765 ; external perimeter
G1 X163.221 Y168.599 E2.28330 ; external perimeter
G1 X163.086 Y166.740 E2.29069 ; external perimeter
G1 X163.063 Y165.330 E2.29629 ; external perimeter
G1 X163.119 Y163.882 E2.30204 ; external perimeter
G1 X163.294 Y162.282 E2.30843 ; external perimeter
G1 X163.478 Y161.217 E2.31272 ; external perimeter
G1 X163.774 Y160.027 E2.31758 ; external perimeter
G1 X164.174 Y158.872 E2.32243 ; external perimeter
G1 X164.583 Y157.976 E2.32634 ; external perimeter
G1 X165.084 Y157.131 E2.33024 ; external perimeter
G1 X165.646 Y156.408 E2.33387 ; external perimeter
G1 X166.268 Y155.810 E2.33730 ; external perimeter
G1 X166.891 Y155.373 E2.34031 ; external perimeter
G1 X167.581 Y155.043 E2.34335 ; external perimeter
G1 X168.240 Y154.853 E2.34607 ; external perimeter
G1 X169.158 Y154.762 E2.34973 ; external perimeter
G1 X169.886 Y154.810 E2.35263 ; external perimeter
G1 X170.656 Y154.970 E2.35575 ; external perimeter
G1 X171.624 Y155.308 E2.35982 ; external perimeter
G1 X172.630 Y155.815 E2.36429 ; external perimeter
G1 X173.467 Y156.347 E2.36823 ; external perimeter
G1 X174.337 Y157.012 E2.37257 ; external perimeter
G1 X175.345 Y157.916 E2.37794 ; external perimeter
G1 X176.307 Y158.922 E2.38346 ; external perimeter
G1 X177.185 Y159.968 E2.38888 ; external perimeter
G1 X178.012 Y161.075 E2.39437 ; external perimeter
G1 X178.923 Y162.442 E2.40089 ; external perimeter
G1 X179.765 Y163.869 E2.40746 ; external perimeter
G1 X180.496 Y165.256 E2.41368 ; external perimeter
G1 X181.106 Y166.550 E2.41936 ; external perimeter
G1 X181.856 Y168.328 E2.42702 ; external perimeter
G1 X182.464 Y169.994 E2.43405 ; external perimeter
G1 X183.006 Y171.724 E2.44125 ; external perimeter
G1 X183.402 Y173.200 E2.44731 ; external perimeter
G1 X183.748 Y174.744 E2.45359 ; external perimeter
G1 X184.070 Y176.571 E2.46095 ; external perimeter
G1 X184.292 Y178.414 E2.46832 ; external perimeter
G1 X168.352 Y183.593 E2.53483 ; external perimeter
G1 X178.413 Y179.225 F1800.000 ; move to first infill point
G1 F1200.000
G1 X180.617 Y177.022 E2.55611 ; infill
G1 X176.786 Y178.266 E2.58363 ; infill
G1 X174.582 Y180.470 E2.60491 ; infill
G1 X170.751 Y181.715 E2.63243 ; infill
G1 X172.955 Y179.511 E2.65371 ; infill
G1 X169.607 Y180.599 E2.67776 ; infill
G1 X169.511 Y180.369 E2.67946 ; infill
G1 X167.971 Y181.909 E2.69433 ; infill
G1 X167.623 Y181.240 E2.69948 ; infill
G1 X167.127 Y180.167 E2.70756 ; infill
G1 X168.746 Y178.548 E2.72320 ; infill
G1 X167.992 Y176.716 E2.73673 ; infill
G1 X166.359 Y178.349 E2.75250 ; infill
G1 X165.680 Y176.441 E2.76633 ; infill
G1 X167.329 Y174.792 E2.78226 ; infill
G1 X167.010 Y173.764 E2.78962 ; infill
G1 X166.755 Y172.780 E2.79656 ; infill
G1 X165.089 Y174.446 E2.81265 ; infill
G1 X164.841 Y173.499 E2.81933 ; infill
G1 X164.593 Y172.355 E2.82733 ; infill
G1 X166.278 Y170.670 E2.84360 ; infill
G1 X165.973 Y168.826 E2.85637 ; infill
G1 X165.930 Y168.432 E2.85907 ; infill
