; generated by Slic3r 1.3.1-dev (Build (Unknown revision)) on 2022-09-17 at 14:55:48

; external perimeters extrusion width = 1.32mm (12.75mm^3/s)
; perimeters extrusion width = 1.26mm (12.03mm^3/s)
; infill extrusion width = 2.00mm (20.91mm^3/s)
; solid infill extrusion width = 2.00mm (41.82mm^3/s)
; top infill extrusion width = 1.26mm (18.04mm^3/s)

M107 ; disable fan
G92 E0 ; reset extrusion distance
M104 S200 ; set temperature
G28 ; home all axes
G1 Z5 F5000 ; lift nozzle

; Filament gcode

M109 S200 ; set temperature and wait for it to be reached
G21 ; set units to millimeters
G90 ; use absolute coordinates
M82 ; use absolute distances for extrusion
G92 E0 ; reset extrusion distance
G1 Z4.550 F1800.000 ; move to next layer (0)
G1 E-2.00000 F2400.00000 ; retract extruder 0
G92 E0 ; reset extrusion distance
G1 X186.069 Y237.827 F1800.000 ; move to first external perimeter point
G1 E2.00000 F2400.00000 ; unretract extruder 0
G1 F600.000
G1 X201.663 Y232.760 E2.03438 ; external perimeter
G1 X202.068 Y233.456 E2.03607 ; external perimeter
G1 X202.812 Y234.889 E2.03946 ; external perimeter
G1 X203.509 Y236.399 E2.04294 ; external perimeter
G1 X204.141 Y237.944 E2.04644 ; external perimeter
G1 X204.719 Y239.558 E2.05004 ; external perimeter
G1 X205.217 Y241.166 E2.05357 ; external perimeter
G1 X205.643 Y242.785 E2.05708 ; external perimeter
G1 X206.000 Y244.440 E2.06063 ; external perimeter
G1 X206.268 Y246.026 E2.06400 ; external perimeter
G1 X206.461 Y247.627 E2.06738 ; external perimeter
G1 X206.571 Y249.180 E2.07065 ; external perimeter
G1 X206.597 Y250.657 E2.07374 ; external perimeter
G1 X206.541 Y252.097 E2.07677 ; external perimeter
G1 X206.402 Y253.468 E2.07966 ; external perimeter
G1 X206.189 Y254.714 E2.08231 ; external perimeter
G1 X205.899 Y255.878 E2.08482 ; external perimeter
G1 X205.536 Y256.938 E2.08717 ; external perimeter
G1 X205.115 Y257.867 E2.08931 ; external perimeter
G1 X204.634 Y258.676 E2.09128 ; external perimeter
G1 X204.097 Y259.367 E2.09312 ; external perimeter
G1 X203.538 Y259.908 E2.09475 ; external perimeter
G1 X202.936 Y260.333 E2.09629 ; external perimeter
G1 X202.300 Y260.637 E2.09777 ; external perimeter
G1 X201.638 Y260.823 E2.09922 ; external perimeter
G1 X200.910 Y260.898 E2.10075 ; external perimeter
G1 X200.163 Y260.852 E2.10232 ; external perimeter
G1 X199.361 Y260.682 E2.10404 ; external perimeter
G1 X198.509 Y260.379 E2.10593 ; external perimeter
G1 X197.623 Y259.939 E2.10801 ; external perimeter
G1 X196.723 Y259.370 E2.11024 ; external perimeter
G1 X195.817 Y258.675 E2.11263 ; external perimeter
G1 X194.888 Y257.837 E2.11526 ; external perimeter
G1 X193.977 Y256.885 E2.11802 ; external perimeter
G1 X193.079 Y255.818 E2.12095 ; external perimeter
G1 X192.213 Y254.655 E2.12399 ; external perimeter
G1 X191.366 Y253.379 E2.12720 ; external perimeter
G1 X190.562 Y252.019 E2.13051 ; external perimeter
G1 X189.805 Y250.584 E2.13391 ; external perimeter
G1 X189.105 Y249.096 E2.13736 ; external perimeter
G1 X188.465 Y247.561 E2.14085 ; external perimeter
G1 X187.878 Y245.956 E2.14443 ; external perimeter
G1 X187.364 Y244.334 E2.14800 ; external perimeter
G1 X186.928 Y242.717 E2.15151 ; external perimeter
G1 X186.566 Y241.097 E2.15499 ; external perimeter
G1 X186.278 Y239.463 E2.15847 ; external perimeter
G1 X186.092 Y238.005 E2.16155 ; external perimeter
G1 E0.16155 F2400.00000 ; retract extruder 0
G92 E0 ; reset extrusion distance
G1 X188.929 Y238.416 F1800.000 ; move to first infill point
G1 E2.00000 F2400.00000 ; unretract extruder 0
G1 F600.000
G1 X187.432 Y239.913 E2.00454 ; infill
G1 X187.705 Y241.469 E2.00792 ; infill
G1 X187.879 Y242.248 E2.00964 ; infill
G1 X193.052 Y237.076 E2.02532 ; infill
G1 X197.174 Y235.737 E2.03461 ; infill
G1 X188.443 Y244.468 E2.06107 ; infill
G1 X188.952 Y246.083 E2.06470 ; infill
G1 X189.128 Y246.565 E2.06580 ; infill
G1 X201.296 Y234.398 E2.10269 ; infill
G1 X201.492 Y234.334 E2.10313 ; infill
G1 X201.831 Y234.987 E2.10471 ; infill
G1 X202.355 Y236.121 E2.10738 ; infill
G1 X189.909 Y248.567 E2.14511 ; infill
G1 X190.117 Y249.065 E2.14627 ; infill
G1 X190.781 Y250.478 E2.14961 ; infill
G1 X203.166 Y238.093 E2.18716 ; infill
G1 X203.642 Y239.420 E2.19018 ; infill
G1 X203.874 Y240.168 E2.19186 ; infill
G1 X191.762 Y252.280 E2.22858 ; infill
G1 X192.249 Y253.105 E2.23063 ; infill
G1 X192.836 Y253.989 E2.23290 ; infill
G1 X204.482 Y242.343 E2.26821 ; infill
G1 X204.858 Y244.054 E2.27196 ; infill
G1 X204.958 Y244.649 E2.27326 ; infill
G1 X194.021 Y255.586 E2.30641 ; infill
G1 X194.661 Y256.347 E2.30854 ; infill
G1 X195.337 Y257.053 E2.31064 ; infill
G1 X205.296 Y247.095 E2.34082 ; infill
G1 X205.396 Y248.516 E2.34388 ; infill
G1 X205.418 Y249.755 E2.34654 ; infill
G1 X196.826 Y258.346 E2.37258 ; infill
G1 X197.077 Y258.538 E2.37325 ; infill
G1 X197.819 Y259.008 E2.37514 ; infill
G1 X198.580 Y259.376 E2.37695 ; infill
G1 X205.190 Y252.766 E2.39699 ; infill
G1 X205.052 Y253.570 E2.39873 ; infill
G1 X204.800 Y254.584 E2.40097 ; infill
G1 X204.494 Y255.478 E2.40300 ; infill
G1 X204.154 Y256.227 E2.40476 ; infill
G1 X203.790 Y256.841 E2.40629 ; infill
G1 X203.410 Y257.329 E2.40762 ; infill
G1 X201.908 Y258.831 E2.41217 ; infill
G1 Z5.750 F1800.000 ; move to next layer (1)
G1 E0.41217 F2400.00000 ; retract extruder 0
G92 E0 ; reset extrusion distance
G1 X185.708 Y237.586 F1800.000 ; move to first external perimeter point
G1 E2.00000 F2400.00000 ; unretract extruder 0
G1 F600.000
G1 X201.820 Y232.351 E2.06723 ; external perimeter
G1 X202.364 Y233.288 E2.07152 ; external perimeter
G1 X203.119 Y234.744 E2.07803 ; external perimeter
G1 X203.821 Y236.262 E2.08467 ; external perimeter
G1 X204.444 Y237.786 E2.09120 ; external perimeter
G1 X205.052 Y239.483 E2.09836 ; external perimeter
G1 X205.543 Y241.068 E2.10494 ; external perimeter
G1 X205.967 Y242.678 E2.11155 ; external perimeter
G1 X206.349 Y244.460 E2.11878 ; external perimeter
G1 X206.606 Y245.987 E2.12492 ; external perimeter
G1 X206.800 Y247.591 E2.13134 ; external perimeter
G1 X206.910 Y249.157 E2.13756 ; external perimeter
G1 X206.937 Y250.616 E2.14336 ; external perimeter
G1 X206.880 Y252.120 E2.14933 ; external perimeter
G1 X206.726 Y253.594 E2.15521 ; external perimeter
G1 X206.522 Y254.783 E2.16000 ; external perimeter
G1 X206.225 Y255.974 E2.16487 ; external perimeter
G1 X205.842 Y257.089 E2.16954 ; external perimeter
G1 X205.417 Y258.024 E2.17362 ; external perimeter
G1 X204.917 Y258.866 E2.17751 ; external perimeter
G1 X204.309 Y259.637 E2.18140 ; external perimeter
G1 X203.756 Y260.170 E2.18445 ; external perimeter
G1 X203.108 Y260.627 E2.18760 ; external perimeter
G1 X202.420 Y260.956 E2.19062 ; external perimeter
G1 X201.733 Y261.151 E2.19346 ; external perimeter
G1 X200.885 Y261.238 E2.19684 ; external perimeter
G1 X200.114 Y261.190 E2.19991 ; external perimeter
G1 X199.298 Y261.018 E2.20322 ; external perimeter
G1 X198.376 Y260.692 E2.20710 ; external perimeter
G1 X197.422 Y260.216 E2.21133 ; external perimeter
G1 X196.533 Y259.652 E2.21550 ; external perimeter
G1 X195.624 Y258.957 E2.22005 ; external perimeter
G1 X194.655 Y258.084 E2.22522 ; external perimeter
G1 X193.712 Y257.099 E2.23063 ; external perimeter
G1 X192.815 Y256.032 E2.23616 ; external perimeter
G1 X191.956 Y254.880 E2.24187 ; external perimeter
G1 X191.078 Y253.559 E2.24816 ; external perimeter
G1 X190.253 Y252.163 E2.25459 ; external perimeter
G1 X189.504 Y250.744 E2.26096 ; external perimeter
G1 X188.838 Y249.330 E2.26717 ; external perimeter
G1 X188.144 Y247.672 E2.27430 ; external perimeter
G1 X187.548 Y246.043 E2.28118 ; external perimeter
G1 X187.021 Y244.369 E2.28814 ; external perimeter
G1 X186.596 Y242.792 E2.29462 ; external perimeter
G1 X186.240 Y241.200 E2.30110 ; external perimeter
G1 X185.937 Y239.481 E2.30803 ; external perimeter
G1 X185.724 Y237.766 E2.31488 ; external perimeter
G1 X201.523 Y234.716 F1800.000 ; move to first infill point
G1 F900.000
G1 X200.743 Y233.936 E2.31916 ; infill
G1 X199.635 Y234.296 E2.32367 ; infill
G1 X202.699 Y237.359 E2.34047 ; infill
G1 X203.267 Y238.741 E2.34626 ; infill
G1 X203.636 Y239.764 E2.35047 ; infill
G1 X198.528 Y234.656 E2.37847 ; infill
G1 X197.420 Y235.016 E2.38299 ; infill
G1 X204.336 Y241.932 E2.42090 ; infill
G1 X204.836 Y243.900 E2.42877 ; infill
G1 X196.312 Y235.376 E2.47549 ; infill
G1 X195.205 Y235.736 E2.48001 ; infill
G1 X205.200 Y245.731 E2.53479 ; infill
G1 X205.398 Y246.972 E2.53967 ; infill
G1 X205.451 Y247.449 E2.54153 ; infill
G1 X194.097 Y236.095 E2.60376 ; infill
G1 X192.989 Y236.455 E2.60827 ; infill
G1 X205.598 Y249.064 E2.67739 ; infill
G1 X205.646 Y249.846 E2.68042 ; infill
G1 X205.654 Y250.588 E2.68330 ; infill
G1 X191.882 Y236.815 E2.75879 ; infill
G1 X190.774 Y237.175 E2.76331 ; infill
G1 X205.625 Y252.026 E2.84471 ; infill
G1 X205.607 Y252.436 E2.84630 ; infill
G1 X205.513 Y253.382 E2.84998 ; infill
G1 X189.666 Y237.535 E2.93684 ; infill
G1 X188.558 Y237.895 E2.94136 ; infill
G1 X205.318 Y254.655 E3.03322 ; infill
G1 X205.031 Y255.835 E3.03793 ; infill
G1 X187.451 Y238.255 E3.13429 ; infill
G1 X187.010 Y238.398 E3.13609 ; infill
G1 X187.268 Y239.539 E3.14062 ; infill
G1 X204.654 Y256.926 E3.23592 ; infill
G1 X204.491 Y257.315 E3.23756 ; infill
G1 X204.181 Y257.921 E3.24020 ; infill
G1 X187.695 Y241.435 E3.33056 ; infill
G1 X187.821 Y241.998 E3.33280 ; infill
G1 X188.204 Y243.411 E3.33847 ; infill
G1 X203.576 Y258.784 E3.42273 ; infill
G1 X203.473 Y258.912 E3.42337 ; infill
G1 X203.150 Y259.229 E3.42513 ; infill
G1 X202.811 Y259.485 E3.42678 ; infill
G1 X188.899 Y245.574 E3.50303 ; infill
G1 X189.368 Y246.835 E3.50824 ; infill
G1 X189.861 Y248.003 E3.51315 ; infill
G1 X201.773 Y259.916 E3.57845 ; infill
G1 X201.331 Y259.968 E3.58018 ; infill
G1 X200.960 Y259.960 E3.58162 ; infill
G1 X200.598 Y259.911 E3.58304 ; infill
G1 X200.212 Y259.822 E3.58457 ; infill
G1 X191.288 Y250.898 E3.63348 ; infill
G1 X191.484 Y251.256 E3.63506 ; infill
G1 X192.223 Y252.479 E3.64060 ; infill
G1 X192.968 Y253.590 E3.64579 ; infill
G1 X193.705 Y254.577 E3.65056 ; infill
G1 X194.509 Y255.539 E3.65542 ; infill
G1 X195.232 Y256.309 E3.65951 ; infill
G1 X196.012 Y257.089 E3.66379 ; infill
G1 Z6.950 F1800.000 ; move to next layer (2)
G1 E1.66379 F2400.00000 ; retract extruder 0
G92 E0 ; reset extrusion distance
G1 X189.563 Y240.019 F1800.000 ; move to first external perimeter point
G1 E2.00000 F2400.00000 ; unretract extruder 0
G1 F600.000
G1 X200.142 Y236.581 E2.04414 ; external perimeter
G1 X201.167 Y239.026 E2.05466 ; external perimeter
G1 X201.711 Y240.539 E2.06104 ; external perimeter
G1 X202.194 Y242.101 E2.06752 ; external perimeter
G1 X202.602 Y243.672 E2.07397 ; external perimeter
G1 X202.933 Y245.249 E2.08036 ; external perimeter
G1 X203.185 Y246.826 E2.08670 ; external perimeter
G1 X203.338 Y248.215 E2.09224 ; external perimeter
G1 X203.418 Y249.522 E2.09744 ; external perimeter
G1 X203.431 Y250.771 E2.10240 ; external perimeter
G1 X203.381 Y251.930 E2.10700 ; external perimeter
G1 X203.278 Y252.962 E2.11111 ; external perimeter
G1 X203.119 Y253.935 E2.11503 ; external perimeter
G1 X202.923 Y254.777 E2.11846 ; external perimeter
G1 X202.699 Y255.498 E2.12145 ; external perimeter
G1 X202.458 Y256.101 E2.12403 ; external perimeter
G1 X202.208 Y256.595 E2.12623 ; external perimeter
G1 X201.960 Y256.985 E2.12806 ; external perimeter
G1 X201.709 Y257.297 E2.12965 ; external perimeter
G1 X201.403 Y257.573 E2.13129 ; external perimeter
G1 X201.027 Y257.742 E2.13292 ; external perimeter
G1 X200.503 Y257.708 E2.13501 ; external perimeter
G1 X200.106 Y257.606 E2.13663 ; external perimeter
G1 X199.638 Y257.421 E2.13863 ; external perimeter
G1 X199.104 Y257.143 E2.14102 ; external perimeter
G1 X198.503 Y256.755 E2.14386 ; external perimeter
G1 X197.927 Y256.315 E2.14673 ; external perimeter
G1 X197.578 Y256.018 E2.14855 ; external perimeter
G1 X196.919 Y255.395 E2.15215 ; external perimeter
G1 X196.256 Y254.687 E2.15600 ; external perimeter
G1 X195.564 Y253.860 E2.16028 ; external perimeter
G1 X194.850 Y252.905 E2.16501 ; external perimeter
G1 X194.143 Y251.851 E2.17005 ; external perimeter
G1 X193.437 Y250.676 E2.17548 ; external perimeter
G1 X192.752 Y249.402 E2.18123 ; external perimeter
G1 X192.087 Y248.013 E2.18734 ; external perimeter
G1 X191.477 Y246.573 E2.19354 ; external perimeter
G1 X190.925 Y245.086 E2.19984 ; external perimeter
G1 X190.425 Y243.530 E2.20632 ; external perimeter
G1 X189.999 Y241.956 E2.21279 ; external perimeter
G1 X189.602 Y240.194 E2.21996 ; external perimeter
G1 X185.708 Y237.586 F1800.000 ; move to first external perimeter point
G1 F600.000
G1 X201.820 Y232.351 E2.28719 ; external perimeter
G1 X202.364 Y233.288 E2.29148 ; external perimeter
G1 X203.119 Y234.744 E2.29799 ; external perimeter
G1 X203.821 Y236.262 E2.30463 ; external perimeter
G1 X204.422 Y237.730 E2.31092 ; external perimeter
G1 X205.093 Y239.609 E2.31884 ; external perimeter
G1 X205.543 Y241.068 E2.32490 ; external perimeter
G1 X205.956 Y242.634 E2.33133 ; external perimeter
G1 X206.372 Y244.592 E2.33927 ; external perimeter
G1 X206.606 Y245.986 E2.34488 ; external perimeter
G1 X206.800 Y247.591 E2.35130 ; external perimeter
G1 X206.910 Y249.157 E2.35753 ; external perimeter
G1 X206.937 Y250.547 E2.36304 ; external perimeter
G1 X206.880 Y252.119 E2.36929 ; external perimeter
G1 X206.706 Y253.718 E2.37567 ; external perimeter
G1 X206.522 Y254.783 E2.37996 ; external perimeter
G1 X206.226 Y255.973 E2.38482 ; external perimeter
G1 X205.826 Y257.128 E2.38967 ; external perimeter
G1 X205.417 Y258.024 E2.39358 ; external perimeter
G1 X204.916 Y258.869 E2.39748 ; external perimeter
G1 X204.354 Y259.592 E2.40111 ; external perimeter
G1 X203.732 Y260.190 E2.40453 ; external perimeter
G1 X203.109 Y260.627 E2.40755 ; external perimeter
G1 X202.419 Y260.957 E2.41059 ; external perimeter
G1 X201.760 Y261.147 E2.41331 ; external perimeter
G1 X201.606 Y261.174 E2.41393 ; external perimeter
G1 X200.842 Y261.238 E2.41698 ; external perimeter
G1 X200.114 Y261.190 E2.41987 ; external perimeter
G1 X199.344 Y261.030 E2.42299 ; external perimeter
G1 X198.376 Y260.692 E2.42706 ; external perimeter
G1 X197.370 Y260.185 E2.43153 ; external perimeter
G1 X196.533 Y259.653 E2.43547 ; external perimeter
G1 X195.663 Y258.988 E2.43981 ; external perimeter
G1 X194.655 Y258.084 E2.44519 ; external perimeter
G1 X193.693 Y257.078 E2.45071 ; external perimeter
G1 X192.815 Y256.032 E2.45613 ; external perimeter
G1 X191.988 Y254.925 E2.46161 ; external perimeter
G1 X191.077 Y253.558 E2.46813 ; external perimeter
G1 X190.235 Y252.131 E2.47470 ; external perimeter
G1 X189.504 Y250.744 E2.48093 ; external perimeter
G1 X188.894 Y249.450 E2.48660 ; external perimeter
G1 X188.144 Y247.672 E2.49426 ; external perimeter
G1 X187.536 Y246.006 E2.50130 ; external perimeter
G1 X186.994 Y244.276 E2.50849 ; external perimeter
G1 X186.598 Y242.800 E2.51456 ; external perimeter
G1 X186.252 Y241.256 E2.52083 ; external perimeter
G1 X185.930 Y239.429 E2.52820 ; external perimeter
G1 X185.724 Y237.766 E2.53485 ; external perimeter
G1 X187.756 Y238.019 F1800.000 ; move to first infill point
G1 F1200.000
G1 X186.688 Y239.087 E2.54516 ; infill
G1 X186.769 Y239.759 E2.54978 ; infill
G1 X187.044 Y241.318 E2.56059 ; infill
G1 X187.644 Y240.717 E2.56639 ; infill
G1 X187.398 Y239.623 E2.57405 ; infill
G1 X189.383 Y238.978 E2.58831 ; infill
G1 X191.587 Y236.775 E2.60959 ; infill
G1 X195.418 Y235.530 E2.63711 ; infill
G1 X193.214 Y237.734 E2.65839 ; infill
G1 X197.045 Y236.489 E2.68591 ; infill
G1 X199.249 Y234.285 E2.70719 ; infill
G1 X201.713 Y233.484 E2.72489 ; infill
G1 X202.029 Y234.092 E2.72957 ; infill
G1 X200.490 Y235.630 E2.74443 ; infill
G1 X201.254 Y237.453 E2.75792 ; infill
G1 X202.874 Y235.832 E2.77357 ; infill
G1 X203.082 Y236.282 E2.77696 ; infill
G1 X203.643 Y237.650 E2.78706 ; infill
G1 X202.008 Y239.284 E2.80284 ; infill
G1 X202.494 Y240.633 E2.81263 ; infill
G1 X202.671 Y241.208 E2.81674 ; infill
G1 X204.323 Y239.556 E2.83269 ; infill
G1 X204.743 Y240.916 E2.84241 ; infill
