; generated by Slic3r 1.3.1-dev (Build (Unknown revision)) on 2022-09-17 at 14:55:48

; external perimeters extrusion width = 1.32mm (12.75mm^3/s)
; perimeters extrusion width = 1.26mm (12.03mm^3/s)
; infill extrusion width = 2.00mm (20.91mm^3/s)
; solid infill extrusion width = 2.00mm (41.82mm^3/s)
; top infill extrusion width = 1.26mm (18.04mm^3/s)

M107 ; disable fan
G92 E0 ; reset extrusion distance
M104 S200 ; set temperature
G28 ; home all axes
G1 Z5 F5000 ; lift nozzle

; Filament gcode

M109 S200 ; set temperature and wait for it to be reached
G21 ; set units to millimeters
G90 ; use absolute coordinates
M82 ; use absolute distances for extrusion
G92 E0 ; reset extrusion distance
G1 Z4.550 F1800.000 ; move to next layer (0)
G1 E-2.00000 F2400.00000 ; retract extruder 0
G92 E0 ; reset extrusion distance
G1 X213.036 Y218.243 F1800.000 ; move to first external perimeter point
G1 E2.00000 F2400.00000 ; unretract extruder 0
G1 F600.000
G1 X213.772 Y218.568 E2.00169 ; external perimeter
G1 X215.216 Y219.290 E2.00507 ; external perimeter
G1 X216.669 Y220.102 E2.00856 ; external perimeter
G1 X218.088 Y220.981 E2.01206 ; external perimeter
G1 X219.504 Y221.947 E2.01566 ; external perimeter
G1 X220.852 Y222.954 E2.01919 ; external perimeter
G1 X222.149 Y224.014 E2.02270 ; external perimeter
G1 X223.410 Y225.143 E2.02625 ; external perimeter
G1 X224.559 Y226.269 E2.02962 ; external perimeter
G1 X225.657 Y227.451 E2.03300 ; external perimeter
G1 X226.658 Y228.643 E2.03627 ; external perimeter
G1 X227.547 Y229.822 E2.03936 ; external perimeter
G1 X228.348 Y231.020 E2.04238 ; external perimeter
G1 X229.041 Y232.211 E2.04527 ; external perimeter
G1 X229.602 Y233.344 E2.04792 ; external perimeter
G1 X230.051 Y234.456 E2.05044 ; external perimeter
G1 X230.381 Y235.527 E2.05279 ; external perimeter
G1 X230.586 Y236.527 E2.05493 ; external perimeter
G1 X230.673 Y237.463 E2.05690 ; external perimeter
G1 X230.644 Y238.338 E2.05874 ; external perimeter
G1 X230.510 Y239.104 E2.06037 ; external perimeter
G1 X230.272 Y239.802 E2.06191 ; external perimeter
G1 X229.937 Y240.422 E2.06339 ; external perimeter
G1 X229.510 Y240.962 E2.06483 ; external perimeter
G1 X228.966 Y241.449 E2.06637 ; external perimeter
G1 X228.335 Y241.852 E2.06794 ; external perimeter
G1 X227.586 Y242.186 E2.06965 ; external perimeter
G1 X226.718 Y242.441 E2.07155 ; external perimeter
G1 X225.743 Y242.606 E2.07363 ; external perimeter
G1 X224.680 Y242.675 E2.07586 ; external perimeter
G1 X223.539 Y242.645 E2.07825 ; external perimeter
G1 X222.295 Y242.513 E2.08088 ; external perimeter
G1 X220.998 Y242.279 E2.08364 ; external perimeter
G1 X219.645 Y241.943 E2.08656 ; external perimeter
G1 X218.260 Y241.511 E2.08960 ; external perimeter
G1 X216.825 Y240.976 E2.09282 ; external perimeter
G1 X215.375 Y240.349 E2.09613 ; external perimeter
G1 X213.919 Y239.633 E2.09953 ; external perimeter
G1 X212.479 Y238.841 E2.10298 ; external perimeter
G1 X211.058 Y237.975 E2.10647 ; external perimeter
G1 X209.640 Y237.022 E2.11005 ; external perimeter
G1 X208.270 Y236.011 E2.11362 ; external perimeter
G1 X206.967 Y234.960 E2.11713 ; external perimeter
G1 X205.722 Y233.862 E2.12061 ; external perimeter
G1 X204.529 Y232.709 E2.12409 ; external perimeter
G1 X203.398 Y231.508 E2.12755 ; external perimeter
G1 X212.930 Y218.388 E2.16155 ; external perimeter
G1 E0.16155 F2400.00000 ; retract extruder 0
G92 E0 ; reset extrusion distance
G1 X214.406 Y219.914 F1800.000 ; move to first infill point
G1 E2.00000 F2400.00000 ; unretract extruder 0
G1 F600.000
G1 X212.908 Y221.412 E2.00454 ; infill
G1 X205.508 Y231.597 E2.03155 ; infill
G1 X216.217 Y220.888 E2.06404 ; infill
G1 X217.940 Y221.951 E2.06838 ; infill
G1 X206.500 Y233.390 E2.10309 ; infill
G1 X207.460 Y234.237 E2.10584 ; infill
G1 X208.001 Y234.674 E2.10733 ; infill
G1 X219.578 Y223.097 E2.14245 ; infill
G1 X220.415 Y223.722 E2.14469 ; infill
G1 X221.143 Y224.318 E2.14671 ; infill
G1 X209.577 Y235.884 E2.18180 ; infill
G1 X210.000 Y236.196 E2.18293 ; infill
G1 X211.226 Y237.020 E2.18610 ; infill
G1 X222.633 Y225.612 E2.22070 ; infill
G1 X224.043 Y226.987 E2.22493 ; infill
G1 X212.961 Y238.070 E2.25855 ; infill
G1 X214.059 Y238.674 E2.26124 ; infill
G1 X214.785 Y239.031 E2.26298 ; infill
G1 X225.362 Y228.453 E2.29507 ; infill
G1 X225.900 Y229.093 E2.29686 ; infill
G1 X226.591 Y230.010 E2.29932 ; infill
G1 X216.702 Y239.898 E2.32932 ; infill
G1 X218.135 Y240.438 E2.33261 ; infill
G1 X218.755 Y240.631 E2.33400 ; infill
G1 X227.696 Y231.690 E2.36113 ; infill
G1 X228.093 Y232.374 E2.36282 ; infill
G1 X228.649 Y233.522 E2.36556 ; infill
G1 X220.970 Y241.201 E2.38886 ; infill
G1 X221.820 Y241.355 E2.39071 ; infill
G1 X222.918 Y241.472 E2.39308 ; infill
G1 X223.470 Y241.486 E2.39426 ; infill
G1 X229.337 Y235.619 E2.41206 ; infill
G1 X229.428 Y236.062 E2.41303 ; infill
G1 X229.494 Y236.772 E2.41456 ; infill
G1 X229.473 Y237.391 E2.41589 ; infill
G1 X229.388 Y237.877 E2.41695 ; infill
G1 X229.251 Y238.280 E2.41786 ; infill
G1 X229.072 Y238.611 E2.41867 ; infill
G1 X228.852 Y238.889 E2.41943 ; infill
G1 X227.353 Y240.388 E2.42398 ; infill
G1 Z5.750 F1800.000 ; move to next layer (1)
G1 E0.42398 F2400.00000 ; retract extruder 0
G92 E0 ; reset extrusion distance
G1 X212.922 Y217.821 F1800.000 ; move to first external perimeter point
G1 E2.00000 F2400.00000 ; unretract extruder 0
G1 F600.000
G1 X213.913 Y218.258 E2.00430 ; external perimeter
G1 X215.380 Y218.992 E2.01081 ; external perimeter
G1 X216.840 Y219.808 E2.01744 ; external perimeter
G1 X218.240 Y220.675 E2.02398 ; external perimeter
G1 X219.730 Y221.690 E2.03113 ; external perimeter
G1 X221.059 Y222.684 E2.03772 ; external perimeter
G1 X222.347 Y223.737 E2.04432 ; external perimeter
G1 X223.704 Y224.955 E2.05155 ; external perimeter
G1 X224.809 Y226.038 E2.05770 ; external perimeter
G1 X225.909 Y227.223 E2.06411 ; external perimeter
G1 X226.919 Y228.424 E2.07034 ; external perimeter
G1 X227.798 Y229.589 E2.07613 ; external perimeter
G1 X228.636 Y230.839 E2.08210 ; external perimeter
G1 X229.378 Y232.122 E2.08798 ; external perimeter
G1 X229.912 Y233.204 E2.09277 ; external perimeter
G1 X230.372 Y234.342 E2.09764 ; external perimeter
G1 X230.717 Y235.469 E2.10232 ; external perimeter
G1 X230.923 Y236.476 E2.10640 ; external perimeter
G1 X231.013 Y237.451 E2.11028 ; external perimeter
G1 X230.974 Y238.432 E2.11418 ; external perimeter
G1 X230.841 Y239.188 E2.11723 ; external perimeter
G1 X230.585 Y239.939 E2.12037 ; external perimeter
G1 X230.222 Y240.610 E2.12340 ; external perimeter
G1 X229.781 Y241.171 E2.12623 ; external perimeter
G1 X229.146 Y241.740 E2.12961 ; external perimeter
G1 X228.493 Y242.154 E2.13268 ; external perimeter
G1 X227.732 Y242.495 E2.13599 ; external perimeter
G1 X226.795 Y242.773 E2.13987 ; external perimeter
G1 X225.743 Y242.948 E2.14410 ; external perimeter
G1 X224.692 Y243.015 E2.14828 ; external perimeter
G1 X223.549 Y242.987 E2.15282 ; external perimeter
G1 X222.251 Y242.850 E2.15800 ; external perimeter
G1 X220.909 Y242.608 E2.16341 ; external perimeter
G1 X219.557 Y242.272 E2.16894 ; external perimeter
G1 X218.184 Y241.845 E2.17464 ; external perimeter
G1 X216.698 Y241.292 E2.18094 ; external perimeter
G1 X215.210 Y240.647 E2.18737 ; external perimeter
G1 X213.770 Y239.939 E2.19374 ; external perimeter
G1 X212.400 Y239.186 E2.19994 ; external perimeter
G1 X210.864 Y238.254 E2.20707 ; external perimeter
G1 X209.424 Y237.285 E2.21396 ; external perimeter
G1 X208.014 Y236.242 E2.22092 ; external perimeter
G1 X206.743 Y235.216 E2.22740 ; external perimeter
G1 X205.519 Y234.137 E2.23387 ; external perimeter
G1 X204.264 Y232.924 E2.24080 ; external perimeter
G1 X202.965 Y231.526 E2.24837 ; external perimeter
G1 X212.817 Y217.966 E2.31488 ; external perimeter
G1 X224.216 Y227.809 F1800.000 ; move to first infill point
G1 F900.000
G1 X222.262 Y225.860 E2.32530 ; infill
G1 X221.036 Y224.751 E2.33154 ; infill
G1 X219.733 Y223.678 E2.33792 ; infill
G1 X218.286 Y222.594 E2.34474 ; infill
G1 X216.915 Y221.663 E2.35100 ; infill
G1 X216.200 Y221.222 E2.35417 ; infill
G1 X228.321 Y233.343 E2.41888 ; infill
G1 X228.721 Y234.139 E2.42224 ; infill
G1 X229.084 Y234.997 E2.42576 ; infill
G1 X229.367 Y235.818 E2.42904 ; infill
G1 X213.071 Y219.523 E2.51603 ; infill
G1 X212.470 Y220.351 E2.51990 ; infill
G1 X229.719 Y237.600 E2.61198 ; infill
G1 X229.747 Y238.050 E2.61368 ; infill
G1 X229.717 Y238.640 E2.61592 ; infill
G1 X229.662 Y238.972 E2.61719 ; infill
G1 X211.868 Y221.179 E2.71218 ; infill
G1 X211.267 Y222.007 E2.71604 ; infill
G1 X229.273 Y240.013 E2.81217 ; infill
G1 X229.071 Y240.301 E2.81350 ; infill
G1 X228.852 Y240.539 E2.81472 ; infill
G1 X228.593 Y240.762 E2.81601 ; infill
G1 X210.665 Y222.835 E2.91172 ; infill
G1 X210.064 Y223.662 E2.91558 ; infill
G1 X227.672 Y241.271 E3.00959 ; infill
G1 X227.362 Y241.391 E3.01085 ; infill
G1 X226.588 Y241.588 E3.01386 ; infill
G1 X226.564 Y241.592 E3.01395 ; infill
G1 X209.462 Y224.490 E3.10525 ; infill
G1 X208.861 Y225.318 E3.10911 ; infill
G1 X225.271 Y241.728 E3.19672 ; infill
G1 X224.917 Y241.741 E3.19806 ; infill
G1 X223.809 Y241.696 E3.20224 ; infill
G1 X208.259 Y226.146 E3.28526 ; infill
G1 X207.658 Y226.974 E3.28912 ; infill
G1 X222.147 Y241.463 E3.36647 ; infill
G1 X221.484 Y241.333 E3.36903 ; infill
G1 X220.277 Y241.022 E3.37373 ; infill
G1 X207.056 Y227.802 E3.44431 ; infill
G1 X206.455 Y228.630 E3.44817 ; infill
G1 X218.118 Y240.293 E3.51044 ; infill
G1 X216.543 Y239.638 E3.51688 ; infill
G1 X215.561 Y239.165 E3.52099 ; infill
G1 X205.853 Y229.458 E3.57282 ; infill
G1 X205.252 Y230.286 E3.57668 ; infill
G1 X212.304 Y237.338 E3.61433 ; infill
G1 X210.924 Y236.420 E3.62059 ; infill
G1 X209.595 Y235.448 E3.62680 ; infill
G1 X208.264 Y234.379 E3.63325 ; infill
G1 X205.431 Y231.895 E3.64747 ; infill
G1 X204.650 Y231.114 E3.65164 ; infill
G1 Z6.950 F1800.000 ; move to next layer (2)
G1 X214.051 Y222.229 F1800.000 ; move to first external perimeter point
G1 F600.000
G1 X216.318 Y223.604 E3.66216 ; external perimeter
G1 X217.647 Y224.508 E3.66854 ; external perimeter
G1 X218.956 Y225.488 E3.67503 ; external perimeter
G1 X220.209 Y226.519 E3.68147 ; external perimeter
G1 X221.404 Y227.600 E3.68786 ; external perimeter
G1 X222.535 Y228.728 E3.69420 ; external perimeter
G1 X223.475 Y229.762 E3.69974 ; external perimeter
G1 X224.308 Y230.773 E3.70494 ; external perimeter
G1 X225.053 Y231.775 E3.70990 ; external perimeter
G1 X225.694 Y232.743 E3.71450 ; external perimeter
G1 X226.217 Y233.638 E3.71861 ; external perimeter
G1 X226.661 Y234.518 E3.72253 ; external perimeter
G1 X226.997 Y235.315 E3.72596 ; external perimeter
G1 X227.239 Y236.030 E3.72895 ; external perimeter
G1 X227.398 Y236.659 E3.73153 ; external perimeter
G1 X227.486 Y237.206 E3.73373 ; external perimeter
G1 X227.515 Y237.668 E3.73556 ; external perimeter
G1 X227.495 Y238.067 E3.73715 ; external perimeter
G1 X227.410 Y238.471 E3.73879 ; external perimeter
G1 X227.205 Y238.828 E3.74042 ; external perimeter
G1 X226.761 Y239.109 E3.74251 ; external perimeter
G1 X226.380 Y239.259 E3.74413 ; external perimeter
G1 X225.893 Y239.385 E3.74613 ; external perimeter
G1 X225.298 Y239.474 E3.74852 ; external perimeter
G1 X224.583 Y239.513 E3.75136 ; external perimeter
G1 X223.859 Y239.496 E3.75423 ; external perimeter
G1 X223.401 Y239.461 E3.75605 ; external perimeter
G1 X222.502 Y239.344 E3.75965 ; external perimeter
G1 X221.550 Y239.161 E3.76350 ; external perimeter
G1 X220.504 Y238.898 E3.76778 ; external perimeter
G1 X219.365 Y238.545 E3.77251 ; external perimeter
G1 X218.174 Y238.108 E3.77755 ; external perimeter
G1 X216.912 Y237.573 E3.78298 ; external perimeter
G1 X215.609 Y236.945 E3.78873 ; external perimeter
G1 X214.254 Y236.212 E3.79484 ; external perimeter
G1 X212.914 Y235.405 E3.80104 ; external perimeter
G1 X211.594 Y234.527 E3.80734 ; external perimeter
G1 X210.275 Y233.562 E3.81382 ; external perimeter
G1 X209.004 Y232.539 E3.82030 ; external perimeter
G1 X207.513 Y231.228 E3.82817 ; external perimeter
G1 X213.945 Y222.375 E3.87160 ; external perimeter
G1 X212.923 Y217.820 F1800.000 ; move to first external perimeter point
G1 F600.000
G1 X213.913 Y218.258 E3.87589 ; external perimeter
G1 X215.380 Y218.992 E3.88241 ; external perimeter
G1 X216.840 Y219.808 E3.88904 ; external perimeter
G1 X218.189 Y220.642 E3.89533 ; external perimeter
G1 X219.837 Y221.769 E3.90325 ; external perimeter
G1 X221.058 Y222.684 E3.90931 ; external perimeter
G1 X222.313 Y223.708 E3.91574 ; external perimeter
G1 X223.800 Y225.048 E3.92368 ; external perimeter
G1 X224.809 Y226.038 E3.92929 ; external perimeter
G1 X225.909 Y227.223 E3.93571 ; external perimeter
G1 X226.919 Y228.425 E3.94194 ; external perimeter
G1 X227.758 Y229.533 E3.94745 ; external perimeter
G1 X228.636 Y230.839 E3.95370 ; external perimeter
G1 X229.435 Y232.234 E3.96008 ; external perimeter
G1 X229.912 Y233.204 E3.96437 ; external perimeter
G1 X230.371 Y234.341 E3.96923 ; external perimeter
G1 X230.727 Y235.510 E3.97408 ; external perimeter
G1 X230.923 Y236.476 E3.97799 ; external perimeter
G1 X231.014 Y237.454 E3.98189 ; external perimeter
G1 X230.985 Y238.369 E3.98552 ; external perimeter
G1 X230.833 Y239.218 E3.98894 ; external perimeter
G1 X230.585 Y239.938 E3.99196 ; external perimeter
G1 X230.222 Y240.611 E3.99500 ; external perimeter
G1 X229.799 Y241.152 E3.99772 ; external perimeter
G1 X229.111 Y241.765 E4.00138 ; external perimeter
G1 X228.493 Y242.154 E4.00428 ; external perimeter
G1 X227.776 Y242.477 E4.00740 ; external perimeter
G1 X226.795 Y242.773 E4.01147 ; external perimeter
G1 X225.683 Y242.954 E4.01594 ; external perimeter
G1 X224.693 Y243.015 E4.01987 ; external perimeter
G1 X223.598 Y242.990 E4.02422 ; external perimeter
G1 X222.251 Y242.850 E4.02959 ; external perimeter
G1 X220.882 Y242.602 E4.03511 ; external perimeter
G1 X219.557 Y242.272 E4.04053 ; external perimeter
G1 X218.237 Y241.862 E4.04602 ; external perimeter
G1 X216.697 Y241.291 E4.05254 ; external perimeter
G1 X215.177 Y240.632 E4.05911 ; external perimeter
G1 X213.770 Y239.939 E4.06533 ; external perimeter
G1 X212.516 Y239.251 E4.07101 ; external perimeter
G1 X210.863 Y238.254 E4.07867 ; external perimeter
G1 X209.393 Y237.263 E4.08570 ; external perimeter
G1 X207.938 Y236.182 E4.09290 ; external perimeter
G1 X206.749 Y235.221 E4.09896 ; external perimeter
G1 X205.562 Y234.176 E4.10524 ; external perimeter
G1 X204.227 Y232.886 E4.11260 ; external perimeter
G1 X202.965 Y231.526 E4.11997 ; external perimeter
G1 X212.817 Y217.965 E4.18648 ; external perimeter
G1 X213.918 Y219.012 F1800.000 ; move to first infill point
G1 F1200.000
G1 X212.850 Y220.080 E4.19675 ; infill
G1 X206.008 Y229.497 E4.27592 ; infill
G1 X209.306 Y226.199 E4.30763 ; infill
G1 X213.146 Y220.914 E4.35206 ; infill
G1 X214.045 Y221.460 E4.35921 ; infill
G1 X215.621 Y219.884 E4.37437 ; infill
G1 X216.669 Y220.470 E4.38254 ; infill
G1 X217.251 Y220.829 E4.38719 ; infill
G1 X215.648 Y222.432 E4.40260 ; infill
G1 X216.534 Y222.970 E4.40966 ; infill
G1 X217.219 Y223.436 E4.41529 ; infill
G1 X218.808 Y221.847 E4.43057 ; infill
G1 X219.563 Y222.363 E4.43679 ; infill
G1 X220.308 Y222.922 E4.44312 ; infill
G1 X218.719 Y224.511 E4.45841 ; infill
G1 X219.279 Y224.930 E4.46316 ; infill
G1 X220.155 Y225.651 E4.47088 ; infill
G1 X221.742 Y224.063 E4.48614 ; infill
G1 X223.106 Y225.275 E4.49855 ; infill
G1 X221.525 Y226.855 E4.51375 ; infill
G1 X221.826 Y227.128 E4.51651 ; infill
G1 X222.828 Y228.127 E4.52614 ; infill
G1 X224.413 Y226.542 E4.54138 ; infill
G1 X225.403 Y227.608 E4.55127 ; infill
G1 X225.640 Y227.891 E4.55378 ; infill
G1 X224.060 Y229.471 E4.56898 ; infill
G1 X224.867 Y230.451 E4.57762 ; infill
G1 X225.203 Y230.903 E4.58145 ; infill
G1 X226.791 Y229.316 E4.59672 ; infill
G1 X227.162 Y229.806 E4.60090 ; infill
G1 X227.851 Y230.830 E4.60929 ; infill
G1 X226.259 Y232.423 E4.62461 ; infill
G1 X226.902 Y233.509 E4.63319 ; infill
G1 X227.186 Y234.071 E4.63747 ; infill
G1 X228.796 Y232.460 E4.65296 ; infill
G1 X229.178 Y233.237 E4.65885 ; infill
