; generated by Slic3r 1.3.1-dev (Build (Unknown revision)) on 2022-09-17 at 14:55:48

; external perimeters extrusion width = 1.32mm (12.75mm^3/s)
; perimeters extrusion width = 1.26mm (12.03mm^3/s)
; infill extrusion width = 2.00mm (20.91mm^3/s)
; solid infill extrusion width = 2.00mm (41.82mm^3/s)
; top infill extrusion width = 1.26mm (18.04mm^3/s)

M107 ; disable fan
G92 E0 ; reset extrusion distance
M104 S200 ; set temperature
G28 ; home all axes
G1 Z5 F5000 ; lift nozzle

; Filament gcode

M109 S200 ; set temperature and wait for it to be reached
G21 ; set units to millimeters
G90 ; use absolute coordinates
M82 ; use absolute distances for extrusion
G92 E0 ; reset extrusion distance
G1 Z4.550 F1800.000 ; move to next layer (0)
G1 E-2.00000 F2400.00000 ; retract extruder 0
G92 E0 ; reset extrusion distance
G1 X213.701 Y199.807 F1800.000 ; move to first external perimeter point
G1 E2.00000 F2400.00000 ; unretract extruder 0
G1 F600.000
G1 X214.488 Y199.637 E2.00169 ; external perimeter
G1 X216.081 Y199.373 E2.00507 ; external perimeter
G1 X217.733 Y199.176 E2.00856 ; external perimeter
G1 X219.414 Y199.052 E2.01210 ; external perimeter
G1 X221.097 Y199.001 E2.01563 ; external perimeter
G1 X222.778 Y199.024 E2.01915 ; external perimeter
G1 X224.466 Y199.120 E2.02270 ; external perimeter
G1 X226.150 Y199.292 E2.02625 ; external perimeter
G1 X227.742 Y199.527 E2.02962 ; external perimeter
G1 X229.305 Y199.834 E2.03296 ; external perimeter
G1 X230.834 Y200.214 E2.03627 ; external perimeter
G1 X232.263 Y200.651 E2.03940 ; external perimeter
G1 X233.600 Y201.143 E2.04238 ; external perimeter
G1 X234.844 Y201.691 E2.04524 ; external perimeter
G1 X235.985 Y202.290 E2.04794 ; external perimeter
G1 X236.997 Y202.922 E2.05044 ; external perimeter
G1 X237.888 Y203.591 E2.05278 ; external perimeter
G1 X238.652 Y204.288 E2.05494 ; external perimeter
G1 X239.268 Y204.990 E2.05690 ; external perimeter
G1 X239.752 Y205.703 E2.05871 ; external perimeter
G1 X240.100 Y206.413 E2.06037 ; external perimeter
G1 X240.320 Y207.128 E2.06194 ; external perimeter
G1 X240.411 Y207.815 E2.06339 ; external perimeter
G1 X240.383 Y208.504 E2.06483 ; external perimeter
G1 X240.232 Y209.212 E2.06635 ; external perimeter
G1 X239.956 Y209.915 E2.06794 ; external perimeter
G1 X239.546 Y210.625 E2.06966 ; external perimeter
G1 X238.994 Y211.342 E2.07155 ; external perimeter
G1 X238.308 Y212.043 E2.07361 ; external perimeter
G1 X237.483 Y212.728 E2.07586 ; external perimeter
G1 X236.531 Y213.382 E2.07828 ; external perimeter
G1 X235.458 Y213.999 E2.08088 ; external perimeter
G1 X234.283 Y214.567 E2.08361 ; external perimeter
G1 X232.979 Y215.096 E2.08656 ; external perimeter
G1 X231.590 Y215.565 E2.08964 ; external perimeter
G1 X230.130 Y215.971 E2.09282 ; external perimeter
G1 X228.587 Y216.316 E2.09613 ; external perimeter
G1 X226.989 Y216.593 E2.09953 ; external perimeter
G1 X225.358 Y216.798 E2.10298 ; external perimeter
G1 X223.700 Y216.932 E2.10647 ; external perimeter
G1 X221.992 Y216.995 E2.11005 ; external perimeter
G1 X220.304 Y216.984 E2.11359 ; external perimeter
G1 X218.618 Y216.898 E2.11713 ; external perimeter
G1 X216.949 Y216.740 E2.12064 ; external perimeter
G1 X215.323 Y216.510 E2.12409 ; external perimeter
G1 X213.701 Y216.204 E2.12755 ; external perimeter
G1 X213.701 Y199.987 E2.16155 ; external perimeter
G1 E0.16155 F2400.00000 ; retract extruder 0
G92 E0 ; reset extrusion distance
G1 X214.878 Y202.148 F1800.000 ; move to first infill point
G1 E2.00000 F2400.00000 ; unretract extruder 0
G1 F600.000
G1 X216.375 Y200.651 E2.00454 ; infill
G1 X217.101 Y200.530 E2.00611 ; infill
G1 X218.667 Y200.344 E2.00949 ; infill
G1 X219.528 Y200.280 E2.01134 ; infill
G1 X214.878 Y204.930 E2.02543 ; infill
G1 X214.878 Y207.712 E2.03140 ; infill
G1 X222.405 Y200.185 E2.05421 ; infill
G1 X223.459 Y200.199 E2.05647 ; infill
G1 X225.079 Y200.292 E2.05994 ; infill
G1 X214.878 Y210.494 E2.09086 ; infill
G1 X214.878 Y213.276 E2.09682 ; infill
G1 X227.566 Y200.588 E2.13527 ; infill
G1 X228.164 Y200.676 E2.13657 ; infill
G1 X229.904 Y201.032 E2.14038 ; infill
G1 X215.491 Y215.444 E2.18405 ; infill
G1 X216.426 Y215.576 E2.18608 ; infill
G1 X217.992 Y215.725 E2.18945 ; infill
G1 X232.086 Y201.632 E2.23216 ; infill
G1 X232.397 Y201.727 E2.23285 ; infill
G1 X233.627 Y202.180 E2.23566 ; infill
G1 X234.108 Y202.392 E2.23679 ; infill
G1 X220.685 Y215.815 E2.27747 ; infill
G1 X221.215 Y215.819 E2.27860 ; infill
G1 X222.838 Y215.759 E2.28208 ; infill
G1 X223.583 Y215.699 E2.28369 ; infill
G1 X235.956 Y203.325 E2.32118 ; infill
G1 X236.656 Y203.763 E2.32295 ; infill
G1 X237.407 Y204.326 E2.32496 ; infill
G1 X237.580 Y204.484 E2.32547 ; infill
G1 X226.767 Y215.297 E2.35823 ; infill
G1 X227.464 Y215.176 E2.35975 ; infill
G1 X228.913 Y214.852 E2.36293 ; infill
G1 X230.421 Y214.424 E2.36629 ; infill
G1 X238.862 Y205.984 E2.39187 ; infill
G1 X239.053 Y206.375 E2.39280 ; infill
G1 X239.181 Y206.792 E2.39374 ; infill
G1 X239.230 Y207.155 E2.39452 ; infill
G1 X239.215 Y207.513 E2.39529 ; infill
G1 X239.131 Y207.906 E2.39615 ; infill
G1 X238.965 Y208.329 E2.39713 ; infill
G1 X238.691 Y208.804 E2.39830 ; infill
G1 X238.287 Y209.329 E2.39972 ; infill
G1 X236.253 Y211.375 E2.40590 ; infill
G1 Z5.750 F1800.000 ; move to next layer (1)
G1 E0.40590 F2400.00000 ; retract extruder 0
G92 E0 ; reset extrusion distance
G1 X213.361 Y199.532 F1800.000 ; move to first external perimeter point
G1 E2.00000 F2400.00000 ; unretract extruder 0
G1 F600.000
G1 X214.420 Y199.304 E2.00430 ; external perimeter
G1 X216.008 Y199.040 E2.01069 ; external perimeter
G1 X217.699 Y198.837 E2.01744 ; external perimeter
G1 X219.430 Y198.711 E2.02433 ; external perimeter
G1 X221.094 Y198.661 E2.03094 ; external perimeter
G1 X222.732 Y198.683 E2.03744 ; external perimeter
G1 X224.561 Y198.787 E2.04471 ; external perimeter
G1 X226.173 Y198.951 E2.05114 ; external perimeter
G1 X227.760 Y199.185 E2.05750 ; external perimeter
G1 X229.394 Y199.505 E2.06411 ; external perimeter
G1 X231.013 Y199.912 E2.07073 ; external perimeter
G1 X232.365 Y200.326 E2.07635 ; external perimeter
G1 X233.727 Y200.828 E2.08211 ; external perimeter
G1 X234.991 Y201.385 E2.08759 ; external perimeter
G1 X236.179 Y202.009 E2.09291 ; external perimeter
G1 X237.189 Y202.642 E2.09764 ; external perimeter
G1 X238.105 Y203.328 E2.10218 ; external perimeter
G1 X238.917 Y204.074 E2.10656 ; external perimeter
G1 X239.537 Y204.781 E2.11029 ; external perimeter
G1 X240.047 Y205.532 E2.11389 ; external perimeter
G1 X240.416 Y206.285 E2.11722 ; external perimeter
G1 X240.661 Y207.103 E2.12061 ; external perimeter
G1 X240.752 Y207.799 E2.12339 ; external perimeter
G1 X240.725 Y208.515 E2.12624 ; external perimeter
G1 X240.558 Y209.310 E2.12946 ; external perimeter
G1 X240.249 Y210.090 E2.13279 ; external perimeter
G1 X239.826 Y210.820 E2.13614 ; external perimeter
G1 X239.289 Y211.520 E2.13964 ; external perimeter
G1 X238.538 Y212.294 E2.14392 ; external perimeter
G1 X237.692 Y212.997 E2.14828 ; external perimeter
G1 X236.718 Y213.667 E2.15298 ; external perimeter
G1 X235.597 Y214.310 E2.15810 ; external perimeter
G1 X234.412 Y214.882 E2.16332 ; external perimeter
G1 X233.161 Y215.391 E2.16868 ; external perimeter
G1 X231.739 Y215.875 E2.17464 ; external perimeter
G1 X230.212 Y216.301 E2.18094 ; external perimeter
G1 X228.630 Y216.654 E2.18737 ; external perimeter
G1 X226.999 Y216.935 E2.19393 ; external perimeter
G1 X225.393 Y217.137 E2.20036 ; external perimeter
G1 X223.775 Y217.268 E2.20680 ; external perimeter
G1 X222.002 Y217.335 E2.21384 ; external perimeter
G1 X220.309 Y217.324 E2.22056 ; external perimeter
G1 X218.587 Y217.237 E2.22740 ; external perimeter
G1 X216.875 Y217.073 E2.23422 ; external perimeter
G1 X215.234 Y216.840 E2.24080 ; external perimeter
G1 X213.361 Y216.473 E2.24837 ; external perimeter
G1 X213.361 Y199.712 E2.31488 ; external perimeter
G1 X215.417 Y215.625 F1800.000 ; move to first infill point
G1 F900.000
G1 X214.637 Y214.845 E2.31902 ; infill
G1 X214.637 Y213.423 E2.32436 ; infill
G1 X216.983 Y215.770 E2.33681 ; infill
G1 X218.550 Y215.915 E2.34272 ; infill
G1 X214.637 Y212.002 E2.36349 ; infill
G1 X214.637 Y210.581 E2.36882 ; infill
G1 X220.071 Y216.015 E2.39767 ; infill
G1 X220.789 Y216.050 E2.40037 ; infill
G1 X221.532 Y216.054 E2.40316 ; infill
G1 X214.637 Y209.159 E2.43976 ; infill
G1 X214.637 Y207.738 E2.44510 ; infill
G1 X222.940 Y216.041 E2.48917 ; infill
G1 X224.301 Y215.980 E2.49429 ; infill
G1 X214.637 Y206.317 E2.54559 ; infill
G1 X214.637 Y204.895 E2.55092 ; infill
G1 X225.609 Y215.867 E2.60917 ; infill
G1 X226.872 Y215.709 E2.61395 ; infill
G1 X214.637 Y203.474 E2.67890 ; infill
G1 X214.637 Y202.052 E2.68423 ; infill
G1 X228.099 Y215.514 E2.75570 ; infill
G1 X229.289 Y215.282 E2.76025 ; infill
G1 X214.637 Y200.631 E2.83803 ; infill
G1 X214.637 Y200.405 E2.83888 ; infill
G1 X215.718 Y200.290 E2.84296 ; infill
G1 X230.440 Y215.013 E2.92111 ; infill
G1 X231.548 Y214.699 E2.92543 ; infill
G1 X217.003 Y200.154 E3.00265 ; infill
G1 X218.313 Y200.042 E3.00758 ; infill
G1 X232.615 Y214.344 E3.08351 ; infill
G1 X233.642 Y213.950 E3.08764 ; infill
G1 X219.661 Y199.969 E3.16186 ; infill
G1 X221.054 Y199.941 E3.16709 ; infill
G1 X234.626 Y213.513 E3.23914 ; infill
G1 X234.997 Y213.338 E3.24068 ; infill
G1 X235.563 Y213.029 E3.24310 ; infill
G1 X222.500 Y199.965 E3.31245 ; infill
G1 X224.012 Y200.056 E3.31814 ; infill
G1 X236.452 Y212.496 E3.38417 ; infill
G1 X237.029 Y212.095 E3.38681 ; infill
G1 X237.275 Y211.898 E3.38800 ; infill
G1 X225.599 Y200.221 E3.44998 ; infill
G1 X227.271 Y200.472 E3.45633 ; infill
G1 X238.030 Y211.231 E3.51345 ; infill
G1 X238.329 Y210.926 E3.51505 ; infill
G1 X238.697 Y210.476 E3.51723 ; infill
G1 X229.059 Y200.838 E3.56840 ; infill
G1 X230.301 Y201.160 E3.57321 ; infill
G1 X231.028 Y201.387 E3.57608 ; infill
G1 X239.223 Y209.581 E3.61958 ; infill
G1 X239.374 Y209.170 E3.62122 ; infill
G1 X239.447 Y208.852 E3.62245 ; infill
G1 X239.483 Y208.420 E3.62407 ; infill
G1 X233.300 Y202.238 E3.65690 ; infill
G1 X233.864 Y202.488 E3.65921 ; infill
G1 X234.800 Y202.972 E3.66317 ; infill
G1 X235.599 Y203.452 E3.66666 ; infill
G1 X236.305 Y203.947 E3.66990 ; infill
G1 X237.048 Y204.566 E3.67353 ; infill
G1 X238.221 Y205.737 E3.67975 ; infill
G1 Z6.950 F1800.000 ; move to next layer (2)
G1 E1.67975 F2400.00000 ; retract extruder 0
G92 E0 ; reset extrusion distance
G1 X216.866 Y202.435 F1800.000 ; move to first external perimeter point
G1 E2.00000 F2400.00000 ; unretract extruder 0
G1 F600.000
G1 X219.490 Y202.216 E2.01045 ; external perimeter
G1 X221.096 Y202.166 E2.01683 ; external perimeter
G1 X222.730 Y202.188 E2.02331 ; external perimeter
G1 X224.351 Y202.285 E2.02975 ; external perimeter
G1 X225.990 Y202.461 E2.03630 ; external perimeter
G1 X227.549 Y202.706 E2.04256 ; external perimeter
G1 X228.899 Y202.986 E2.04803 ; external perimeter
G1 X230.186 Y203.318 E2.05330 ; external perimeter
G1 X231.362 Y203.686 E2.05819 ; external perimeter
G1 X232.449 Y204.091 E2.06280 ; external perimeter
G1 X233.413 Y204.514 E2.06698 ; external perimeter
G1 X234.291 Y204.966 E2.07089 ; external perimeter
G1 X235.031 Y205.413 E2.07432 ; external perimeter
G1 X235.647 Y205.848 E2.07732 ; external perimeter
G1 X236.145 Y206.264 E2.07989 ; external perimeter
G1 X236.538 Y206.654 E2.08209 ; external perimeter
G1 X236.833 Y207.011 E2.08392 ; external perimeter
G1 X237.051 Y207.346 E2.08551 ; external perimeter
G1 X237.206 Y207.691 E2.08701 ; external perimeter
G1 X237.265 Y207.968 E2.08814 ; external perimeter
G1 X237.219 Y208.273 E2.08936 ; external perimeter
G1 X237.065 Y208.629 E2.09090 ; external perimeter
G1 X236.850 Y208.966 E2.09248 ; external perimeter
G1 X236.530 Y209.354 E2.09448 ; external perimeter
G1 X236.101 Y209.776 E2.09687 ; external perimeter
G1 X235.534 Y210.236 E2.09977 ; external perimeter
G1 X234.949 Y210.640 E2.10259 ; external perimeter
G1 X234.559 Y210.880 E2.10440 ; external perimeter
G1 X233.763 Y211.314 E2.10800 ; external perimeter
G1 X232.885 Y211.726 E2.11185 ; external perimeter
G1 X231.884 Y212.128 E2.11613 ; external perimeter
G1 X230.755 Y212.512 E2.12086 ; external perimeter
G1 X229.521 Y212.862 E2.12595 ; external perimeter
G1 X228.199 Y213.167 E2.13134 ; external perimeter
G1 X226.776 Y213.425 E2.13708 ; external perimeter
G1 X225.249 Y213.628 E2.14319 ; external perimeter
G1 X223.691 Y213.763 E2.14940 ; external perimeter
G1 X222.106 Y213.829 E2.15569 ; external perimeter
G1 X220.472 Y213.823 E2.16217 ; external perimeter
G1 X218.843 Y213.742 E2.16865 ; external perimeter
G1 X216.866 Y213.558 E2.17652 ; external perimeter
G1 X216.866 Y202.615 E2.21995 ; external perimeter
G1 X213.361 Y199.532 F1800.000 ; move to first external perimeter point
G1 F600.000
G1 X214.421 Y199.304 E2.22425 ; external perimeter
G1 X215.970 Y199.045 E2.23048 ; external perimeter
G1 X217.699 Y198.837 E2.23739 ; external perimeter
G1 X219.388 Y198.713 E2.24411 ; external perimeter
G1 X221.275 Y198.662 E2.25160 ; external perimeter
G1 X222.802 Y198.684 E2.25766 ; external perimeter
G1 X224.421 Y198.775 E2.26410 ; external perimeter
G1 X226.172 Y198.951 E2.27108 ; external perimeter
G1 X227.965 Y199.222 E2.27828 ; external perimeter
G1 X229.394 Y199.505 E2.28406 ; external perimeter
G1 X230.809 Y199.855 E2.28984 ; external perimeter
G1 X232.365 Y200.326 E2.29629 ; external perimeter
G1 X233.862 Y200.884 E2.30263 ; external perimeter
G1 X234.991 Y201.385 E2.30753 ; external perimeter
G1 X236.149 Y201.992 E2.31272 ; external perimeter
G1 X237.189 Y202.641 E2.31758 ; external perimeter
G1 X238.164 Y203.378 E2.32243 ; external perimeter
G1 X238.889 Y204.044 E2.32634 ; external perimeter
G1 X239.537 Y204.781 E2.33024 ; external perimeter
G1 X240.068 Y205.569 E2.33401 ; external perimeter
G1 X240.421 Y206.295 E2.33721 ; external perimeter
G1 X240.459 Y206.408 E2.33768 ; external perimeter
G1 X240.657 Y207.070 E2.34043 ; external perimeter
G1 X240.752 Y207.798 E2.34334 ; external perimeter
G1 X240.719 Y208.570 E2.34640 ; external perimeter
G1 X240.562 Y209.299 E2.34936 ; external perimeter
G1 X240.241 Y210.108 E2.35282 ; external perimeter
G1 X239.809 Y210.844 E2.35621 ; external perimeter
G1 X239.176 Y211.647 E2.36026 ; external perimeter
G1 X238.539 Y212.293 E2.36386 ; external perimeter
G1 X237.829 Y212.888 E2.36754 ; external perimeter
G1 X237.646 Y213.031 E2.36846 ; external perimeter
G1 X236.718 Y213.667 E2.37292 ; external perimeter
G1 X235.621 Y214.298 E2.37795 ; external perimeter
G1 X234.413 Y214.882 E2.38327 ; external perimeter
G1 X233.054 Y215.431 E2.38909 ; external perimeter
G1 X231.607 Y215.915 E2.39514 ; external perimeter
G1 X230.211 Y216.302 E2.40089 ; external perimeter
G1 X228.797 Y216.620 E2.40664 ; external perimeter
G1 X227.048 Y216.928 E2.41369 ; external perimeter
G1 X225.203 Y217.154 E2.42106 ; external perimeter
G1 X223.707 Y217.273 E2.42702 ; external perimeter
G1 X222.124 Y217.333 E2.43331 ; external perimeter
G1 X220.328 Y217.324 E2.44043 ; external perimeter
G1 X218.595 Y217.238 E2.44732 ; external perimeter
G1 X216.823 Y217.067 E2.45438 ; external perimeter
G1 X215.183 Y216.831 E2.46096 ; external perimeter
G1 X213.361 Y216.473 E2.46832 ; external perimeter
G1 X213.361 Y199.712 E2.53483 ; external perimeter
G1 X214.215 Y201.189 F1800.000 ; move to first infill point
G1 F1200.000
G1 X215.283 Y200.122 E2.54510 ; infill
G1 X216.701 Y199.885 E2.55487 ; infill
G1 X218.284 Y199.695 E2.56571 ; infill
G1 X216.409 Y201.570 E2.58374 ; infill
G1 X218.876 Y201.364 E2.60057 ; infill
G1 X219.199 Y201.354 E2.60277 ; infill
G1 X221.016 Y199.537 E2.62024 ; infill
G1 X221.817 Y199.516 E2.62569 ; infill
G1 X223.287 Y199.537 E2.63568 ; infill
G1 X223.574 Y199.554 E2.63763 ; infill
G1 X221.799 Y201.329 E2.65470 ; infill
G1 X222.248 Y201.335 E2.65775 ; infill
G1 X224.234 Y201.468 E2.67128 ; infill
G1 X225.964 Y199.738 E2.68792 ; infill
G1 X226.533 Y199.795 E2.69181 ; infill
G1 X228.226 Y200.050 E2.70345 ; infill
G1 X226.518 Y201.757 E2.71986 ; infill
