; generated by Slic3r 1.3.1-dev (Build (Unknown revision)) on 2022-09-17 at 14:55:48

; external perimeters extrusion width = 1.32mm (12.75mm^3/s)
; perimeters extrusion width = 1.26mm (12.03mm^3/s)
; infill extrusion width = 2.00mm (20.91mm^3/s)
; solid infill extrusion width = 2.00mm (41.82mm^3/s)
; top infill extrusion width = 1.26mm (18.04mm^3/s)

M107 ; disable fan
G92 E0 ; reset extrusion distance
M104 S200 ; set temperature
G28 ; home all axes
G1 Z5 F5000 ; lift nozzle

; Filament gcode

M109 S200 ; set temperature and wait for it to be reached
G21 ; set units to millimeters
G90 ; use absolute coordinates
M82 ; use absolute distances for extrusion
G92 E0 ; reset extrusion distance
G1 Z4.550 F1800.000 ; move to next layer (0)
G1 E-2.00000 F2400.00000 ; retract extruder 0
G92 E0 ; reset extrusion distance
G1 X203.405 Y184.501 F1800.000 ; move to first external perimeter point
G1 E2.00000 F2400.00000 ; unretract extruder 0
G1 F600.000
G1 X203.942 Y183.901 E2.00169 ; external perimeter
G1 X205.075 Y182.751 E2.00507 ; external perimeter
G1 X206.296 Y181.620 E2.00856 ; external perimeter
G1 X207.583 Y180.532 E2.01210 ; external perimeter
G1 X208.915 Y179.502 E2.01563 ; external perimeter
G1 X210.302 Y178.523 E2.01919 ; external perimeter
G1 X211.710 Y177.617 E2.02270 ; external perimeter
G1 X213.158 Y176.775 E2.02621 ; external perimeter
G1 X214.600 Y176.022 E2.02962 ; external perimeter
G1 X216.063 Y175.343 E2.03300 ; external perimeter
G1 X217.505 Y174.759 E2.03626 ; external perimeter
G1 X218.918 Y174.273 E2.03940 ; external perimeter
G1 X220.289 Y173.886 E2.04238 ; external perimeter
G1 X221.618 Y173.598 E2.04524 ; external perimeter
G1 X222.886 Y173.412 E2.04792 ; external perimeter
G1 X224.101 Y173.328 E2.05048 ; external perimeter
G1 X225.197 Y173.345 E2.05278 ; external perimeter
G1 X226.218 Y173.460 E2.05493 ; external perimeter
G1 X227.136 Y173.666 E2.05690 ; external perimeter
G1 X227.947 Y173.958 E2.05871 ; external perimeter
G1 X228.646 Y174.329 E2.06037 ; external perimeter
G1 X229.236 Y174.770 E2.06191 ; external perimeter
G1 X229.722 Y175.280 E2.06339 ; external perimeter
G1 X230.103 Y175.853 E2.06483 ; external perimeter
G1 X230.399 Y176.521 E2.06637 ; external perimeter
G1 X230.587 Y177.246 E2.06794 ; external perimeter
G1 X230.673 Y178.070 E2.06967 ; external perimeter
G1 X230.648 Y178.965 E2.07155 ; external perimeter
G1 X230.505 Y179.936 E2.07361 ; external perimeter
G1 X230.240 Y180.976 E2.07586 ; external perimeter
G1 X229.855 Y182.064 E2.07828 ; external perimeter
G1 X229.349 Y183.194 E2.08088 ; external perimeter
G1 X228.725 Y184.356 E2.08364 ; external perimeter
G1 X227.988 Y185.539 E2.08656 ; external perimeter
G1 X227.140 Y186.735 E2.08964 ; external perimeter
G1 X226.197 Y187.922 E2.09282 ; external perimeter
G1 X225.152 Y189.107 E2.09613 ; external perimeter
G1 X224.033 Y190.260 E2.09950 ; external perimeter
G1 X222.823 Y191.396 E2.10298 ; external perimeter
G1 X221.547 Y192.490 E2.10650 ; external perimeter
G1 X220.216 Y193.533 E2.11005 ; external perimeter
G1 X218.843 Y194.516 E2.11359 ; external perimeter
G1 X217.441 Y195.431 E2.11710 ; external perimeter
G1 X215.986 Y196.291 E2.12064 ; external perimeter
G1 X214.542 Y197.058 E2.12407 ; external perimeter
G1 X213.043 Y197.766 E2.12755 ; external perimeter
G1 X203.511 Y184.646 E2.16155 ; external perimeter
G1 E0.16155 F2400.00000 ; retract extruder 0
G92 E0 ; reset extrusion distance
G1 X205.669 Y184.880 F1800.000 ; move to first infill point
G1 E2.00000 F2400.00000 ; unretract extruder 0
G1 F600.000
G1 X205.657 Y184.892 E2.00004 ; infill
G1 X207.166 Y183.383 E2.00498 ; infill
G1 X208.321 Y182.313 E2.00862 ; infill
G1 X209.543 Y181.280 E2.01232 ; infill
G1 X210.808 Y180.302 E2.01602 ; infill
G1 X212.126 Y179.371 E2.01975 ; infill
G1 X213.464 Y178.511 E2.02343 ; infill
G1 X214.837 Y177.712 E2.02710 ; infill
G1 X216.200 Y177.000 E2.03066 ; infill
G1 X216.856 Y176.695 E2.03233 ; infill
G1 X206.411 Y187.141 E2.06650 ; infill
G1 X207.674 Y188.880 E2.07148 ; infill
G1 X221.561 Y174.993 E2.11691 ; infill
G1 X222.710 Y174.744 E2.11963 ; infill
G1 X223.841 Y174.579 E2.12227 ; infill
G1 X225.050 Y174.508 E2.12507 ; infill
G1 X208.938 Y190.620 E2.17778 ; infill
G1 X210.202 Y192.359 E2.18275 ; infill
G1 X227.673 Y174.888 E2.23990 ; infill
G1 X227.915 Y174.975 E2.24050 ; infill
G1 X228.361 Y175.211 E2.24167 ; infill
G1 X228.702 Y175.466 E2.24265 ; infill
G1 X228.961 Y175.738 E2.24352 ; infill
G1 X229.159 Y176.034 E2.24434 ; infill
G1 X229.272 Y176.292 E2.24499 ; infill
G1 X211.465 Y194.098 E2.30325 ; infill
G1 X212.729 Y195.838 E2.30822 ; infill
G1 X229.229 Y179.338 E2.36220 ; infill
G1 X229.145 Y179.667 E2.36298 ; infill
G1 X228.815 Y180.600 E2.36527 ; infill
G1 X228.369 Y181.596 E2.36780 ; infill
G1 X227.808 Y182.642 E2.37054 ; infill
G1 X227.133 Y183.724 E2.37349 ; infill
G1 X226.349 Y184.830 E2.37663 ; infill
G1 X225.470 Y185.937 E2.37990 ; infill
G1 X224.488 Y187.051 E2.38333 ; infill
G1 X223.436 Y188.134 E2.38682 ; infill
G1 X221.932 Y189.638 E2.39174 ; infill
G1 Z5.750 F1800.000 ; move to next layer (1)
G1 E0.39174 F2400.00000 ; retract extruder 0
G92 E0 ; reset extrusion distance
G1 X202.969 Y184.479 F1800.000 ; move to first external perimeter point
G1 E2.00000 F2400.00000 ; unretract extruder 0
G1 F600.000
G1 X203.691 Y183.671 E2.00430 ; external perimeter
G1 X204.843 Y182.503 E2.01081 ; external perimeter
G1 X206.070 Y181.367 E2.01744 ; external perimeter
G1 X207.363 Y180.272 E2.02417 ; external perimeter
G1 X208.713 Y179.228 E2.03094 ; external perimeter
G1 X210.108 Y178.243 E2.03772 ; external perimeter
G1 X211.538 Y177.324 E2.04446 ; external perimeter
G1 X213.000 Y176.474 E2.05117 ; external perimeter
G1 X214.458 Y175.712 E2.05770 ; external perimeter
G1 X215.924 Y175.033 E2.06411 ; external perimeter
G1 X217.378 Y174.444 E2.07034 ; external perimeter
G1 X218.810 Y173.950 E2.07635 ; external perimeter
G1 X220.207 Y173.556 E2.08211 ; external perimeter
G1 X221.557 Y173.263 E2.08759 ; external perimeter
G1 X222.848 Y173.074 E2.09277 ; external perimeter
G1 X224.174 Y172.988 E2.09804 ; external perimeter
G1 X225.218 Y173.006 E2.10218 ; external perimeter
G1 X226.274 Y173.124 E2.10640 ; external perimeter
G1 X227.232 Y173.339 E2.11029 ; external perimeter
G1 X228.084 Y173.647 E2.11389 ; external perimeter
G1 X228.828 Y174.040 E2.11723 ; external perimeter
G1 X229.462 Y174.515 E2.12037 ; external perimeter
G1 X229.988 Y175.067 E2.12340 ; external perimeter
G1 X230.386 Y175.660 E2.12623 ; external perimeter
G1 X230.731 Y176.440 E2.12962 ; external perimeter
G1 X230.923 Y177.188 E2.13268 ; external perimeter
G1 X231.014 Y178.068 E2.13619 ; external perimeter
G1 X230.987 Y178.995 E2.13987 ; external perimeter
G1 X230.839 Y180.003 E2.14391 ; external perimeter
G1 X230.567 Y181.069 E2.14828 ; external perimeter
G1 X230.161 Y182.213 E2.15310 ; external perimeter
G1 X229.656 Y183.340 E2.15800 ; external perimeter
G1 X229.022 Y184.523 E2.16332 ; external perimeter
G1 X228.273 Y185.724 E2.16894 ; external perimeter
G1 X227.417 Y186.933 E2.17482 ; external perimeter
G1 X226.458 Y188.141 E2.18094 ; external perimeter
G1 X225.406 Y189.334 E2.18725 ; external perimeter
G1 X224.267 Y190.507 E2.19374 ; external perimeter
G1 X223.067 Y191.634 E2.20027 ; external perimeter
G1 X221.766 Y192.750 E2.20707 ; external perimeter
G1 X220.424 Y193.802 E2.21384 ; external perimeter
G1 X219.035 Y194.797 E2.22062 ; external perimeter
G1 X217.668 Y195.689 E2.22710 ; external perimeter
G1 X216.158 Y196.584 E2.23406 ; external perimeter
G1 X214.703 Y197.357 E2.24060 ; external perimeter
G1 X212.927 Y198.184 E2.24838 ; external perimeter
G1 X203.075 Y184.624 E2.31489 ; external perimeter
G1 X213.156 Y195.812 F1800.000 ; move to first infill point
G1 F900.000
G1 X213.936 Y196.593 E2.31917 ; infill
G1 X214.858 Y196.045 E2.32333 ; infill
G1 X209.252 Y190.439 E2.35409 ; infill
G1 X205.348 Y185.066 E2.37987 ; infill
G1 X215.780 Y195.498 E2.43712 ; infill
G1 X216.702 Y194.950 E2.44128 ; infill
G1 X205.307 Y183.555 E2.50382 ; infill
G1 X206.079 Y182.858 E2.50785 ; infill
G1 X217.606 Y194.385 E2.57111 ; infill
G1 X218.495 Y193.804 E2.57523 ; infill
G1 X206.856 Y182.165 E2.63911 ; infill
G1 X207.650 Y181.490 E2.64315 ; infill
G1 X219.351 Y193.191 E2.70737 ; infill
G1 X220.194 Y192.565 E2.71144 ; infill
G1 X208.464 Y180.835 E2.77582 ; infill
G1 X209.292 Y180.193 E2.77988 ; infill
G1 X221.014 Y191.915 E2.84422 ; infill
G1 X221.811 Y191.243 E2.84826 ; infill
G1 X210.153 Y179.585 E2.91224 ; infill
G1 X211.028 Y178.990 E2.91634 ; infill
G1 X222.593 Y190.556 E2.97982 ; infill
G1 X223.346 Y189.839 E2.98385 ; infill
G1 X211.924 Y178.417 E3.04653 ; infill
G1 X212.849 Y177.872 E3.05070 ; infill
G1 X224.080 Y189.103 E3.11233 ; infill
G1 X224.795 Y188.349 E3.11637 ; infill
G1 X213.788 Y177.342 E3.17677 ; infill
G1 X214.761 Y176.846 E3.18101 ; infill
G1 X225.478 Y187.563 E3.23983 ; infill
G1 X226.136 Y186.751 E3.24388 ; infill
G1 X215.758 Y176.374 E3.30083 ; infill
G1 X216.783 Y175.929 E3.30517 ; infill
G1 X226.768 Y185.914 E3.35997 ; infill
G1 X227.369 Y185.046 E3.36406 ; infill
G1 X217.839 Y175.516 E3.41637 ; infill
G1 X218.938 Y175.145 E3.42087 ; infill
G1 X227.934 Y184.141 E3.47023 ; infill
G1 X228.453 Y183.191 E3.47443 ; infill
G1 X220.082 Y174.820 E3.52037 ; infill
G1 X221.280 Y174.549 E3.52514 ; infill
G1 X228.920 Y182.188 E3.56706 ; infill
G1 X229.057 Y181.855 E3.56846 ; infill
G1 X229.319 Y181.118 E3.57150 ; infill
G1 X222.551 Y174.350 E3.60864 ; infill
G1 X223.418 Y174.276 E3.61201 ; infill
G1 X223.936 Y174.265 E3.61402 ; infill
G1 X229.615 Y179.944 E3.64519 ; infill
G1 X229.711 Y179.325 E3.64762 ; infill
G1 X229.743 Y178.603 E3.65043 ; infill
G1 X225.505 Y174.365 E3.67369 ; infill
G1 X225.920 Y174.433 E3.67532 ; infill
G1 X226.526 Y174.588 E3.67775 ; infill
G1 X227.078 Y174.800 E3.68004 ; infill
G1 X227.480 Y175.008 E3.68180 ; infill
G1 X227.765 Y175.199 E3.68313 ; infill
G1 X228.024 Y175.414 E3.68444 ; infill
G1 X228.808 Y176.198 E3.68874 ; infill
G1 Z6.950 F1800.000 ; move to next layer (2)
G1 E1.68874 F2400.00000 ; retract extruder 0
G92 E0 ; reset extrusion distance
G1 X207.510 Y184.767 F1800.000 ; move to first external perimeter point
G1 E2.00000 F2400.00000 ; unretract extruder 0
G1 F600.000
G1 X209.519 Y183.036 E2.01052 ; external perimeter
G1 X210.789 Y182.051 E2.01690 ; external perimeter
G1 X212.110 Y181.120 E2.02331 ; external perimeter
G1 X213.494 Y180.236 E2.02983 ; external perimeter
G1 X214.891 Y179.434 E2.03622 ; external perimeter
G1 X216.313 Y178.707 E2.04256 ; external perimeter
G1 X217.587 Y178.132 E2.04810 ; external perimeter
G1 X218.805 Y177.652 E2.05330 ; external perimeter
G1 X219.989 Y177.253 E2.05826 ; external perimeter
G1 X221.091 Y176.947 E2.06280 ; external perimeter
G1 X222.120 Y176.722 E2.06698 ; external perimeter
G1 X223.095 Y176.572 E2.07089 ; external perimeter
G1 X223.956 Y176.499 E2.07432 ; external perimeter
G1 X224.711 Y176.489 E2.07732 ; external perimeter
G1 X225.359 Y176.532 E2.07989 ; external perimeter
G1 X225.906 Y176.617 E2.08209 ; external perimeter
G1 X226.373 Y176.738 E2.08400 ; external perimeter
G1 X226.919 Y176.972 E2.08636 ; external perimeter
G1 X227.277 Y177.247 E2.08815 ; external perimeter
G1 X227.445 Y177.652 E2.08989 ; external perimeter
G1 X227.496 Y177.943 E2.09107 ; external perimeter
G1 X227.516 Y178.302 E2.09249 ; external perimeter
G1 X227.486 Y178.806 E2.09450 ; external perimeter
G1 X227.387 Y179.400 E2.09688 ; external perimeter
G1 X227.201 Y180.099 E2.09976 ; external perimeter
G1 X226.963 Y180.775 E2.10260 ; external perimeter
G1 X226.788 Y181.199 E2.10442 ; external perimeter
G1 X226.399 Y182.019 E2.10802 ; external perimeter
G1 X225.921 Y182.885 E2.11195 ; external perimeter
G1 X225.347 Y183.796 E2.11622 ; external perimeter
G1 X224.670 Y184.755 E2.12088 ; external perimeter
G1 X223.877 Y185.764 E2.12597 ; external perimeter
G1 X222.987 Y186.787 E2.13135 ; external perimeter
G1 X222.001 Y187.820 E2.13702 ; external perimeter
G1 X220.872 Y188.895 E2.14320 ; external perimeter
G1 X219.690 Y189.920 E2.14941 ; external perimeter
G1 X218.447 Y190.905 E2.15570 ; external perimeter
G1 X217.121 Y191.860 E2.16219 ; external perimeter
G1 X215.756 Y192.753 E2.16866 ; external perimeter
G1 X214.048 Y193.766 E2.17654 ; external perimeter
G1 X207.616 Y184.912 E2.21996 ; external perimeter
G1 X202.969 Y184.479 F1800.000 ; move to first external perimeter point
G1 F600.000
G1 X203.691 Y183.671 E2.22426 ; external perimeter
G1 X204.843 Y182.503 E2.23077 ; external perimeter
G1 X206.070 Y181.367 E2.23741 ; external perimeter
G1 X207.363 Y180.272 E2.24413 ; external perimeter
G1 X208.713 Y179.228 E2.25090 ; external perimeter
G1 X210.108 Y178.243 E2.25768 ; external perimeter
G1 X211.538 Y177.324 E2.26443 ; external perimeter
G1 X213.009 Y176.469 E2.27118 ; external perimeter
G1 X214.458 Y175.712 E2.27766 ; external perimeter
G1 X215.924 Y175.033 E2.28407 ; external perimeter
G1 X217.378 Y174.444 E2.29030 ; external perimeter
G1 X218.810 Y173.950 E2.29631 ; external perimeter
G1 X220.207 Y173.556 E2.30207 ; external perimeter
G1 X221.591 Y173.257 E2.30769 ; external perimeter
G1 X222.928 Y173.066 E2.31305 ; external perimeter
G1 X224.280 Y172.988 E2.31842 ; external perimeter
G1 X225.218 Y173.005 E2.32214 ; external perimeter
G1 X226.274 Y173.124 E2.32636 ; external perimeter
G1 X227.232 Y173.339 E2.33026 ; external perimeter
G1 X228.084 Y173.647 E2.33385 ; external perimeter
G1 X228.828 Y174.040 E2.33719 ; external perimeter
G1 X229.462 Y174.515 E2.34034 ; external perimeter
G1 X229.989 Y175.068 E2.34337 ; external perimeter
G1 X230.373 Y175.637 E2.34609 ; external perimeter
G1 X230.744 Y176.482 E2.34975 ; external perimeter
G1 X230.923 Y177.187 E2.35264 ; external perimeter
G1 X231.015 Y178.084 E2.35622 ; external perimeter
G1 X230.987 Y178.995 E2.35983 ; external perimeter
G1 X230.839 Y180.003 E2.36388 ; external perimeter
G1 X230.568 Y181.069 E2.36824 ; external perimeter
G1 X230.147 Y182.249 E2.37321 ; external perimeter
G1 X229.657 Y183.340 E2.37796 ; external perimeter
G1 X229.022 Y184.523 E2.38329 ; external perimeter
G1 X228.273 Y185.724 E2.38890 ; external perimeter
G1 X227.417 Y186.933 E2.39478 ; external perimeter
G1 X226.457 Y188.141 E2.40090 ; external perimeter
G1 X225.406 Y189.334 E2.40722 ; external perimeter
G1 X224.266 Y190.507 E2.41370 ; external perimeter
G1 X223.087 Y191.615 E2.42012 ; external perimeter
G1 X221.766 Y192.750 E2.42703 ; external perimeter
G1 X220.424 Y193.802 E2.43380 ; external perimeter
G1 X219.035 Y194.797 E2.44058 ; external perimeter
G1 X217.741 Y195.643 E2.44672 ; external perimeter
G1 X216.158 Y196.584 E2.45402 ; external perimeter
G1 X214.714 Y197.352 E2.46051 ; external perimeter
G1 X212.927 Y198.184 E2.46834 ; external perimeter
G1 X203.075 Y184.624 E2.53485 ; external perimeter
G1 X205.265 Y184.043 F1800.000 ; move to first infill point
G1 F1200.000
G1 X204.218 Y185.106 E2.54513 ; infill
G1 X205.310 Y186.609 E2.55795 ; infill
G1 X206.900 Y185.019 E2.57346 ; infill
G1 X207.999 Y186.532 E2.58635 ; infill
G1 X206.409 Y188.121 E2.60186 ; infill
G1 X207.508 Y189.634 E2.61475 ; infill
G1 X209.098 Y188.044 E2.63026 ; infill
G1 X210.197 Y189.557 E2.64315 ; infill
G1 X208.607 Y191.147 E2.65866 ; infill
G1 X209.706 Y192.659 E2.67155 ; infill
G1 X211.296 Y191.069 E2.68706 ; infill
G1 X212.395 Y192.582 E2.69995 ; infill
G1 X210.805 Y194.172 E2.71546 ; infill
G1 X211.904 Y195.684 E2.72835 ; infill
G1 X213.494 Y194.094 E2.74386 ; infill
G1 X214.203 Y195.070 E2.75218 ; infill
G1 X216.481 Y193.719 E2.77045 ; infill
G1 X213.552 Y196.648 E2.79902 ; infill
G1 X222.757 Y190.054 F1800.000 ; move to first infill point
G1 F1200.000
G1 X224.921 Y187.858 E2.82027 ; infill
G1 X225.926 Y186.717 E2.83076 ; infill
G1 X226.840 Y185.566 E2.84090 ; infill
G1 X227.651 Y184.422 E2.85057 ; infill
G1 X228.354 Y183.294 E2.85974 ; infill
G1 X228.945 Y182.193 E2.86835 ; infill
G1 X229.392 Y181.197 E2.87589 ; infill
G1 X229.608 Y180.591 E2.88032 ; infill
