; generated by Slic3r 1.3.1-dev (Build (Unknown revision)) on 2022-09-17 at 14:55:48

; external perimeters extrusion width = 1.32mm (12.75mm^3/s)
; perimeters extrusion width = 1.26mm (12.03mm^3/s)
; infill extrusion width = 2.00mm (20.91mm^3/s)
; solid infill extrusion width = 2.00mm (41.82mm^3/s)
; top infill extrusion width = 1.26mm (18.04mm^3/s)

M107 ; disable fan
G92 E0 ; reset extrusion distance
M104 S200 ; set temperature
G28 ; home all axes
G1 Z5 F5000 ; lift nozzle

; Filament gcode

M109 S200 ; set temperature and wait for it to be reached
G21 ; set units to millimeters
G90 ; use absolute coordinates
M82 ; use absolute distances for extrusion
G92 E0 ; reset extrusion distance
G1 Z4.550 F1800.000 ; move to next layer (0)
G1 E-2.00000 F2400.00000 ; retract extruder 0
G92 E0 ; reset extrusion distance
G1 X156.957 Y218.234 F1800.000 ; move to first external perimeter point
G1 E2.00000 F2400.00000 ; unretract extruder 0
G1 F600.000
G1 X166.595 Y231.499 E2.03438 ; external perimeter
G1 X166.058 Y232.099 E2.03607 ; external perimeter
G1 X164.925 Y233.249 E2.03945 ; external perimeter
G1 X163.704 Y234.380 E2.04294 ; external perimeter
G1 X162.417 Y235.468 E2.04648 ; external perimeter
G1 X161.085 Y236.498 E2.05001 ; external perimeter
G1 X159.698 Y237.477 E2.05357 ; external perimeter
G1 X158.290 Y238.382 E2.05708 ; external perimeter
G1 X156.826 Y239.233 E2.06063 ; external perimeter
G1 X155.400 Y239.978 E2.06400 ; external perimeter
G1 X153.937 Y240.657 E2.06738 ; external perimeter
G1 X152.495 Y241.241 E2.07065 ; external perimeter
G1 X151.098 Y241.722 E2.07374 ; external perimeter
G1 X149.711 Y242.114 E2.07677 ; external perimeter
G1 X148.364 Y242.405 E2.07966 ; external perimeter
G1 X147.113 Y242.588 E2.08231 ; external perimeter
G1 X145.917 Y242.672 E2.08482 ; external perimeter
G1 X144.797 Y242.654 E2.08717 ; external perimeter
G1 X143.782 Y242.540 E2.08931 ; external perimeter
G1 X142.864 Y242.334 E2.09128 ; external perimeter
G1 X142.042 Y242.036 E2.09312 ; external perimeter
G1 X141.354 Y241.672 E2.09475 ; external perimeter
G1 X140.764 Y241.230 E2.09629 ; external perimeter
G1 X140.278 Y240.720 E2.09777 ; external perimeter
G1 X139.897 Y240.147 E2.09922 ; external perimeter
G1 X139.601 Y239.479 E2.10075 ; external perimeter
G1 X139.413 Y238.754 E2.10232 ; external perimeter
G1 X139.327 Y237.939 E2.10404 ; external perimeter
G1 X139.352 Y237.034 E2.10593 ; external perimeter
G1 X139.497 Y236.055 E2.10801 ; external perimeter
G1 X139.760 Y235.024 E2.11024 ; external perimeter
G1 X140.141 Y233.948 E2.11263 ; external perimeter
G1 X140.651 Y232.805 E2.11526 ; external perimeter
G1 X141.275 Y231.644 E2.11802 ; external perimeter
G1 X142.012 Y230.461 E2.12095 ; external perimeter
G1 X142.850 Y229.278 E2.12399 ; external perimeter
G1 X143.803 Y228.078 E2.12720 ; external perimeter
G1 X144.848 Y226.893 E2.13051 ; external perimeter
G1 X145.978 Y225.729 E2.13391 ; external perimeter
G1 X147.177 Y224.604 E2.13736 ; external perimeter
G1 X148.440 Y223.521 E2.14085 ; external perimeter
G1 X149.784 Y222.467 E2.14443 ; external perimeter
G1 X151.168 Y221.476 E2.14800 ; external perimeter
G1 X152.571 Y220.562 E2.15151 ; external perimeter
G1 X154.000 Y219.717 E2.15499 ; external perimeter
G1 X155.465 Y218.939 E2.15847 ; external perimeter
G1 X156.794 Y218.311 E2.16155 ; external perimeter
G1 E0.16155 F2400.00000 ; retract extruder 0
G92 E0 ; reset extrusion distance
G1 X148.079 Y226.351 F1800.000 ; move to first infill point
G1 E2.00000 F2400.00000 ; unretract extruder 0
G1 F600.000
G1 X146.574 Y227.856 E2.00492 ; infill
G1 X145.512 Y228.949 E2.00845 ; infill
G1 X144.531 Y230.063 E2.01188 ; infill
G1 X143.642 Y231.182 E2.01519 ; infill
G1 X142.867 Y232.276 E2.01829 ; infill
G1 X142.192 Y233.358 E2.02124 ; infill
G1 X141.632 Y234.403 E2.02398 ; infill
G1 X141.181 Y235.411 E2.02653 ; infill
G1 X140.855 Y236.333 E2.02880 ; infill
G1 X140.771 Y236.662 E2.02958 ; infill
G1 X157.271 Y220.162 E2.08356 ; infill
G1 X158.535 Y221.902 E2.08853 ; infill
G1 X140.728 Y239.709 E2.14678 ; infill
G1 X140.841 Y239.966 E2.14743 ; infill
G1 X141.039 Y240.262 E2.14826 ; infill
G1 X141.298 Y240.534 E2.14913 ; infill
G1 X141.639 Y240.789 E2.15011 ; infill
G1 X142.075 Y241.020 E2.15125 ; infill
G1 X142.327 Y241.112 E2.15187 ; infill
G1 X159.798 Y223.641 E2.20903 ; infill
G1 X161.062 Y225.380 E2.21400 ; infill
G1 X144.950 Y241.492 E2.26670 ; infill
G1 X146.158 Y241.421 E2.26950 ; infill
G1 X147.272 Y241.258 E2.27211 ; infill
G1 X148.439 Y241.006 E2.27487 ; infill
G1 X162.326 Y227.120 E2.32029 ; infill
G1 X163.589 Y228.859 E2.32527 ; infill
G1 X153.144 Y239.305 E2.35944 ; infill
G1 E0.35944 F2400.00000 ; retract extruder 0
G92 E0 ; reset extrusion distance
G1 X162.834 Y232.617 F1800.000 ; move to first infill point
G1 E2.00000 F2400.00000 ; unretract extruder 0
G1 F600.000
G1 X164.343 Y231.109 E2.00493 ; infill
G1 X164.331 Y231.120 E2.00497 ; infill
G1 Z5.750 F1800.000 ; move to next layer (1)
G1 X157.073 Y217.816 F1800.000 ; move to first external perimeter point
G1 F600.000
G1 X167.031 Y231.521 E2.07220 ; external perimeter
G1 X166.309 Y232.329 E2.07649 ; external perimeter
G1 X165.180 Y233.476 E2.08288 ; external perimeter
G1 X163.857 Y234.697 E2.09002 ; external perimeter
G1 X162.637 Y235.728 E2.09636 ; external perimeter
G1 X161.287 Y236.772 E2.10313 ; external perimeter
G1 X159.892 Y237.757 E2.10991 ; external perimeter
G1 X158.492 Y238.657 E2.11652 ; external perimeter
G1 X156.915 Y239.571 E2.12375 ; external perimeter
G1 X155.542 Y240.287 E2.12989 ; external perimeter
G1 X154.077 Y240.967 E2.13630 ; external perimeter
G1 X152.528 Y241.590 E2.14293 ; external perimeter
G1 X151.190 Y242.050 E2.14854 ; external perimeter
G1 X149.794 Y242.444 E2.15430 ; external perimeter
G1 X148.345 Y242.752 E2.16018 ; external perimeter
G1 X147.150 Y242.926 E2.16497 ; external perimeter
G1 X145.926 Y243.012 E2.16983 ; external perimeter
G1 X144.748 Y242.992 E2.17451 ; external perimeter
G1 X143.726 Y242.876 E2.17859 ; external perimeter
G1 X142.771 Y242.661 E2.18248 ; external perimeter
G1 X141.850 Y242.321 E2.18637 ; external perimeter
G1 X141.172 Y241.960 E2.18942 ; external perimeter
G1 X140.538 Y241.485 E2.19257 ; external perimeter
G1 X140.012 Y240.933 E2.19559 ; external perimeter
G1 X139.614 Y240.340 E2.19843 ; external perimeter
G1 X139.269 Y239.560 E2.20181 ; external perimeter
G1 X139.077 Y238.811 E2.20488 ; external perimeter
G1 X138.988 Y237.982 E2.20818 ; external perimeter
G1 X139.013 Y237.005 E2.21206 ; external perimeter
G1 X139.171 Y235.950 E2.21630 ; external perimeter
G1 X139.433 Y234.930 E2.22047 ; external perimeter
G1 X139.813 Y233.851 E2.22501 ; external perimeter
G1 X140.344 Y232.660 E2.23019 ; external perimeter
G1 X140.989 Y231.458 E2.23560 ; external perimeter
G1 X141.727 Y230.276 E2.24113 ; external perimeter
G1 X142.557 Y229.102 E2.24684 ; external perimeter
G1 X143.542 Y227.859 E2.25313 ; external perimeter
G1 X144.615 Y226.644 E2.25956 ; external perimeter
G1 X145.733 Y225.493 E2.26593 ; external perimeter
G1 X146.873 Y224.423 E2.27213 ; external perimeter
G1 X148.234 Y223.250 E2.27927 ; external perimeter
G1 X149.600 Y222.180 E2.28615 ; external perimeter
G1 X151.028 Y221.161 E2.29311 ; external perimeter
G1 X152.397 Y220.270 E2.29959 ; external perimeter
G1 X153.801 Y219.439 E2.30607 ; external perimeter
G1 X155.343 Y218.620 E2.31300 ; external perimeter
G1 X156.908 Y217.887 E2.31985 ; external perimeter
G1 X156.844 Y220.187 F1800.000 ; move to first infill point
G1 F900.000
G1 X156.064 Y219.407 E2.32414 ; infill
G1 X155.142 Y219.955 E2.32830 ; infill
G1 X160.748 Y225.561 E2.35906 ; infill
G1 X164.652 Y230.934 E2.38484 ; infill
G1 X154.220 Y220.502 E2.44209 ; infill
G1 X153.298 Y221.050 E2.44625 ; infill
G1 X164.693 Y232.445 E2.50878 ; infill
G1 X163.921 Y233.142 E2.51282 ; infill
G1 X152.394 Y221.615 E2.57608 ; infill
G1 X151.505 Y222.196 E2.58020 ; infill
G1 X163.144 Y233.835 E2.64408 ; infill
G1 X162.350 Y234.510 E2.64812 ; infill
G1 X150.649 Y222.809 E2.71234 ; infill
G1 X149.806 Y223.435 E2.71641 ; infill
G1 X161.536 Y235.165 E2.78079 ; infill
G1 X160.708 Y235.807 E2.78485 ; infill
G1 X148.986 Y224.085 E2.84918 ; infill
G1 X148.189 Y224.757 E2.85323 ; infill
G1 X159.847 Y236.415 E2.91721 ; infill
G1 X158.972 Y237.010 E2.92131 ; infill
G1 X147.407 Y225.444 E2.98478 ; infill
G1 X146.654 Y226.161 E2.98882 ; infill
G1 X158.076 Y237.583 E3.05150 ; infill
G1 X157.151 Y238.128 E3.05567 ; infill
G1 X145.920 Y226.897 E3.11730 ; infill
G1 X145.205 Y227.651 E3.12134 ; infill
G1 X156.212 Y238.658 E3.18174 ; infill
G1 X155.239 Y239.154 E3.18598 ; infill
G1 X144.522 Y228.437 E3.24480 ; infill
G1 X143.864 Y229.249 E3.24885 ; infill
G1 X154.242 Y239.626 E3.30580 ; infill
G1 X153.217 Y240.071 E3.31014 ; infill
G1 X143.232 Y230.086 E3.36494 ; infill
G1 X142.631 Y230.954 E3.36903 ; infill
G1 X152.161 Y240.484 E3.42133 ; infill
G1 X151.062 Y240.855 E3.42583 ; infill
G1 X142.066 Y231.859 E3.47520 ; infill
G1 X141.547 Y232.809 E3.47940 ; infill
G1 X149.917 Y241.180 E3.52534 ; infill
G1 X148.720 Y241.451 E3.53011 ; infill
G1 X141.080 Y233.812 E3.57203 ; infill
G1 X140.942 Y234.145 E3.57343 ; infill
G1 X140.681 Y234.883 E3.57647 ; infill
G1 X147.449 Y241.650 E3.61361 ; infill
G1 X146.582 Y241.724 E3.61698 ; infill
G1 X146.064 Y241.735 E3.61899 ; infill
G1 X140.385 Y236.056 E3.65016 ; infill
G1 X140.289 Y236.676 E3.65259 ; infill
G1 X140.257 Y237.397 E3.65540 ; infill
G1 X144.495 Y241.635 E3.67866 ; infill
G1 X144.080 Y241.567 E3.68029 ; infill
G1 X143.474 Y241.412 E3.68272 ; infill
G1 X142.922 Y241.200 E3.68501 ; infill
G1 X142.520 Y240.991 E3.68677 ; infill
G1 X142.235 Y240.801 E3.68810 ; infill
G1 X141.976 Y240.586 E3.68940 ; infill
G1 X141.191 Y239.801 E3.69371 ; infill
G1 Z6.950 F1800.000 ; move to next layer (2)
G1 E1.69371 F2400.00000 ; retract extruder 0
G92 E0 ; reset extrusion distance
G1 X155.952 Y222.234 F1800.000 ; move to first external perimeter point
G1 E2.00000 F2400.00000 ; unretract extruder 0
G1 F600.000
G1 X162.490 Y231.233 E2.04414 ; external perimeter
G1 X160.481 Y232.964 E2.05466 ; external perimeter
G1 X159.211 Y233.949 E2.06104 ; external perimeter
G1 X157.875 Y234.890 E2.06753 ; external perimeter
G1 X156.506 Y235.764 E2.07397 ; external perimeter
G1 X155.109 Y236.566 E2.08036 ; external perimeter
G1 X153.687 Y237.293 E2.08670 ; external perimeter
G1 X152.413 Y237.868 E2.09224 ; external perimeter
G1 X151.195 Y238.348 E2.09744 ; external perimeter
G1 X150.011 Y238.747 E2.10240 ; external perimeter
G1 X148.893 Y239.057 E2.10700 ; external perimeter
G1 X147.880 Y239.278 E2.11112 ; external perimeter
G1 X146.905 Y239.428 E2.11503 ; external perimeter
G1 X146.044 Y239.501 E2.11846 ; external perimeter
G1 X145.289 Y239.511 E2.12146 ; external perimeter
G1 X144.641 Y239.468 E2.12403 ; external perimeter
G1 X144.094 Y239.383 E2.12623 ; external perimeter
G1 X143.646 Y239.268 E2.12806 ; external perimeter
G1 X143.273 Y239.125 E2.12965 ; external perimeter
G1 X142.915 Y238.920 E2.13129 ; external perimeter
G1 X142.638 Y238.614 E2.13292 ; external perimeter
G1 X142.508 Y238.105 E2.13501 ; external perimeter
G1 X142.483 Y237.697 E2.13663 ; external perimeter
G1 X142.513 Y237.205 E2.13859 ; external perimeter
G1 X142.613 Y236.601 E2.14102 ; external perimeter
G1 X142.797 Y235.908 E2.14386 ; external perimeter
G1 X143.037 Y235.225 E2.14674 ; external perimeter
G1 X143.212 Y234.801 E2.14856 ; external perimeter
G1 X143.601 Y233.982 E2.15215 ; external perimeter
G1 X144.069 Y233.132 E2.15600 ; external perimeter
G1 X144.653 Y232.204 E2.16035 ; external perimeter
G1 X145.342 Y231.230 E2.16509 ; external perimeter
G1 X146.123 Y230.236 E2.17010 ; external perimeter
G1 X147.013 Y229.213 E2.17549 ; external perimeter
G1 X147.999 Y228.180 E2.18115 ; external perimeter
G1 X149.128 Y227.105 E2.18734 ; external perimeter
G1 X150.310 Y226.080 E2.19355 ; external perimeter
G1 X151.553 Y225.095 E2.19984 ; external perimeter
G1 X152.880 Y224.138 E2.20633 ; external perimeter
G1 X154.466 Y223.117 E2.21382 ; external perimeter
G1 X155.797 Y222.326 E2.21996 ; external perimeter
G1 X157.073 Y217.816 F1800.000 ; move to first external perimeter point
G1 F600.000
G1 X167.031 Y231.521 E2.28718 ; external perimeter
G1 X166.308 Y232.329 E2.29148 ; external perimeter
G1 X165.207 Y233.449 E2.29772 ; external perimeter
G1 X163.915 Y234.646 E2.30470 ; external perimeter
G1 X162.637 Y235.728 E2.31135 ; external perimeter
G1 X161.288 Y236.771 E2.31811 ; external perimeter
G1 X159.668 Y237.902 E2.32596 ; external perimeter
G1 X158.462 Y238.676 E2.33164 ; external perimeter
G1 X157.008 Y239.522 E2.33832 ; external perimeter
G1 X155.542 Y240.288 E2.34488 ; external perimeter
G1 X154.251 Y240.889 E2.35053 ; external perimeter
G1 X152.525 Y241.592 E2.35793 ; external perimeter
G1 X151.190 Y242.050 E2.36353 ; external perimeter
G1 X149.796 Y242.443 E2.36928 ; external perimeter
G1 X148.221 Y242.772 E2.37566 ; external perimeter
G1 X147.151 Y242.926 E2.37995 ; external perimeter
G1 X145.927 Y243.012 E2.38482 ; external perimeter
G1 X144.705 Y242.989 E2.38967 ; external perimeter
G1 X143.727 Y242.876 E2.39358 ; external perimeter
G1 X142.768 Y242.661 E2.39747 ; external perimeter
G1 X141.907 Y242.350 E2.40111 ; external perimeter
G1 X141.146 Y241.943 E2.40453 ; external perimeter
G1 X140.538 Y241.486 E2.40755 ; external perimeter
G1 X140.011 Y240.932 E2.41059 ; external perimeter
G1 X139.627 Y240.363 E2.41331 ; external perimeter
G1 X139.553 Y240.226 E2.41393 ; external perimeter
G1 X139.256 Y239.518 E2.41697 ; external perimeter
G1 X139.077 Y238.811 E2.41987 ; external perimeter
G1 X138.991 Y238.029 E2.42299 ; external perimeter
G1 X139.013 Y237.005 E2.42705 ; external perimeter
G1 X139.185 Y235.891 E2.43153 ; external perimeter
G1 X139.432 Y234.930 E2.43546 ; external perimeter
G1 X139.795 Y233.898 E2.43981 ; external perimeter
G1 X140.344 Y232.659 E2.44518 ; external perimeter
G1 X141.003 Y231.434 E2.45070 ; external perimeter
G1 X141.727 Y230.276 E2.45612 ; external perimeter
G1 X142.524 Y229.147 E2.46160 ; external perimeter
G1 X143.543 Y227.858 E2.46812 ; external perimeter
G1 X144.640 Y226.617 E2.47470 ; external perimeter
G1 X145.733 Y225.493 E2.48092 ; external perimeter
G1 X146.775 Y224.513 E2.48660 ; external perimeter
G1 X148.235 Y223.249 E2.49426 ; external perimeter
G1 X149.631 Y222.157 E2.50129 ; external perimeter
G1 X151.109 Y221.107 E2.50848 ; external perimeter
G1 X152.390 Y220.274 E2.51455 ; external perimeter
G1 X153.751 Y219.468 E2.52083 ; external perimeter
G1 X155.390 Y218.597 E2.52819 ; external perimeter
G1 X156.908 Y217.887 E2.53484 ; external perimeter
G1 X147.243 Y225.946 F1800.000 ; move to first infill point
G1 F1200.000
G1 X145.124 Y228.094 E2.55565 ; infill
G1 X144.074 Y229.283 E2.56659 ; infill
G1 X143.102 Y230.512 E2.57740 ; infill
G1 X142.349 Y231.578 E2.58640 ; infill
G1 X141.670 Y232.665 E2.59524 ; infill
G1 X141.057 Y233.804 E2.60416 ; infill
G1 X140.552 Y234.943 E2.61275 ; infill
G1 X140.387 Y235.413 E2.61619 ; infill
G1 X142.821 Y232.980 E2.63993 ; infill
G1 X142.477 Y233.705 E2.64547 ; infill
G1 X142.274 Y234.196 E2.64913 ; infill
G1 X142.004 Y234.966 E2.65476 ; infill
G1 X141.789 Y235.775 E2.66053 ; infill
G1 X141.666 Y236.515 E2.66571 ; infill
G1 X141.651 Y236.761 E2.66741 ; infill
G1 X139.853 Y238.559 E2.68495 ; infill
G1 X139.912 Y239.098 E2.68868 ; infill
G1 X140.039 Y239.600 E2.69226 ; infill
G1 X140.313 Y240.224 E2.69696 ; infill
G1 X140.509 Y240.515 E2.69938 ; infill
G1 X142.081 Y238.943 E2.71471 ; infill
G1 X142.567 Y239.480 E2.71971 ; infill
G1 X143.210 Y239.849 E2.72482 ; infill
G1 X143.627 Y240.008 E2.72790 ; infill
G1 X142.000 Y241.635 E2.74377 ; infill
G1 X142.624 Y241.860 E2.74834 ; infill
G1 X143.425 Y242.040 E2.75401 ; infill
G1 X144.126 Y242.121 E2.75887 ; infill
G1 X145.883 Y240.364 E2.77601 ; infill
G1 X146.645 Y240.354 E2.78127 ; infill
G1 X147.604 Y240.273 E2.78790 ; infill
G1 X148.773 Y240.086 E2.79607 ; infill
G1 X146.831 Y242.027 E2.81500 ; infill
